%
(1001)
(T3 D=3 CR=0 - ZMIN=-5.2 - flat end mill)
N10 G90 G94
N15 G17
N20 G21
N25 G28

(??5)
N30 T3 M6
N35 S20000 M3
N40 G54
N45 M8
N50 G0 X49.019 Y34.47
N55 G43 Z2.3
N60 G1 Z0.6 F50
N65 X49.012 Y34.468 Z0.533
N70 X48.991 Y34.461 Z0.47
N75 X48.957 Y34.45 Z0.413
N80 X48.912 Y34.435 Z0.365
N85 X48.858 Y34.417 Z0.33
N90 X48.798 Y34.398 Z0.308
N95 X48.734 Y34.377 Z0.3
N100 X48.591 Y34.331
N105 G3 X48.399 Y33.953 I0.093 J-0.285
N110 X51.252 Y34.88 Z0.25 I1.427 J0.464 F800
N115 X48.399 Y33.953 Z0.2 I-1.427 J-0.464
N120 X51.252 Y34.88 Z0.15 I1.427 J0.464
N125 X48.399 Y33.953 Z0.1 I-1.427 J-0.464
N130 X51.252 Y34.88 Z0.05 I1.427 J0.464
N135 X48.399 Y33.953 Z0 I-1.427 J-0.464
N140 X51.252 Y34.88 Z-0.05 I1.427 J0.464
N145 X48.399 Y33.953 Z-0.1 I-1.427 J-0.464
N150 X51.252 Y34.88 Z-0.15 I1.427 J0.464
N155 X48.399 Y33.953 Z-0.2 I-1.427 J-0.464
N160 X51.252 Y34.88 Z-0.25 I1.427 J0.464
N165 X48.399 Y33.953 Z-0.3 I-1.427 J-0.464
N170 X51.252 Y34.88 Z-0.35 I1.427 J0.464
N175 X48.399 Y33.953 Z-0.4 I-1.427 J-0.464
N180 X51.252 Y34.88 Z-0.45 I1.427 J0.464
N185 X48.399 Y33.953 Z-0.5 I-1.427 J-0.464
N190 X51.252 Y34.88 Z-0.55 I1.427 J0.464
N195 X48.399 Y33.953 Z-0.6 I-1.427 J-0.464
N200 X51.252 Y34.88 Z-0.65 I1.427 J0.464
N205 X48.399 Y33.953 Z-0.7 I-1.427 J-0.464
N210 X51.252 Y34.88 Z-0.75 I1.427 J0.464
N215 X48.399 Y33.953 Z-0.8 I-1.427 J-0.464
N220 X51.252 Y34.88 Z-0.85 I1.427 J0.464
N225 X48.399 Y33.953 Z-0.9 I-1.427 J-0.464
N230 X51.252 Y34.88 Z-0.95 I1.427 J0.464
N235 X48.399 Y33.953 Z-1 I-1.427 J-0.464
N240 X51.252 Y34.88 Z-1.05 I1.427 J0.464
N245 X48.399 Y33.953 Z-1.1 I-1.427 J-0.464
N250 X51.252 Y34.88 Z-1.15 I1.427 J0.464
N255 X48.399 Y33.953 Z-1.2 I-1.427 J-0.464
N260 X51.252 Y34.88 Z-1.25 I1.427 J0.464
N265 X48.399 Y33.953 Z-1.3 I-1.427 J-0.464
N270 X51.252 Y34.88 Z-1.35 I1.427 J0.464
N275 X48.399 Y33.953 Z-1.4 I-1.427 J-0.464
N280 X51.252 Y34.88 Z-1.45 I1.427 J0.464
N285 X48.399 Y33.953 Z-1.5 I-1.427 J-0.464
N290 X51.252 Y34.88 Z-1.55 I1.427 J0.464
N295 X48.399 Y33.953 Z-1.6 I-1.427 J-0.464
N300 X51.252 Y34.88 Z-1.65 I1.427 J0.464
N305 X48.399 Y33.953 Z-1.7 I-1.427 J-0.464
N310 X51.252 Y34.88 Z-1.75 I1.427 J0.464
N315 X48.399 Y33.953 Z-1.8 I-1.427 J-0.464
N320 X51.252 Y34.88 Z-1.85 I1.427 J0.464
N325 X48.399 Y33.953 Z-1.9 I-1.427 J-0.464
N330 X51.252 Y34.88 Z-1.95 I1.427 J0.464
N335 X48.399 Y33.953 Z-2 I-1.427 J-0.464
N340 X51.252 Y34.88 Z-2.05 I1.427 J0.464
N345 X48.399 Y33.953 Z-2.1 I-1.427 J-0.464
N350 X51.252 Y34.88 Z-2.15 I1.427 J0.464
N355 X48.399 Y33.953 Z-2.2 I-1.427 J-0.464
N360 X51.252 Y34.88 Z-2.25 I1.427 J0.464
N365 X48.399 Y33.953 Z-2.3 I-1.427 J-0.464
N370 X51.252 Y34.88 Z-2.35 I1.427 J0.464
N375 X48.399 Y33.953 Z-2.4 I-1.427 J-0.464
N380 X51.252 Y34.88 Z-2.45 I1.427 J0.464
N385 X48.399 Y33.953 Z-2.5 I-1.427 J-0.464
N390 X51.252 Y34.88 Z-2.55 I1.427 J0.464
N395 X48.399 Y33.953 Z-2.6 I-1.427 J-0.464
N400 X51.252 Y34.88 Z-2.65 I1.427 J0.464
N405 X48.399 Y33.953 Z-2.7 I-1.427 J-0.464
N410 X51.252 Y34.88 Z-2.75 I1.427 J0.464
N415 X48.399 Y33.953 Z-2.8 I-1.427 J-0.464
N420 X51.252 Y34.88 Z-2.85 I1.427 J0.464
N425 X48.399 Y33.953 Z-2.9 I-1.427 J-0.464
N430 X51.252 Y34.88 Z-2.95 I1.427 J0.464
N435 X48.399 Y33.953 Z-3 I-1.427 J-0.464
N440 X51.252 Y34.88 Z-3.05 I1.427 J0.464
N445 X48.399 Y33.953 Z-3.1 I-1.427 J-0.464
N450 X51.252 Y34.88 Z-3.15 I1.427 J0.464
N455 X48.399 Y33.953 Z-3.2 I-1.427 J-0.464
N460 X51.252 Y34.88 I1.427 J0.464
N465 X48.399 Y33.953 I-1.427 J-0.464
N470 X48.777 Y33.76 I0.285 J0.093
N475 G1 X48.919 Y33.807
N480 X48.983 Y33.827 Z-3.192
N485 X49.043 Y33.847 Z-3.17
N490 X49.097 Y33.864 Z-3.135
N495 X49.143 Y33.879 Z-3.087
N500 X49.177 Y33.89 Z-3.03
N505 X49.198 Y33.897 Z-2.967
N510 X49.205 Y33.899 Z-2.9
N515 G0 Z2.3
N520 X41.79 Y46.847
N525 G1 Z0.6 F50
N530 X41.795 Y46.853 Z0.533
N535 X41.808 Y46.871 Z0.47
N540 X41.829 Y46.9 Z0.413
N545 X41.857 Y46.938 Z0.365
N550 X41.89 Y46.984 Z0.33
N555 X41.927 Y47.036 Z0.308
N560 X41.967 Y47.09 Z0.3
N565 X42.055 Y47.211
N570 G3 X41.989 Y47.63 I-0.243 J0.176
N575 X40.225 Y45.203 Z0.25 I-0.882 J-1.214 F800
N580 X41.989 Y47.63 Z0.2 I0.882 J1.214
N585 X40.225 Y45.203 Z0.15 I-0.882 J-1.214
N590 X41.989 Y47.63 Z0.1 I0.882 J1.214
N595 X40.225 Y45.203 Z0.05 I-0.882 J-1.214
N600 X41.989 Y47.63 Z0 I0.882 J1.214
N605 X40.225 Y45.203 Z-0.05 I-0.882 J-1.214
N610 X41.989 Y47.63 Z-0.1 I0.882 J1.214
N615 X40.225 Y45.203 Z-0.15 I-0.882 J-1.214
N620 X41.989 Y47.63 Z-0.2 I0.882 J1.214
N625 X40.225 Y45.203 Z-0.25 I-0.882 J-1.214
N630 X41.989 Y47.63 Z-0.3 I0.882 J1.214
N635 X40.225 Y45.203 Z-0.35 I-0.882 J-1.214
N640 X41.989 Y47.63 Z-0.4 I0.882 J1.214
N645 X40.225 Y45.203 Z-0.45 I-0.882 J-1.214
N650 X41.989 Y47.63 Z-0.5 I0.882 J1.214
N655 X40.225 Y45.203 Z-0.55 I-0.882 J-1.214
N660 X41.989 Y47.63 Z-0.6 I0.882 J1.214
N665 X40.225 Y45.203 Z-0.65 I-0.882 J-1.214
N670 X41.989 Y47.63 Z-0.7 I0.882 J1.214
N675 X40.225 Y45.203 Z-0.75 I-0.882 J-1.214
N680 X41.989 Y47.63 Z-0.8 I0.882 J1.214
N685 X40.225 Y45.203 Z-0.85 I-0.882 J-1.214
N690 X41.989 Y47.63 Z-0.9 I0.882 J1.214
N695 X40.225 Y45.203 Z-0.95 I-0.882 J-1.214
N700 X41.989 Y47.63 Z-1 I0.882 J1.214
N705 X40.225 Y45.203 Z-1.05 I-0.882 J-1.214
N710 X41.989 Y47.63 Z-1.1 I0.882 J1.214
N715 X40.225 Y45.203 Z-1.15 I-0.882 J-1.214
N720 X41.989 Y47.63 Z-1.2 I0.882 J1.214
N725 X40.225 Y45.203 Z-1.25 I-0.882 J-1.214
N730 X41.989 Y47.63 Z-1.3 I0.882 J1.214
N735 X40.225 Y45.203 Z-1.35 I-0.882 J-1.214
N740 X41.989 Y47.63 Z-1.4 I0.882 J1.214
N745 X40.225 Y45.203 Z-1.45 I-0.882 J-1.214
N750 X41.989 Y47.63 Z-1.5 I0.882 J1.214
N755 X40.225 Y45.203 Z-1.55 I-0.882 J-1.214
N760 X41.989 Y47.63 Z-1.6 I0.882 J1.214
N765 X40.225 Y45.203 Z-1.65 I-0.882 J-1.214
N770 X41.989 Y47.63 Z-1.7 I0.882 J1.214
N775 X40.225 Y45.203 Z-1.75 I-0.882 J-1.214
N780 X41.989 Y47.63 Z-1.8 I0.882 J1.214
N785 X40.225 Y45.203 Z-1.85 I-0.882 J-1.214
N790 X41.989 Y47.63 Z-1.9 I0.882 J1.214
N795 X40.225 Y45.203 Z-1.95 I-0.882 J-1.214
N800 X41.989 Y47.63 Z-2 I0.882 J1.214
N805 X40.225 Y45.203 Z-2.05 I-0.882 J-1.214
N810 X41.989 Y47.63 Z-2.1 I0.882 J1.214
N815 X40.225 Y45.203 Z-2.15 I-0.882 J-1.214
N820 X41.989 Y47.63 Z-2.2 I0.882 J1.214
N825 X40.225 Y45.203 Z-2.25 I-0.882 J-1.214
N830 X41.989 Y47.63 Z-2.3 I0.882 J1.214
N835 X40.225 Y45.203 Z-2.35 I-0.882 J-1.214
N840 X41.989 Y47.63 Z-2.4 I0.882 J1.214
N845 X40.225 Y45.203 Z-2.45 I-0.882 J-1.214
N850 X41.989 Y47.63 Z-2.5 I0.882 J1.214
N855 X40.225 Y45.203 Z-2.55 I-0.882 J-1.214
N860 X41.989 Y47.63 Z-2.6 I0.882 J1.214
N865 X40.225 Y45.203 Z-2.65 I-0.882 J-1.214
N870 X41.989 Y47.63 Z-2.7 I0.882 J1.214
N875 X40.225 Y45.203 Z-2.75 I-0.882 J-1.214
N880 X41.989 Y47.63 Z-2.8 I0.882 J1.214
N885 X40.225 Y45.203 Z-2.85 I-0.882 J-1.214
N890 X41.989 Y47.63 Z-2.9 I0.882 J1.214
N895 X40.225 Y45.203 Z-2.95 I-0.882 J-1.214
N900 X41.989 Y47.63 Z-3 I0.882 J1.214
N905 X40.225 Y45.203 Z-3.05 I-0.882 J-1.214
N910 X41.989 Y47.63 Z-3.1 I0.882 J1.214
N915 X40.225 Y45.203 Z-3.15 I-0.882 J-1.214
N920 X41.989 Y47.63 Z-3.2 I0.882 J1.214
N925 X40.225 Y45.203 I-0.882 J-1.214
N930 X41.989 Y47.63 I0.882 J1.214
N935 X41.569 Y47.564 I-0.176 J-0.243
N940 G1 X41.481 Y47.442
N945 X41.442 Y47.388 Z-3.192
N950 X41.405 Y47.337 Z-3.17
N955 X41.371 Y47.291 Z-3.135
N960 X41.343 Y47.252 Z-3.087
N965 X41.322 Y47.224 Z-3.03
N970 X41.309 Y47.206 Z-2.967
N975 X41.305 Y47.2 Z-2.9
N980 G0 Z2.3
N985 X26.7 Y50.25
N990 G1 Z0.6 F50
N995 G19 G2 Y49.95 Z0.3 J-0.3
N1000 G1 Y49.8
N1005 G17 G3 X27 Y49.5 I0.3
N1010 Y52.5 Z0.25 J1.5 F800
N1015 Y49.5 Z0.2 J-1.5
N1020 Y52.5 Z0.15 J1.5
N1025 Y49.5 Z0.1 J-1.5
N1030 Y52.5 Z0.05 J1.5
N1035 Y49.5 Z0 J-1.5
N1040 Y52.5 Z-0.05 J1.5
N1045 Y49.5 Z-0.1 J-1.5
N1050 Y52.5 Z-0.15 J1.5
N1055 Y49.5 Z-0.2 J-1.5
N1060 Y52.5 Z-0.25 J1.5
N1065 Y49.5 Z-0.3 J-1.5
N1070 Y52.5 Z-0.35 J1.5
N1075 Y49.5 Z-0.4 J-1.5
N1080 Y52.5 Z-0.45 J1.5
N1085 Y49.5 Z-0.5 J-1.5
N1090 Y52.5 Z-0.55 J1.5
N1095 Y49.5 Z-0.6 J-1.5
N1100 Y52.5 Z-0.65 J1.5
N1105 Y49.5 Z-0.7 J-1.5
N1110 Y52.5 Z-0.75 J1.5
N1115 Y49.5 Z-0.8 J-1.5
N1120 Y52.5 Z-0.85 J1.5
N1125 Y49.5 Z-0.9 J-1.5
N1130 Y52.5 Z-0.95 J1.5
N1135 Y49.5 Z-1 J-1.5
N1140 Y52.5 Z-1.05 J1.5
N1145 Y49.5 Z-1.1 J-1.5
N1150 Y52.5 Z-1.15 J1.5
N1155 Y49.5 Z-1.2 J-1.5
N1160 Y52.5 Z-1.25 J1.5
N1165 Y49.5 Z-1.3 J-1.5
N1170 Y52.5 Z-1.35 J1.5
N1175 Y49.5 Z-1.4 J-1.5
N1180 Y52.5 Z-1.45 J1.5
N1185 Y49.5 Z-1.5 J-1.5
N1190 Y52.5 Z-1.55 J1.5
N1195 Y49.5 Z-1.6 J-1.5
N1200 Y52.5 Z-1.65 J1.5
N1205 Y49.5 Z-1.7 J-1.5
N1210 Y52.5 Z-1.75 J1.5
N1215 Y49.5 Z-1.8 J-1.5
N1220 Y52.5 Z-1.85 J1.5
N1225 Y49.5 Z-1.9 J-1.5
N1230 Y52.5 Z-1.95 J1.5
N1235 Y49.5 Z-2 J-1.5
N1240 Y52.5 Z-2.05 J1.5
N1245 Y49.5 Z-2.1 J-1.5
N1250 Y52.5 Z-2.15 J1.5
N1255 Y49.5 Z-2.2 J-1.5
N1260 Y52.5 Z-2.25 J1.5
N1265 Y49.5 Z-2.3 J-1.5
N1270 Y52.5 Z-2.35 J1.5
N1275 Y49.5 Z-2.4 J-1.5
N1280 Y52.5 Z-2.45 J1.5
N1285 Y49.5 Z-2.5 J-1.5
N1290 Y52.5 Z-2.55 J1.5
N1295 Y49.5 Z-2.6 J-1.5
N1300 Y52.5 Z-2.65 J1.5
N1305 Y49.5 Z-2.7 J-1.5
N1310 Y52.5 Z-2.75 J1.5
N1315 Y49.5 Z-2.8 J-1.5
N1320 Y52.5 Z-2.85 J1.5
N1325 Y49.5 Z-2.9 J-1.5
N1330 Y52.5 Z-2.95 J1.5
N1335 Y49.5 Z-3 J-1.5
N1340 Y52.5 Z-3.05 J1.5
N1345 Y49.5 Z-3.1 J-1.5
N1350 Y52.5 Z-3.15 J1.5
N1355 Y49.5 Z-3.2 J-1.5
N1360 Y52.5 J1.5
N1365 Y49.5 J-1.5
N1370 X27.3 Y49.8 J0.3
N1375 G1 Y49.95
N1380 G19 G3 Y50.25 Z-2.9 K0.3
N1385 G0 Z2.3
N1390 X13.091 Y45.633
N1395 G1 Z0.6 F50
N1400 X13.096 Y45.627 Z0.533
N1405 X13.109 Y45.609 Z0.47
N1410 X13.13 Y45.58 Z0.413
N1415 X13.158 Y45.542 Z0.365
N1420 X13.191 Y45.496 Z0.33
N1425 X13.228 Y45.445 Z0.308
N1430 X13.268 Y45.391 Z0.3
N1435 X13.356 Y45.269
N1440 G17 G3 X13.775 Y45.203 I0.243 J0.176
N1445 X12.011 Y47.63 Z0.25 I-0.882 J1.214 F800
N1450 X13.775 Y45.203 Z0.2 I0.882 J-1.214
N1455 X12.011 Y47.63 Z0.15 I-0.882 J1.214
N1460 X13.775 Y45.203 Z0.1 I0.882 J-1.214
N1465 X12.011 Y47.63 Z0.05 I-0.882 J1.214
N1470 X13.775 Y45.203 Z0 I0.882 J-1.214
N1475 X12.011 Y47.63 Z-0.05 I-0.882 J1.214
N1480 X13.775 Y45.203 Z-0.1 I0.882 J-1.214
N1485 X12.011 Y47.63 Z-0.15 I-0.882 J1.214
N1490 X13.775 Y45.203 Z-0.2 I0.882 J-1.214
N1495 X12.011 Y47.63 Z-0.25 I-0.882 J1.214
N1500 X13.775 Y45.203 Z-0.3 I0.882 J-1.214
N1505 X12.011 Y47.63 Z-0.35 I-0.882 J1.214
N1510 X13.775 Y45.203 Z-0.4 I0.882 J-1.214
N1515 X12.011 Y47.63 Z-0.45 I-0.882 J1.214
N1520 X13.775 Y45.203 Z-0.5 I0.882 J-1.214
N1525 X12.011 Y47.63 Z-0.55 I-0.882 J1.214
N1530 X13.775 Y45.203 Z-0.6 I0.882 J-1.214
N1535 X12.011 Y47.63 Z-0.65 I-0.882 J1.214
N1540 X13.775 Y45.203 Z-0.7 I0.882 J-1.214
N1545 X12.011 Y47.63 Z-0.75 I-0.882 J1.214
N1550 X13.775 Y45.203 Z-0.8 I0.882 J-1.214
N1555 X12.011 Y47.63 Z-0.85 I-0.882 J1.214
N1560 X13.775 Y45.203 Z-0.9 I0.882 J-1.214
N1565 X12.011 Y47.63 Z-0.95 I-0.882 J1.214
N1570 X13.775 Y45.203 Z-1 I0.882 J-1.214
N1575 X12.011 Y47.63 Z-1.05 I-0.882 J1.214
N1580 X13.775 Y45.203 Z-1.1 I0.882 J-1.214
N1585 X12.011 Y47.63 Z-1.15 I-0.882 J1.214
N1590 X13.775 Y45.203 Z-1.2 I0.882 J-1.214
N1595 X12.011 Y47.63 Z-1.25 I-0.882 J1.214
N1600 X13.775 Y45.203 Z-1.3 I0.882 J-1.214
N1605 X12.011 Y47.63 Z-1.35 I-0.882 J1.214
N1610 X13.775 Y45.203 Z-1.4 I0.882 J-1.214
N1615 X12.011 Y47.63 Z-1.45 I-0.882 J1.214
N1620 X13.775 Y45.203 Z-1.5 I0.882 J-1.214
N1625 X12.011 Y47.63 Z-1.55 I-0.882 J1.214
N1630 X13.775 Y45.203 Z-1.6 I0.882 J-1.214
N1635 X12.011 Y47.63 Z-1.65 I-0.882 J1.214
N1640 X13.775 Y45.203 Z-1.7 I0.882 J-1.214
N1645 X12.011 Y47.63 Z-1.75 I-0.882 J1.214
N1650 X13.775 Y45.203 Z-1.8 I0.882 J-1.214
N1655 X12.011 Y47.63 Z-1.85 I-0.882 J1.214
N1660 X13.775 Y45.203 Z-1.9 I0.882 J-1.214
N1665 X12.011 Y47.63 Z-1.95 I-0.882 J1.214
N1670 X13.775 Y45.203 Z-2 I0.882 J-1.214
N1675 X12.011 Y47.63 Z-2.05 I-0.882 J1.214
N1680 X13.775 Y45.203 Z-2.1 I0.882 J-1.214
N1685 X12.011 Y47.63 Z-2.15 I-0.882 J1.214
N1690 X13.775 Y45.203 Z-2.2 I0.882 J-1.214
N1695 X12.011 Y47.63 Z-2.25 I-0.882 J1.214
N1700 X13.775 Y45.203 Z-2.3 I0.882 J-1.214
N1705 X12.011 Y47.63 Z-2.35 I-0.882 J1.214
N1710 X13.775 Y45.203 Z-2.4 I0.882 J-1.214
N1715 X12.011 Y47.63 Z-2.45 I-0.882 J1.214
N1720 X13.775 Y45.203 Z-2.5 I0.882 J-1.214
N1725 X12.011 Y47.63 Z-2.55 I-0.882 J1.214
N1730 X13.775 Y45.203 Z-2.6 I0.882 J-1.214
N1735 X12.011 Y47.63 Z-2.65 I-0.882 J1.214
N1740 X13.775 Y45.203 Z-2.7 I0.882 J-1.214
N1745 X12.011 Y47.63 Z-2.75 I-0.882 J1.214
N1750 X13.775 Y45.203 Z-2.8 I0.882 J-1.214
N1755 X12.011 Y47.63 Z-2.85 I-0.882 J1.214
N1760 X13.775 Y45.203 Z-2.9 I0.882 J-1.214
N1765 X12.011 Y47.63 Z-2.95 I-0.882 J1.214
N1770 X13.775 Y45.203 Z-3 I0.882 J-1.214
N1775 X12.011 Y47.63 Z-3.05 I-0.882 J1.214
N1780 X13.775 Y45.203 Z-3.1 I0.882 J-1.214
N1785 X12.011 Y47.63 Z-3.15 I-0.882 J1.214
N1790 X13.775 Y45.203 Z-3.2 I0.882 J-1.214
N1795 X12.011 Y47.63 I-0.882 J1.214
N1800 X13.775 Y45.203 I0.882 J-1.214
N1805 X13.841 Y45.622 I-0.176 J0.243
N1810 G1 X13.753 Y45.743
N1815 X13.714 Y45.797 Z-3.192
N1820 X13.677 Y45.849 Z-3.17
N1825 X13.643 Y45.895 Z-3.135
N1830 X13.615 Y45.933 Z-3.087
N1835 X13.594 Y45.962 Z-3.03
N1840 X13.581 Y45.98 Z-2.967
N1845 X13.577 Y45.986 Z-2.9
N1850 G0 Z2.3
N1855 X3.554 Y34.933
N1860 G1 Z0.6 F50
N1865 X3.547 Y34.936 Z0.533
N1870 X3.526 Y34.943 Z0.47
N1875 X3.492 Y34.954 Z0.413
N1880 X3.447 Y34.968 Z0.365
N1885 X3.393 Y34.986 Z0.33
N1890 X3.332 Y35.006 Z0.308
N1895 X3.269 Y35.026 Z0.3
N1900 X3.126 Y35.073
N1905 G3 X2.748 Y34.88 I-0.093 J-0.285
N1910 X5.601 Y33.953 Z0.25 I1.427 J-0.464 F800
N1915 X2.748 Y34.88 Z0.2 I-1.427 J0.464
N1920 X5.601 Y33.953 Z0.15 I1.427 J-0.464
N1925 X2.748 Y34.88 Z0.1 I-1.427 J0.464
N1930 X5.601 Y33.953 Z0.05 I1.427 J-0.464
N1935 X2.748 Y34.88 Z0 I-1.427 J0.464
N1940 X5.601 Y33.953 Z-0.05 I1.427 J-0.464
N1945 X2.748 Y34.88 Z-0.1 I-1.427 J0.464
N1950 X5.601 Y33.953 Z-0.15 I1.427 J-0.464
N1955 X2.748 Y34.88 Z-0.2 I-1.427 J0.464
N1960 X5.601 Y33.953 Z-0.25 I1.427 J-0.464
N1965 X2.748 Y34.88 Z-0.3 I-1.427 J0.464
N1970 X5.601 Y33.953 Z-0.35 I1.427 J-0.464
N1975 X2.748 Y34.88 Z-0.4 I-1.427 J0.464
N1980 X5.601 Y33.953 Z-0.45 I1.427 J-0.464
N1985 X2.748 Y34.88 Z-0.5 I-1.427 J0.464
N1990 X5.601 Y33.953 Z-0.55 I1.427 J-0.464
N1995 X2.748 Y34.88 Z-0.6 I-1.427 J0.464
N2000 X5.601 Y33.953 Z-0.65 I1.427 J-0.464
N2005 X2.748 Y34.88 Z-0.7 I-1.427 J0.464
N2010 X5.601 Y33.953 Z-0.75 I1.427 J-0.464
N2015 X2.748 Y34.88 Z-0.8 I-1.427 J0.464
N2020 X5.601 Y33.953 Z-0.85 I1.427 J-0.464
N2025 X2.748 Y34.88 Z-0.9 I-1.427 J0.464
N2030 X5.601 Y33.953 Z-0.95 I1.427 J-0.464
N2035 X2.748 Y34.88 Z-1 I-1.427 J0.464
N2040 X5.601 Y33.953 Z-1.05 I1.427 J-0.464
N2045 X2.748 Y34.88 Z-1.1 I-1.427 J0.464
N2050 X5.601 Y33.953 Z-1.15 I1.427 J-0.464
N2055 X2.748 Y34.88 Z-1.2 I-1.427 J0.464
N2060 X5.601 Y33.953 Z-1.25 I1.427 J-0.464
N2065 X2.748 Y34.88 Z-1.3 I-1.427 J0.464
N2070 X5.601 Y33.953 Z-1.35 I1.427 J-0.464
N2075 X2.748 Y34.88 Z-1.4 I-1.427 J0.464
N2080 X5.601 Y33.953 Z-1.45 I1.427 J-0.464
N2085 X2.748 Y34.88 Z-1.5 I-1.427 J0.464
N2090 X5.601 Y33.953 Z-1.55 I1.427 J-0.464
N2095 X2.748 Y34.88 Z-1.6 I-1.427 J0.464
N2100 X5.601 Y33.953 Z-1.65 I1.427 J-0.464
N2105 X2.748 Y34.88 Z-1.7 I-1.427 J0.464
N2110 X5.601 Y33.953 Z-1.75 I1.427 J-0.464
N2115 X2.748 Y34.88 Z-1.8 I-1.427 J0.464
N2120 X5.601 Y33.953 Z-1.85 I1.427 J-0.464
N2125 X2.748 Y34.88 Z-1.9 I-1.427 J0.464
N2130 X5.601 Y33.953 Z-1.95 I1.427 J-0.464
N2135 X2.748 Y34.88 Z-2 I-1.427 J0.464
N2140 X5.601 Y33.953 Z-2.05 I1.427 J-0.464
N2145 X2.748 Y34.88 Z-2.1 I-1.427 J0.464
N2150 X5.601 Y33.953 Z-2.15 I1.427 J-0.464
N2155 X2.748 Y34.88 Z-2.2 I-1.427 J0.464
N2160 X5.601 Y33.953 Z-2.25 I1.427 J-0.464
N2165 X2.748 Y34.88 Z-2.3 I-1.427 J0.464
N2170 X5.601 Y33.953 Z-2.35 I1.427 J-0.464
N2175 X2.748 Y34.88 Z-2.4 I-1.427 J0.464
N2180 X5.601 Y33.953 Z-2.45 I1.427 J-0.464
N2185 X2.748 Y34.88 Z-2.5 I-1.427 J0.464
N2190 X5.601 Y33.953 Z-2.55 I1.427 J-0.464
N2195 X2.748 Y34.88 Z-2.6 I-1.427 J0.464
N2200 X5.601 Y33.953 Z-2.65 I1.427 J-0.464
N2205 X2.748 Y34.88 Z-2.7 I-1.427 J0.464
N2210 X5.601 Y33.953 Z-2.75 I1.427 J-0.464
N2215 X2.748 Y34.88 Z-2.8 I-1.427 J0.464
N2220 X5.601 Y33.953 Z-2.85 I1.427 J-0.464
N2225 X2.748 Y34.88 Z-2.9 I-1.427 J0.464
N2230 X5.601 Y33.953 Z-2.95 I1.427 J-0.464
N2235 X2.748 Y34.88 Z-3 I-1.427 J0.464
N2240 X5.601 Y33.953 Z-3.05 I1.427 J-0.464
N2245 X2.748 Y34.88 Z-3.1 I-1.427 J0.464
N2250 X5.601 Y33.953 Z-3.15 I1.427 J-0.464
N2255 X2.748 Y34.88 Z-3.2 I-1.427 J0.464
N2260 X5.601 Y33.953 I1.427 J-0.464
N2265 X2.748 Y34.88 I-1.427 J0.464
N2270 X2.941 Y34.502 I0.285 J-0.093
N2275 G1 X3.083 Y34.456
N2280 X3.147 Y34.435 Z-3.192
N2285 X3.207 Y34.415 Z-3.17
N2290 X3.261 Y34.398 Z-3.135
N2295 X3.306 Y34.383 Z-3.087
N2300 X3.34 Y34.372 Z-3.03
N2305 X3.361 Y34.365 Z-2.967
N2310 X3.369 Y34.363 Z-2.9
N2315 G0 Z2.3
N2320 X4.981 Y19.53
N2325 G1 Z0.6 F50
N2330 X4.988 Y19.532 Z0.533
N2335 X5.009 Y19.539 Z0.47
N2340 X5.043 Y19.55 Z0.413
N2345 X5.088 Y19.565 Z0.365
N2350 X5.142 Y19.583 Z0.33
N2355 X5.202 Y19.602 Z0.308
N2360 X5.266 Y19.623 Z0.3
N2365 X5.409 Y19.669
N2370 G3 X5.601 Y20.047 I-0.093 J0.285
N2375 X2.748 Y19.12 Z0.25 I-1.427 J-0.464 F800
N2380 X5.601 Y20.047 Z0.2 I1.427 J0.464
N2385 X2.748 Y19.12 Z0.15 I-1.427 J-0.464
N2390 X5.601 Y20.047 Z0.1 I1.427 J0.464
N2395 X2.748 Y19.12 Z0.05 I-1.427 J-0.464
N2400 X5.601 Y20.047 Z0 I1.427 J0.464
N2405 X2.748 Y19.12 Z-0.05 I-1.427 J-0.464
N2410 X5.601 Y20.047 Z-0.1 I1.427 J0.464
N2415 X2.748 Y19.12 Z-0.15 I-1.427 J-0.464
N2420 X5.601 Y20.047 Z-0.2 I1.427 J0.464
N2425 X2.748 Y19.12 Z-0.25 I-1.427 J-0.464
N2430 X5.601 Y20.047 Z-0.3 I1.427 J0.464
N2435 X2.748 Y19.12 Z-0.35 I-1.427 J-0.464
N2440 X5.601 Y20.047 Z-0.4 I1.427 J0.464
N2445 X2.748 Y19.12 Z-0.45 I-1.427 J-0.464
N2450 X5.601 Y20.047 Z-0.5 I1.427 J0.464
N2455 X2.748 Y19.12 Z-0.55 I-1.427 J-0.464
N2460 X5.601 Y20.047 Z-0.6 I1.427 J0.464
N2465 X2.748 Y19.12 Z-0.65 I-1.427 J-0.464
N2470 X5.601 Y20.047 Z-0.7 I1.427 J0.464
N2475 X2.748 Y19.12 Z-0.75 I-1.427 J-0.464
N2480 X5.601 Y20.047 Z-0.8 I1.427 J0.464
N2485 X2.748 Y19.12 Z-0.85 I-1.427 J-0.464
N2490 X5.601 Y20.047 Z-0.9 I1.427 J0.464
N2495 X2.748 Y19.12 Z-0.95 I-1.427 J-0.464
N2500 X5.601 Y20.047 Z-1 I1.427 J0.464
N2505 X2.748 Y19.12 Z-1.05 I-1.427 J-0.464
N2510 X5.601 Y20.047 Z-1.1 I1.427 J0.464
N2515 X2.748 Y19.12 Z-1.15 I-1.427 J-0.464
N2520 X5.601 Y20.047 Z-1.2 I1.427 J0.464
N2525 X2.748 Y19.12 Z-1.25 I-1.427 J-0.464
N2530 X5.601 Y20.047 Z-1.3 I1.427 J0.464
N2535 X2.748 Y19.12 Z-1.35 I-1.427 J-0.464
N2540 X5.601 Y20.047 Z-1.4 I1.427 J0.464
N2545 X2.748 Y19.12 Z-1.45 I-1.427 J-0.464
N2550 X5.601 Y20.047 Z-1.5 I1.427 J0.464
N2555 X2.748 Y19.12 Z-1.55 I-1.427 J-0.464
N2560 X5.601 Y20.047 Z-1.6 I1.427 J0.464
N2565 X2.748 Y19.12 Z-1.65 I-1.427 J-0.464
N2570 X5.601 Y20.047 Z-1.7 I1.427 J0.464
N2575 X2.748 Y19.12 Z-1.75 I-1.427 J-0.464
N2580 X5.601 Y20.047 Z-1.8 I1.427 J0.464
N2585 X2.748 Y19.12 Z-1.85 I-1.427 J-0.464
N2590 X5.601 Y20.047 Z-1.9 I1.427 J0.464
N2595 X2.748 Y19.12 Z-1.95 I-1.427 J-0.464
N2600 X5.601 Y20.047 Z-2 I1.427 J0.464
N2605 X2.748 Y19.12 Z-2.05 I-1.427 J-0.464
N2610 X5.601 Y20.047 Z-2.1 I1.427 J0.464
N2615 X2.748 Y19.12 Z-2.15 I-1.427 J-0.464
N2620 X5.601 Y20.047 Z-2.2 I1.427 J0.464
N2625 X2.748 Y19.12 Z-2.25 I-1.427 J-0.464
N2630 X5.601 Y20.047 Z-2.3 I1.427 J0.464
N2635 X2.748 Y19.12 Z-2.35 I-1.427 J-0.464
N2640 X5.601 Y20.047 Z-2.4 I1.427 J0.464
N2645 X2.748 Y19.12 Z-2.45 I-1.427 J-0.464
N2650 X5.601 Y20.047 Z-2.5 I1.427 J0.464
N2655 X2.748 Y19.12 Z-2.55 I-1.427 J-0.464
N2660 X5.601 Y20.047 Z-2.6 I1.427 J0.464
N2665 X2.748 Y19.12 Z-2.65 I-1.427 J-0.464
N2670 X5.601 Y20.047 Z-2.7 I1.427 J0.464
N2675 X2.748 Y19.12 Z-2.75 I-1.427 J-0.464
N2680 X5.601 Y20.047 Z-2.8 I1.427 J0.464
N2685 X2.748 Y19.12 Z-2.85 I-1.427 J-0.464
N2690 X5.601 Y20.047 Z-2.9 I1.427 J0.464
N2695 X2.748 Y19.12 Z-2.95 I-1.427 J-0.464
N2700 X5.601 Y20.047 Z-3 I1.427 J0.464
N2705 X2.748 Y19.12 Z-3.05 I-1.427 J-0.464
N2710 X5.601 Y20.047 Z-3.1 I1.427 J0.464
N2715 X2.748 Y19.12 Z-3.15 I-1.427 J-0.464
N2720 X5.601 Y20.047 Z-3.2 I1.427 J0.464
N2725 X2.748 Y19.12 I-1.427 J-0.464
N2730 X5.601 Y20.047 I1.427 J0.464
N2735 X5.223 Y20.24 I-0.285 J-0.093
N2740 G1 X5.081 Y20.193
N2745 X5.017 Y20.173 Z-3.192
N2750 X4.957 Y20.153 Z-3.17
N2755 X4.903 Y20.136 Z-3.135
N2760 X4.857 Y20.121 Z-3.087
N2765 X4.823 Y20.11 Z-3.03
N2770 X4.802 Y20.103 Z-2.967
N2775 X4.795 Y20.101 Z-2.9
N2780 G0 Z2.3
N2785 X12.21 Y7.153
N2790 G1 Z0.6 F50
N2795 X12.205 Y7.147 Z0.533
N2800 X12.192 Y7.129 Z0.47
N2805 X12.171 Y7.1 Z0.413
N2810 X12.143 Y7.062 Z0.365
N2815 X12.11 Y7.016 Z0.33
N2820 X12.073 Y6.964 Z0.308
N2825 X12.033 Y6.91 Z0.3
N2830 X11.945 Y6.789
N2835 G3 X12.011 Y6.37 I0.243 J-0.176
N2840 X13.775 Y8.797 Z0.25 I0.882 J1.214 F800
N2845 X12.011 Y6.37 Z0.2 I-0.882 J-1.214
N2850 X13.775 Y8.797 Z0.15 I0.882 J1.214
N2855 X12.011 Y6.37 Z0.1 I-0.882 J-1.214
N2860 X13.775 Y8.797 Z0.05 I0.882 J1.214
N2865 X12.011 Y6.37 Z0 I-0.882 J-1.214
N2870 X13.775 Y8.797 Z-0.05 I0.882 J1.214
N2875 X12.011 Y6.37 Z-0.1 I-0.882 J-1.214
N2880 X13.775 Y8.797 Z-0.15 I0.882 J1.214
N2885 X12.011 Y6.37 Z-0.2 I-0.882 J-1.214
N2890 X13.775 Y8.797 Z-0.25 I0.882 J1.214
N2895 X12.011 Y6.37 Z-0.3 I-0.882 J-1.214
N2900 X13.775 Y8.797 Z-0.35 I0.882 J1.214
N2905 X12.011 Y6.37 Z-0.4 I-0.882 J-1.214
N2910 X13.775 Y8.797 Z-0.45 I0.882 J1.214
N2915 X12.011 Y6.37 Z-0.5 I-0.882 J-1.214
N2920 X13.775 Y8.797 Z-0.55 I0.882 J1.214
N2925 X12.011 Y6.37 Z-0.6 I-0.882 J-1.214
N2930 X13.775 Y8.797 Z-0.65 I0.882 J1.214
N2935 X12.011 Y6.37 Z-0.7 I-0.882 J-1.214
N2940 X13.775 Y8.797 Z-0.75 I0.882 J1.214
N2945 X12.011 Y6.37 Z-0.8 I-0.882 J-1.214
N2950 X13.775 Y8.797 Z-0.85 I0.882 J1.214
N2955 X12.011 Y6.37 Z-0.9 I-0.882 J-1.214
N2960 X13.775 Y8.797 Z-0.95 I0.882 J1.214
N2965 X12.011 Y6.37 Z-1 I-0.882 J-1.214
N2970 X13.775 Y8.797 Z-1.05 I0.882 J1.214
N2975 X12.011 Y6.37 Z-1.1 I-0.882 J-1.214
N2980 X13.775 Y8.797 Z-1.15 I0.882 J1.214
N2985 X12.011 Y6.37 Z-1.2 I-0.882 J-1.214
N2990 X13.775 Y8.797 Z-1.25 I0.882 J1.214
N2995 X12.011 Y6.37 Z-1.3 I-0.882 J-1.214
N3000 X13.775 Y8.797 Z-1.35 I0.882 J1.214
N3005 X12.011 Y6.37 Z-1.4 I-0.882 J-1.214
N3010 X13.775 Y8.797 Z-1.45 I0.882 J1.214
N3015 X12.011 Y6.37 Z-1.5 I-0.882 J-1.214
N3020 X13.775 Y8.797 Z-1.55 I0.882 J1.214
N3025 X12.011 Y6.37 Z-1.6 I-0.882 J-1.214
N3030 X13.775 Y8.797 Z-1.65 I0.882 J1.214
N3035 X12.011 Y6.37 Z-1.7 I-0.882 J-1.214
N3040 X13.775 Y8.797 Z-1.75 I0.882 J1.214
N3045 X12.011 Y6.37 Z-1.8 I-0.882 J-1.214
N3050 X13.775 Y8.797 Z-1.85 I0.882 J1.214
N3055 X12.011 Y6.37 Z-1.9 I-0.882 J-1.214
N3060 X13.775 Y8.797 Z-1.95 I0.882 J1.214
N3065 X12.011 Y6.37 Z-2 I-0.882 J-1.214
N3070 X13.775 Y8.797 Z-2.05 I0.882 J1.214
N3075 X12.011 Y6.37 Z-2.1 I-0.882 J-1.214
N3080 X13.775 Y8.797 Z-2.15 I0.882 J1.214
N3085 X12.011 Y6.37 Z-2.2 I-0.882 J-1.214
N3090 X13.775 Y8.797 Z-2.25 I0.882 J1.214
N3095 X12.011 Y6.37 Z-2.3 I-0.882 J-1.214
N3100 X13.775 Y8.797 Z-2.35 I0.882 J1.214
N3105 X12.011 Y6.37 Z-2.4 I-0.882 J-1.214
N3110 X13.775 Y8.797 Z-2.45 I0.882 J1.214
N3115 X12.011 Y6.37 Z-2.5 I-0.882 J-1.214
N3120 X13.775 Y8.797 Z-2.55 I0.882 J1.214
N3125 X12.011 Y6.37 Z-2.6 I-0.882 J-1.214
N3130 X13.775 Y8.797 Z-2.65 I0.882 J1.214
N3135 X12.011 Y6.37 Z-2.7 I-0.882 J-1.214
N3140 X13.775 Y8.797 Z-2.75 I0.882 J1.214
N3145 X12.011 Y6.37 Z-2.8 I-0.882 J-1.214
N3150 X13.775 Y8.797 Z-2.85 I0.882 J1.214
N3155 X12.011 Y6.37 Z-2.9 I-0.882 J-1.214
N3160 X13.775 Y8.797 Z-2.95 I0.882 J1.214
N3165 X12.011 Y6.37 Z-3 I-0.882 J-1.214
N3170 X13.775 Y8.797 Z-3.05 I0.882 J1.214
N3175 X12.011 Y6.37 Z-3.1 I-0.882 J-1.214
N3180 X13.775 Y8.797 Z-3.15 I0.882 J1.214
N3185 X12.011 Y6.37 Z-3.2 I-0.882 J-1.214
N3190 X13.775 Y8.797 I0.882 J1.214
N3195 X12.011 Y6.37 I-0.882 J-1.214
N3200 X12.431 Y6.436 I0.176 J0.243
N3205 G1 X12.519 Y6.558
N3210 X12.558 Y6.612 Z-3.192
N3215 X12.595 Y6.663 Z-3.17
N3220 X12.629 Y6.709 Z-3.135
N3225 X12.657 Y6.748 Z-3.087
N3230 X12.678 Y6.776 Z-3.03
N3235 X12.691 Y6.794 Z-2.967
N3240 X12.695 Y6.8 Z-2.9
N3245 G0 Z2.3
N3250 X27.75 Y2.7
N3255 G1 Z0.6 F50
N3260 G18 G2 X28.05 Z0.3 I0.3
N3265 G1 X28.2
N3270 G17 G3 X28.5 Y3 J0.3
N3275 X25.5 Z0.25 I-1.5 F800
N3280 X28.5 Z0.2 I1.5
N3285 X25.5 Z0.15 I-1.5
N3290 X28.5 Z0.1 I1.5
N3295 X25.5 Z0.05 I-1.5
N3300 X28.5 Z0 I1.5
N3305 X25.5 Z-0.05 I-1.5
N3310 X28.5 Z-0.1 I1.5
N3315 X25.5 Z-0.15 I-1.5
N3320 X28.5 Z-0.2 I1.5
N3325 X25.5 Z-0.25 I-1.5
N3330 X28.5 Z-0.3 I1.5
N3335 X25.5 Z-0.35 I-1.5
N3340 X28.5 Z-0.4 I1.5
N3345 X25.5 Z-0.45 I-1.5
N3350 X28.5 Z-0.5 I1.5
N3355 X25.5 Z-0.55 I-1.5
N3360 X28.5 Z-0.6 I1.5
N3365 X25.5 Z-0.65 I-1.5
N3370 X28.5 Z-0.7 I1.5
N3375 X25.5 Z-0.75 I-1.5
N3380 X28.5 Z-0.8 I1.5
N3385 X25.5 Z-0.85 I-1.5
N3390 X28.5 Z-0.9 I1.5
N3395 X25.5 Z-0.95 I-1.5
N3400 X28.5 Z-1 I1.5
N3405 X25.5 Z-1.05 I-1.5
N3410 X28.5 Z-1.1 I1.5
N3415 X25.5 Z-1.15 I-1.5
N3420 X28.5 Z-1.2 I1.5
N3425 X25.5 Z-1.25 I-1.5
N3430 X28.5 Z-1.3 I1.5
N3435 X25.5 Z-1.35 I-1.5
N3440 X28.5 Z-1.4 I1.5
N3445 X25.5 Z-1.45 I-1.5
N3450 X28.5 Z-1.5 I1.5
N3455 X25.5 Z-1.55 I-1.5
N3460 X28.5 Z-1.6 I1.5
N3465 X25.5 Z-1.65 I-1.5
N3470 X28.5 Z-1.7 I1.5
N3475 X25.5 Z-1.75 I-1.5
N3480 X28.5 Z-1.8 I1.5
N3485 X25.5 Z-1.85 I-1.5
N3490 X28.5 Z-1.9 I1.5
N3495 X25.5 Z-1.95 I-1.5
N3500 X28.5 Z-2 I1.5
N3505 X25.5 Z-2.05 I-1.5
N3510 X28.5 Z-2.1 I1.5
N3515 X25.5 Z-2.15 I-1.5
N3520 X28.5 Z-2.2 I1.5
N3525 X25.5 Z-2.25 I-1.5
N3530 X28.5 Z-2.3 I1.5
N3535 X25.5 Z-2.35 I-1.5
N3540 X28.5 Z-2.4 I1.5
N3545 X25.5 Z-2.45 I-1.5
N3550 X28.5 Z-2.5 I1.5
N3555 X25.5 Z-2.55 I-1.5
N3560 X28.5 Z-2.6 I1.5
N3565 X25.5 Z-2.65 I-1.5
N3570 X28.5 Z-2.7 I1.5
N3575 X25.5 Z-2.75 I-1.5
N3580 X28.5 Z-2.8 I1.5
N3585 X25.5 Z-2.85 I-1.5
N3590 X28.5 Z-2.9 I1.5
N3595 X25.5 Z-2.95 I-1.5
N3600 X28.5 Z-3 I1.5
N3605 X25.5 Z-3.05 I-1.5
N3610 X28.5 Z-3.1 I1.5
N3615 X25.5 Z-3.15 I-1.5
N3620 X28.5 Z-3.2 I1.5
N3625 X25.5 I-1.5
N3630 X28.5 I1.5
N3635 X28.2 Y3.3 I-0.3
N3640 G1 X28.05
N3645 G18 G3 X27.75 Z-2.9 K0.3
N3650 G0 Z2.3
N3655 X40.909 Y8.367
N3660 G1 Z0.6 F50
N3665 X40.904 Y8.373 Z0.533
N3670 X40.891 Y8.391 Z0.47
N3675 X40.87 Y8.42 Z0.413
N3680 X40.842 Y8.458 Z0.365
N3685 X40.809 Y8.504 Z0.33
N3690 X40.772 Y8.555 Z0.308
N3695 X40.732 Y8.609 Z0.3
N3700 X40.644 Y8.731
N3705 G17 G3 X40.225 Y8.797 I-0.243 J-0.176
N3710 X41.989 Y6.37 Z0.25 I0.882 J-1.214 F800
N3715 X40.225 Y8.797 Z0.2 I-0.882 J1.214
N3720 X41.989 Y6.37 Z0.15 I0.882 J-1.214
N3725 X40.225 Y8.797 Z0.1 I-0.882 J1.214
N3730 X41.989 Y6.37 Z0.05 I0.882 J-1.214
N3735 X40.225 Y8.797 Z0 I-0.882 J1.214
N3740 X41.989 Y6.37 Z-0.05 I0.882 J-1.214
N3745 X40.225 Y8.797 Z-0.1 I-0.882 J1.214
N3750 X41.989 Y6.37 Z-0.15 I0.882 J-1.214
N3755 X40.225 Y8.797 Z-0.2 I-0.882 J1.214
N3760 X41.989 Y6.37 Z-0.25 I0.882 J-1.214
N3765 X40.225 Y8.797 Z-0.3 I-0.882 J1.214
N3770 X41.989 Y6.37 Z-0.35 I0.882 J-1.214
N3775 X40.225 Y8.797 Z-0.4 I-0.882 J1.214
N3780 X41.989 Y6.37 Z-0.45 I0.882 J-1.214
N3785 X40.225 Y8.797 Z-0.5 I-0.882 J1.214
N3790 X41.989 Y6.37 Z-0.55 I0.882 J-1.214
N3795 X40.225 Y8.797 Z-0.6 I-0.882 J1.214
N3800 X41.989 Y6.37 Z-0.65 I0.882 J-1.214
N3805 X40.225 Y8.797 Z-0.7 I-0.882 J1.214
N3810 X41.989 Y6.37 Z-0.75 I0.882 J-1.214
N3815 X40.225 Y8.797 Z-0.8 I-0.882 J1.214
N3820 X41.989 Y6.37 Z-0.85 I0.882 J-1.214
N3825 X40.225 Y8.797 Z-0.9 I-0.882 J1.214
N3830 X41.989 Y6.37 Z-0.95 I0.882 J-1.214
N3835 X40.225 Y8.797 Z-1 I-0.882 J1.214
N3840 X41.989 Y6.37 Z-1.05 I0.882 J-1.214
N3845 X40.225 Y8.797 Z-1.1 I-0.882 J1.214
N3850 X41.989 Y6.37 Z-1.15 I0.882 J-1.214
N3855 X40.225 Y8.797 Z-1.2 I-0.882 J1.214
N3860 X41.989 Y6.37 Z-1.25 I0.882 J-1.214
N3865 X40.225 Y8.797 Z-1.3 I-0.882 J1.214
N3870 X41.989 Y6.37 Z-1.35 I0.882 J-1.214
N3875 X40.225 Y8.797 Z-1.4 I-0.882 J1.214
N3880 X41.989 Y6.37 Z-1.45 I0.882 J-1.214
N3885 X40.225 Y8.797 Z-1.5 I-0.882 J1.214
N3890 X41.989 Y6.37 Z-1.55 I0.882 J-1.214
N3895 X40.225 Y8.797 Z-1.6 I-0.882 J1.214
N3900 X41.989 Y6.37 Z-1.65 I0.882 J-1.214
N3905 X40.225 Y8.797 Z-1.7 I-0.882 J1.214
N3910 X41.989 Y6.37 Z-1.75 I0.882 J-1.214
N3915 X40.225 Y8.797 Z-1.8 I-0.882 J1.214
N3920 X41.989 Y6.37 Z-1.85 I0.882 J-1.214
N3925 X40.225 Y8.797 Z-1.9 I-0.882 J1.214
N3930 X41.989 Y6.37 Z-1.95 I0.882 J-1.214
N3935 X40.225 Y8.797 Z-2 I-0.882 J1.214
N3940 X41.989 Y6.37 Z-2.05 I0.882 J-1.214
N3945 X40.225 Y8.797 Z-2.1 I-0.882 J1.214
N3950 X41.989 Y6.37 Z-2.15 I0.882 J-1.214
N3955 X40.225 Y8.797 Z-2.2 I-0.882 J1.214
N3960 X41.989 Y6.37 Z-2.25 I0.882 J-1.214
N3965 X40.225 Y8.797 Z-2.3 I-0.882 J1.214
N3970 X41.989 Y6.37 Z-2.35 I0.882 J-1.214
N3975 X40.225 Y8.797 Z-2.4 I-0.882 J1.214
N3980 X41.989 Y6.37 Z-2.45 I0.882 J-1.214
N3985 X40.225 Y8.797 Z-2.5 I-0.882 J1.214
N3990 X41.989 Y6.37 Z-2.55 I0.882 J-1.214
N3995 X40.225 Y8.797 Z-2.6 I-0.882 J1.214
N4000 X41.989 Y6.37 Z-2.65 I0.882 J-1.214
N4005 X40.225 Y8.797 Z-2.7 I-0.882 J1.214
N4010 X41.989 Y6.37 Z-2.75 I0.882 J-1.214
N4015 X40.225 Y8.797 Z-2.8 I-0.882 J1.214
N4020 X41.989 Y6.37 Z-2.85 I0.882 J-1.214
N4025 X40.225 Y8.797 Z-2.9 I-0.882 J1.214
N4030 X41.989 Y6.37 Z-2.95 I0.882 J-1.214
N4035 X40.225 Y8.797 Z-3 I-0.882 J1.214
N4040 X41.989 Y6.37 Z-3.05 I0.882 J-1.214
N4045 X40.225 Y8.797 Z-3.1 I-0.882 J1.214
N4050 X41.989 Y6.37 Z-3.15 I0.882 J-1.214
N4055 X40.225 Y8.797 Z-3.2 I-0.882 J1.214
N4060 X41.989 Y6.37 I0.882 J-1.214
N4065 X40.225 Y8.797 I-0.882 J1.214
N4070 X40.159 Y8.378 I0.176 J-0.243
N4075 G1 X40.247 Y8.257
N4080 X40.286 Y8.203 Z-3.192
N4085 X40.323 Y8.151 Z-3.17
N4090 X40.357 Y8.105 Z-3.135
N4095 X40.385 Y8.067 Z-3.087
N4100 X40.406 Y8.038 Z-3.03
N4105 X40.419 Y8.02 Z-2.967
N4110 X40.423 Y8.014 Z-2.9
N4115 G0 Z2.3
N4120 X50.446 Y19.067
N4125 G1 Z0.6 F50
N4130 X50.453 Y19.064 Z0.533
N4135 X50.474 Y19.057 Z0.47
N4140 X50.508 Y19.046 Z0.413
N4145 X50.553 Y19.032 Z0.365
N4150 X50.607 Y19.014 Z0.33
N4155 X50.668 Y18.994 Z0.308
N4160 X50.731 Y18.974 Z0.3
N4165 X50.874 Y18.927
N4170 G3 X51.252 Y19.12 I0.093 J0.285
N4175 X48.399 Y20.047 Z0.25 I-1.427 J0.464 F800
N4180 X51.252 Y19.12 Z0.2 I1.427 J-0.464
N4185 X48.399 Y20.047 Z0.15 I-1.427 J0.464
N4190 X51.252 Y19.12 Z0.1 I1.427 J-0.464
N4195 X48.399 Y20.047 Z0.05 I-1.427 J0.464
N4200 X51.252 Y19.12 Z0 I1.427 J-0.464
N4205 X48.399 Y20.047 Z-0.05 I-1.427 J0.464
N4210 X51.252 Y19.12 Z-0.1 I1.427 J-0.464
N4215 X48.399 Y20.047 Z-0.15 I-1.427 J0.464
N4220 X51.252 Y19.12 Z-0.2 I1.427 J-0.464
N4225 X48.399 Y20.047 Z-0.25 I-1.427 J0.464
N4230 X51.252 Y19.12 Z-0.3 I1.427 J-0.464
N4235 X48.399 Y20.047 Z-0.35 I-1.427 J0.464
N4240 X51.252 Y19.12 Z-0.4 I1.427 J-0.464
N4245 X48.399 Y20.047 Z-0.45 I-1.427 J0.464
N4250 X51.252 Y19.12 Z-0.5 I1.427 J-0.464
N4255 X48.399 Y20.047 Z-0.55 I-1.427 J0.464
N4260 X51.252 Y19.12 Z-0.6 I1.427 J-0.464
N4265 X48.399 Y20.047 Z-0.65 I-1.427 J0.464
N4270 X51.252 Y19.12 Z-0.7 I1.427 J-0.464
N4275 X48.399 Y20.047 Z-0.75 I-1.427 J0.464
N4280 X51.252 Y19.12 Z-0.8 I1.427 J-0.464
N4285 X48.399 Y20.047 Z-0.85 I-1.427 J0.464
N4290 X51.252 Y19.12 Z-0.9 I1.427 J-0.464
N4295 X48.399 Y20.047 Z-0.95 I-1.427 J0.464
N4300 X51.252 Y19.12 Z-1 I1.427 J-0.464
N4305 X48.399 Y20.047 Z-1.05 I-1.427 J0.464
N4310 X51.252 Y19.12 Z-1.1 I1.427 J-0.464
N4315 X48.399 Y20.047 Z-1.15 I-1.427 J0.464
N4320 X51.252 Y19.12 Z-1.2 I1.427 J-0.464
N4325 X48.399 Y20.047 Z-1.25 I-1.427 J0.464
N4330 X51.252 Y19.12 Z-1.3 I1.427 J-0.464
N4335 X48.399 Y20.047 Z-1.35 I-1.427 J0.464
N4340 X51.252 Y19.12 Z-1.4 I1.427 J-0.464
N4345 X48.399 Y20.047 Z-1.45 I-1.427 J0.464
N4350 X51.252 Y19.12 Z-1.5 I1.427 J-0.464
N4355 X48.399 Y20.047 Z-1.55 I-1.427 J0.464
N4360 X51.252 Y19.12 Z-1.6 I1.427 J-0.464
N4365 X48.399 Y20.047 Z-1.65 I-1.427 J0.464
N4370 X51.252 Y19.12 Z-1.7 I1.427 J-0.464
N4375 X48.399 Y20.047 Z-1.75 I-1.427 J0.464
N4380 X51.252 Y19.12 Z-1.8 I1.427 J-0.464
N4385 X48.399 Y20.047 Z-1.85 I-1.427 J0.464
N4390 X51.252 Y19.12 Z-1.9 I1.427 J-0.464
N4395 X48.399 Y20.047 Z-1.95 I-1.427 J0.464
N4400 X51.252 Y19.12 Z-2 I1.427 J-0.464
N4405 X48.399 Y20.047 Z-2.05 I-1.427 J0.464
N4410 X51.252 Y19.12 Z-2.1 I1.427 J-0.464
N4415 X48.399 Y20.047 Z-2.15 I-1.427 J0.464
N4420 X51.252 Y19.12 Z-2.2 I1.427 J-0.464
N4425 X48.399 Y20.047 Z-2.25 I-1.427 J0.464
N4430 X51.252 Y19.12 Z-2.3 I1.427 J-0.464
N4435 X48.399 Y20.047 Z-2.35 I-1.427 J0.464
N4440 X51.252 Y19.12 Z-2.4 I1.427 J-0.464
N4445 X48.399 Y20.047 Z-2.45 I-1.427 J0.464
N4450 X51.252 Y19.12 Z-2.5 I1.427 J-0.464
N4455 X48.399 Y20.047 Z-2.55 I-1.427 J0.464
N4460 X51.252 Y19.12 Z-2.6 I1.427 J-0.464
N4465 X48.399 Y20.047 Z-2.65 I-1.427 J0.464
N4470 X51.252 Y19.12 Z-2.7 I1.427 J-0.464
N4475 X48.399 Y20.047 Z-2.75 I-1.427 J0.464
N4480 X51.252 Y19.12 Z-2.8 I1.427 J-0.464
N4485 X48.399 Y20.047 Z-2.85 I-1.427 J0.464
N4490 X51.252 Y19.12 Z-2.9 I1.427 J-0.464
N4495 X48.399 Y20.047 Z-2.95 I-1.427 J0.464
N4500 X51.252 Y19.12 Z-3 I1.427 J-0.464
N4505 X48.399 Y20.047 Z-3.05 I-1.427 J0.464
N4510 X51.252 Y19.12 Z-3.1 I1.427 J-0.464
N4515 X48.399 Y20.047 Z-3.15 I-1.427 J0.464
N4520 X51.252 Y19.12 Z-3.2 I1.427 J-0.464
N4525 X48.399 Y20.047 I-1.427 J0.464
N4530 X51.252 Y19.12 I1.427 J-0.464
N4535 X51.059 Y19.498 I-0.285 J0.093
N4540 G1 X50.917 Y19.544
N4545 X50.853 Y19.565 Z-3.192
N4550 X50.793 Y19.585 Z-3.17
N4555 X50.739 Y19.602 Z-3.135
N4560 X50.694 Y19.617 Z-3.087
N4565 X50.66 Y19.628 Z-3.03
N4570 X50.639 Y19.635 Z-2.967
N4575 X50.631 Y19.637 Z-2.9
N4580 G0 Z2.3

(??6)
N4585 X49.825 Y19.584
N4590 Z2.3
N4595 Z-1
N4600 G1 Z-2.7 F50
N4605 X49.775 Y19.634
N4610 X49.75 Y19.627
N4615 X49.732 Y19.609
N4620 X49.725 Y19.584
N4625 X49.733 Y19.545 Z-2.706 F800
N4630 X49.756 Y19.512 Z-2.713
N4635 X49.789 Y19.49 Z-2.719
N4640 X49.828 Y19.484 Z-2.725
N4645 X49.867 Y19.493 Z-2.732
N4650 X49.899 Y19.516 Z-2.738
N4655 X49.92 Y19.55 Z-2.745
N4660 X49.925 Y19.589 Z-2.751
N4665 X49.915 Y19.628 Z-2.757
N4670 X49.891 Y19.659 Z-2.764
N4675 X49.856 Y19.679 Z-2.77
N4680 X49.817 Y19.683 Z-2.776
N4685 X49.779 Y19.672 Z-2.783
N4690 X49.748 Y19.647 Z-2.789
N4695 X49.729 Y19.612 Z-2.795
N4700 X49.726 Y19.572 Z-2.802
N4705 X49.738 Y19.535 Z-2.808
N4710 X49.764 Y19.505 Z-2.815
N4715 X49.8 Y19.487 Z-2.821
N4720 X49.839 Y19.485 Z-2.827
N4725 X49.877 Y19.498 Z-2.834
N4730 X49.906 Y19.525 Z-2.84
N4735 X49.923 Y19.561 Z-2.846
N4740 X49.924 Y19.6 Z-2.853
N4745 X49.91 Y19.637 Z-2.859
N4750 X49.882 Y19.666 Z-2.865
N4755 X49.846 Y19.682 Z-2.872
N4760 X49.806 Z-2.878
N4765 X49.769 Y19.666 Z-2.884
N4770 X49.741 Y19.638 Z-2.891
N4775 X49.727 Y19.601 Z-2.897
N4780 X49.728 Y19.561 Z-2.904
N4785 X49.744 Y19.525 Z-2.91
N4790 X49.773 Y19.498 Z-2.916
N4795 X49.811 Y19.485 Z-2.923
N4800 X49.85 Y19.487 Z-2.929
N4805 X49.886 Y19.504 Z-2.935
N4810 X49.912 Y19.534 Z-2.942
N4815 X49.925 Y19.572 Z-2.948
N4820 X49.921 Y19.611 Z-2.954
N4825 X49.903 Y19.646 Z-2.961
N4830 X49.873 Y19.672 Z-2.967
N4835 X49.835 Y19.683 Z-2.974
N4840 X49.795 Y19.679 Z-2.98
N4845 X49.76 Y19.66 Z-2.986
N4850 X49.736 Y19.628 Z-2.993
N4855 X49.726 Y19.59 Z-2.999
N4860 X49.731 Y19.551 Z-3.005
N4865 X49.751 Y19.517 Z-3.012
N4870 X49.783 Y19.493 Z-3.018
N4875 X49.822 Y19.484 Z-3.024
N4880 X49.861 Y19.49 Z-3.031
N4885 X49.894 Y19.511 Z-3.037
N4890 X49.917 Y19.544 Z-3.044
N4895 X49.925 Y19.583 Z-3.05
N4900 X49.918 Y19.622 Z-3.056
N4905 X49.896 Y19.655 Z-3.063
N4910 X49.862 Y19.676 Z-3.069
N4915 X49.823 Y19.684 Z-3.075
N4920 X49.785 Y19.675 Z-3.082
N4925 X49.752 Y19.652 Z-3.088
N4930 X49.731 Y19.618 Z-3.094
N4935 X49.725 Y19.579 Z-3.101
N4940 X49.735 Y19.54 Z-3.107
N4945 X49.759 Y19.509 Z-3.113
N4950 X49.794 Y19.489 Z-3.12
N4955 X49.833 Y19.484 Z-3.126
N4960 X49.871 Y19.495 Z-3.133
N4965 X49.902 Y19.52 Z-3.139
N4970 X49.921 Y19.554 Z-3.145
N4975 X49.925 Y19.594 Z-3.152
N4980 X49.913 Y19.632 Z-3.158
N4985 X49.887 Y19.662 Z-3.164
N4990 X49.852 Y19.68 Z-3.171
N4995 X49.812 Y19.683 Z-3.177
N5000 X49.775 Y19.67 Z-3.183
N5005 X49.745 Y19.643 Z-3.19
N5010 X49.728 Y19.607 Z-3.196
N5015 X49.727 Y19.568 Z-3.203
N5020 X49.741 Y19.531 Z-3.209
N5025 X49.768 Y19.502 Z-3.215
N5030 X49.804 Y19.486 Z-3.222
N5035 X49.844 Y19.485 Z-3.228
N5040 X49.881 Y19.5 Z-3.234
N5045 X49.909 Y19.528 Z-3.241
N5050 X49.924 Y19.565 Z-3.247
N5055 X49.923 Y19.605 Z-3.253
N5060 X49.907 Y19.641 Z-3.26
N5065 X49.878 Y19.669 Z-3.266
N5070 X49.841 Y19.682 Z-3.273
N5075 X49.801 Y19.681 Z-3.279
N5080 X49.765 Y19.664 Z-3.285
N5085 X49.739 Y19.634 Z-3.292
N5090 X49.726 Y19.596 Z-3.298
N5095 X49.729 Y19.557 Z-3.304
N5100 X49.747 Y19.521 Z-3.311
N5105 X49.777 Y19.496 Z-3.317
N5110 X49.815 Y19.484 Z-3.323
N5115 X49.855 Y19.488 Z-3.33
N5120 X49.89 Y19.507 Z-3.336
N5125 X49.914 Y19.538 Z-3.342
N5130 X49.925 Y19.576 Z-3.349
N5135 X49.92 Y19.616 Z-3.355
N5140 X49.9 Y19.65 Z-3.362
N5145 X49.868 Y19.674 Z-3.368
N5150 X49.83 Y19.683 Z-3.374
N5155 X49.791 Y19.677 Z-3.381
N5160 X49.757 Y19.656 Z-3.387
N5165 X49.734 Y19.624 Z-3.393
N5170 X49.725 Y19.585 Z-3.4
N5175 X49.733 Y19.546 Z-3.406
N5180 X49.755 Y19.513 Z-3.412
N5185 X49.788 Y19.491 Z-3.419
N5190 X49.827 Y19.484 Z-3.425
N5195 X49.865 Y19.492 Z-3.432
N5200 X49.898 Y19.515 Z-3.438
N5205 X49.919 Y19.548 Z-3.444
N5210 X49.925 Y19.588 Z-3.451
N5215 X49.916 Y19.626 Z-3.457
N5220 X49.892 Y19.658 Z-3.463
N5225 X49.858 Y19.678 Z-3.47
N5230 X49.819 Y19.683 Z-3.476
N5235 X49.78 Y19.673 Z-3.482
N5240 X49.749 Y19.648 Z-3.489
N5245 X49.73 Y19.614 Z-3.495
N5250 X49.726 Y19.574 Z-3.502
N5255 X49.737 Y19.536 Z-3.508
N5260 X49.763 Y19.506 Z-3.514
N5265 X49.798 Y19.487 Z-3.521
N5270 X49.838 Y19.484 Z-3.527
N5275 X49.875 Y19.497 Z-3.533
N5280 X49.905 Y19.523 Z-3.54
N5285 X49.922 Y19.559 Z-3.546
N5290 X49.924 Y19.599 Z-3.552
N5295 X49.911 Y19.636 Z-3.559
N5300 X49.883 Y19.665 Z-3.565
N5305 X49.847 Y19.681 Z-3.572
N5310 X49.807 Y19.682 Z-3.578
N5315 X49.771 Y19.667 Z-3.584
N5320 X49.742 Y19.639 Z-3.591
N5325 X49.727 Y19.603 Z-3.597
N5330 X49.728 Y19.563 Z-3.603
N5335 X49.743 Y19.527 Z-3.61
N5340 X49.772 Y19.499 Z-3.616
N5345 X49.809 Y19.485 Z-3.622
N5350 X49.849 Y19.486 Z-3.629
N5355 X49.885 Y19.503 Z-3.635
N5360 X49.911 Y19.533 Z-3.641
N5365 X49.924 Y19.57 Z-3.648
N5370 X49.922 Y19.61 Z-3.654
N5375 X49.904 Y19.645 Z-3.661
N5380 X49.874 Y19.671 Z-3.667
N5385 X49.836 Y19.683 Z-3.673
N5390 X49.797 Y19.679 Z-3.68
N5395 X49.762 Y19.661 Z-3.686
N5400 X49.737 Y19.63 Z-3.692
N5405 X49.726 Y19.592 Z-3.699
N5410 X49.73 Y19.552 Z-3.705
N5415 X49.75 Y19.518 Z-3.711
N5420 X49.782 Y19.494 Z-3.718
N5425 X49.82 Y19.484 Z-3.724
N5430 X49.859 Y19.49 Z-3.731
N5435 X49.893 Y19.51 Z-3.737
N5440 X49.917 Y19.542 Z-3.743
N5445 X49.925 Y19.581 Z-3.75
N5450 X49.918 Y19.62 Z-3.756
N5455 X49.897 Y19.654 Z-3.762
N5460 X49.864 Y19.676 Z-3.769
N5465 X49.825 Y19.684 Z-3.775
N5470 X49.786 Y19.676 Z-3.781
N5475 X49.753 Y19.653 Z-3.788
N5480 X49.732 Y19.62 Z-3.794
N5485 X49.725 Y19.58 Z-3.801
N5490 X49.735 Y19.542 Z-3.807
N5495 X49.758 Y19.51 Z-3.813
N5500 X49.792 Y19.489 Z-3.82
N5505 X49.831 Y19.484 Z-3.826
N5510 X49.87 Y19.494 Z-3.832
N5515 X49.901 Y19.518 Z-3.839
N5520 X49.921 Y19.553 Z-3.845
N5525 X49.925 Y19.592 Z-3.851
N5530 X49.914 Y19.63 Z-3.858
N5535 X49.889 Y19.661 Z-3.864
N5540 X49.853 Y19.68 Z-3.87
N5545 X49.814 Y19.683 Z-3.877
N5550 X49.776 Y19.671 Z-3.883
N5555 X49.746 Y19.645 Z-3.89
N5560 X49.729 Y19.609 Z-3.896
N5565 X49.726 Y19.569 Z-3.902
N5570 X49.74 Y19.532 Z-3.909
N5575 X49.767 Y19.503 Z-3.915
N5580 X49.803 Y19.486 Z-3.921
N5585 X49.842 Y19.485 Z-3.928
N5590 X49.879 Y19.499 Z-3.934
N5595 X49.908 Y19.527 Z-3.94
N5600 X49.923 Y19.564 Z-3.947
N5605 Y19.603 Z-3.953
N5610 X49.908 Y19.64 Z-3.96
N5615 X49.879 Y19.668 Z-3.966
N5620 X49.842 Y19.682 Z-3.972
N5625 X49.803 Y19.681 Z-3.979
N5630 X49.767 Y19.665 Z-3.985
N5635 X49.74 Y19.635 Z-3.991
N5640 X49.726 Y19.598 Z-3.998
N5645 X49.729 Y19.558 Z-4.004
N5650 X49.746 Y19.523 Z-4.01
N5655 X49.776 Y19.497 Z-4.017
N5660 X49.814 Y19.484 Z-4.023
N5665 X49.853 Y19.488 Z-4.03
N5670 X49.889 Y19.506 Z-4.036
N5675 X49.914 Y19.537 Z-4.042
N5680 X49.925 Y19.575 Z-4.049
N5685 X49.921 Y19.614 Z-4.055
N5690 X49.901 Y19.649 Z-4.061
N5695 X49.87 Y19.673 Z-4.068
N5700 X49.831 Y19.683 Z-4.074
N5705 X49.792 Y19.678 Z-4.08
N5710 X49.758 Y19.657 Z-4.087
N5715 X49.735 Y19.625 Z-4.093
N5720 X49.725 Y19.587 Z-4.099
N5725 X49.732 Y19.548 Z-4.106
N5730 X49.753 Y19.514 Z-4.112
N5735 X49.786 Y19.492 Z-4.119
N5740 X49.825 Y19.484 Z-4.125
N5745 X49.864 Y19.491 Z-4.131
N5750 X49.897 Y19.514 Z-4.138
N5755 X49.918 Y19.547 Z-4.144
N5760 X49.925 Y19.586 Z-4.15
N5765 X49.917 Y19.625 Z-4.157
N5770 X49.893 Y19.657 Z-4.163
N5775 X49.859 Y19.678 Z-4.169
N5780 X49.82 Y19.683 Z-4.176
N5785 X49.782 Y19.674 Z-4.182
N5790 X49.75 Y19.649 Z-4.189
N5795 X49.73 Y19.615 Z-4.195
N5800 X49.726 Y19.576 Z-4.201
N5805 X49.737 Y19.537 Z-4.208
N5810 X49.762 Y19.507 Z-4.214
N5815 X49.797 Y19.488 Z-4.22
N5820 X49.836 Y19.484 Z-4.227
N5825 X49.874 Y19.496 Z-4.233
N5830 X49.904 Y19.522 Z-4.239
N5835 X49.922 Y19.558 Z-4.246
N5840 X49.924 Y19.597 Z-4.252
N5845 X49.911 Y19.635 Z-4.259
N5850 X49.885 Y19.664 Z-4.265
N5855 X49.849 Y19.681 Z-4.271
N5860 X49.809 Y19.682 Z-4.278
N5865 X49.772 Y19.668 Z-4.284
N5870 X49.743 Y19.641 Z-4.29
N5875 X49.728 Y19.604 Z-4.297
N5880 X49.727 Y19.565 Z-4.303
N5885 X49.742 Y19.528 Z-4.309
N5890 X49.771 Y19.5 Z-4.316
N5895 X49.807 Y19.485 Z-4.322
N5900 X49.847 Y19.486 Z-4.328
N5905 X49.883 Y19.502 Z-4.335
N5910 X49.911 Y19.531 Z-4.341
N5915 X49.924 Y19.568 Z-4.348
N5920 X49.922 Y19.608 Z-4.354
N5925 X49.905 Y19.644 Z-4.36
N5930 X49.875 Y19.67 Z-4.367
N5935 X49.838 Y19.683 Z-4.373
N5940 X49.798 Y19.68 Z-4.379
N5945 X49.763 Y19.662 Z-4.386
N5950 X49.737 Y19.631 Z-4.392
N5955 X49.726 Y19.593 Z-4.398
N5960 X49.73 Y19.554 Z-4.405
N5965 X49.749 Y19.519 Z-4.411
N5970 X49.78 Y19.494 Z-4.418
N5975 X49.819 Y19.484 Z-4.424
N5980 X49.858 Y19.489 Z-4.43
N5985 X49.892 Y19.509 Z-4.437
N5990 X49.916 Y19.541 Z-4.443
N5995 X49.925 Y19.58 Z-4.449
N6000 X49.919 Y19.619 Z-4.456
N6005 X49.898 Y19.652 Z-4.462
N6010 X49.865 Y19.675 Z-4.468
N6015 X49.827 Y19.684 Z-4.475
N6020 X49.788 Y19.676 Z-4.481
N6025 X49.755 Y19.654 Z-4.488
N6030 X49.733 Y19.621 Z-4.494
N6035 X49.725 Y19.582 Z-4.5
N6040 X49.734 Y19.543 Z-4.507
N6045 X49.757 Y19.511 Z-4.513
N6050 X49.791 Y19.49 Z-4.519
N6055 X49.83 Y19.484 Z-4.526
N6060 X49.868 Y19.493 Z-4.532
N6065 X49.9 Y19.517 Z-4.538
N6070 X49.92 Y19.551 Z-4.545
N6075 X49.925 Y19.591 Z-4.551
N6080 X49.914 Y19.629 Z-4.558
N6085 X49.89 Y19.66 Z-4.564
N6090 X49.855 Y19.679 Z-4.57
N6095 X49.815 Y19.683 Z-4.577
N6100 X49.777 Y19.671 Z-4.583
N6105 X49.747 Y19.646 Z-4.589
N6110 X49.729 Y19.61 Z-4.596
N6115 X49.726 Y19.571 Z-4.602
N6120 X49.739 Y19.533 Z-4.608
N6125 X49.765 Y19.504 Z-4.615
N6130 X49.801 Y19.487 Z-4.621
N6135 X49.841 Y19.485 Z-4.627
N6140 X49.878 Y19.499 Z-4.634
N6145 X49.907 Y19.526 Z-4.64
N6150 X49.923 Y19.562 Z-4.647
N6155 X49.924 Y19.602 Z-4.653
N6160 X49.909 Y19.639 Z-4.659
N6165 X49.881 Y19.667 Z-4.666
N6170 X49.844 Y19.682 Z-4.672
N6175 X49.804 Y19.681 Z-4.678
N6180 X49.768 Y19.665 Z-4.685
N6185 X49.741 Y19.637 Z-4.691
N6190 X49.727 Y19.6 Z-4.697
N6195 X49.728 Y19.56 Z-4.704
N6200 X49.745 Y19.524 Z-4.71
N6205 X49.775 Y19.497 Z-4.717
N6210 X49.812 Y19.484 Z-4.723
N6215 X49.852 Y19.487 Z-4.729
N6220 X49.887 Y19.505 Z-4.736
N6225 X49.913 Y19.535 Z-4.742
N6230 X49.925 Y19.573 Z-4.748
N6235 X49.921 Y19.613 Z-4.755
N6240 X49.902 Y19.648 Z-4.761
N6245 X49.871 Y19.672 Z-4.767
N6250 X49.833 Y19.683 Z-4.774
N6255 X49.794 Y19.678 Z-4.78
N6260 X49.759 Y19.659 Z-4.787
N6265 X49.735 Y19.627 Z-4.793
N6270 X49.725 Y19.588 Z-4.799
N6275 X49.731 Y19.549 Z-4.806
N6280 X49.752 Y19.515 Z-4.812
N6285 X49.785 Y19.492 Z-4.818
N6290 X49.823 Y19.484 Z-4.825
N6295 X49.862 Y19.491 Z-4.831
N6300 X49.896 Y19.512 Z-4.837
N6305 X49.918 Y19.545 Z-4.844
N6310 X49.925 Y19.584 Z-4.85
N6315 X49.917 Y19.623 Z-4.856
N6320 X49.894 Y19.656 Z-4.863
N6325 X49.861 Y19.677 Z-4.869
N6330 X49.822 Y19.684 Z-4.876
N6335 X49.783 Y19.674 Z-4.882
N6340 X49.751 Y19.651 Z-4.888
N6345 X49.731 Y19.617 Z-4.895
N6350 X49.726 Y19.577 Z-4.901
N6355 X49.736 Y19.539 Z-4.907
N6360 X49.76 Y19.508 Z-4.914
N6365 X49.795 Y19.488 Z-4.92
N6370 X49.835 Y19.484 Z-4.926
N6375 X49.873 Y19.495 Z-4.933
N6380 X49.903 Y19.521 Z-4.939
N6385 X49.921 Y19.556 Z-4.946
N6390 X49.925 Y19.596 Z-4.952
N6395 X49.912 Y19.633 Z-4.958
N6400 X49.886 Y19.663 Z-4.965
N6405 X49.85 Y19.68 Z-4.971
N6410 X49.811 Y19.682 Z-4.977
N6415 X49.773 Y19.669 Z-4.984
N6420 X49.744 Y19.642 Z-4.99
N6425 X49.728 Y19.606 Z-4.996
N6430 X49.727 Y19.566 Z-5.003
N6435 X49.741 Y19.529 Z-5.009
N6440 X49.769 Y19.501 Z-5.016
N6445 X49.806 Y19.486 Z-5.022
N6450 X49.846 Z-5.028
N6455 X49.882 Y19.501 Z-5.035
N6460 X49.91 Y19.53 Z-5.041
N6465 X49.924 Y19.567 Z-5.047
N6470 X49.923 Y19.607 Z-5.054
N6475 X49.906 Y19.643 Z-5.06
N6480 X49.877 Y19.669 Z-5.066
N6485 X49.839 Y19.683 Z-5.073
N6490 X49.8 Y19.68 Z-5.079
N6495 X49.764 Y19.663 Z-5.085
N6500 X49.738 Y19.633 Z-5.092
N6505 X49.726 Y19.595 Z-5.098
N6510 X49.729 Y19.555 Z-5.105
N6515 X49.748 Y19.52 Z-5.111
N6520 X49.779 Y19.495 Z-5.117
N6525 X49.817 Y19.484 Z-5.124
N6530 X49.856 Y19.489 Z-5.13
N6535 X49.891 Y19.508 Z-5.136
N6540 X49.915 Y19.54 Z-5.143
N6545 X49.925 Y19.578 Z-5.149
N6550 X49.92 Y19.617 Z-5.155
N6555 X49.899 Y19.651 Z-5.162
N6560 X49.867 Y19.675 Z-5.168
N6565 X49.828 Y19.684 Z-5.175
N6570 X49.789 Y19.677 Z-5.181
N6575 X49.756 Y19.655 Z-5.187
N6580 X49.733 Y19.623 Z-5.194
N6585 X49.725 Y19.584 Z-5.2
N6590 G3 X49.925 I0.1
N6595 X49.725 I-0.1
N6600 G1 X49.732 Y19.559
N6605 X49.75 Y19.54
N6610 X49.775 Y19.534
N6615 X49.825 Y19.584
N6620 G0 Z2.3
N6625 X41.107 Y7.584
N6630 Z-1
N6635 G1 Z-2.7 F50
N6640 X41.057 Y7.634
N6645 X41.032 Y7.627
N6650 X41.014 Y7.609
N6655 X41.007 Y7.584
N6660 X41.015 Y7.545 Z-2.706 F800
N6665 X41.037 Y7.512 Z-2.713
N6670 X41.071 Y7.49 Z-2.719
N6675 X41.11 Y7.484 Z-2.725
N6680 X41.148 Y7.493 Z-2.732
N6685 X41.18 Y7.516 Z-2.738
N6690 X41.201 Y7.55 Z-2.745
N6695 X41.207 Y7.589 Z-2.751
N6700 X41.197 Y7.628 Z-2.757
N6705 X41.172 Y7.659 Z-2.764
N6710 X41.138 Y7.679 Z-2.77
N6715 X41.098 Y7.683 Z-2.776
N6720 X41.06 Y7.672 Z-2.783
N6725 X41.03 Y7.647 Z-2.789
N6730 X41.011 Y7.612 Z-2.795
N6735 X41.007 Y7.572 Z-2.802
N6740 X41.02 Y7.535 Z-2.808
N6745 X41.046 Y7.505 Z-2.815
N6750 X41.081 Y7.487 Z-2.821
N6755 X41.121 Y7.485 Z-2.827
N6760 X41.158 Y7.498 Z-2.834
N6765 X41.188 Y7.525 Z-2.84
N6770 X41.204 Y7.561 Z-2.846
N6775 X41.205 Y7.6 Z-2.853
N6780 X41.191 Y7.637 Z-2.859
N6785 X41.164 Y7.666 Z-2.865
N6790 X41.127 Y7.682 Z-2.872
N6795 X41.087 Z-2.878
N6800 X41.051 Y7.666 Z-2.884
N6805 X41.023 Y7.638 Z-2.891
N6810 X41.008 Y7.601 Z-2.897
N6815 X41.009 Y7.561 Z-2.904
N6820 X41.026 Y7.525 Z-2.91
N6825 X41.055 Y7.498 Z-2.916
N6830 X41.092 Y7.485 Z-2.923
N6835 X41.132 Y7.487 Z-2.929
N6840 X41.167 Y7.504 Z-2.935
N6845 X41.194 Y7.534 Z-2.942
N6850 X41.206 Y7.572 Z-2.948
N6855 X41.203 Y7.611 Z-2.954
N6860 X41.185 Y7.646 Z-2.961
N6865 X41.154 Y7.672 Z-2.967
N6870 X41.116 Y7.683 Z-2.974
N6875 X41.077 Y7.679 Z-2.98
N6880 X41.042 Y7.66 Z-2.986
N6885 X41.017 Y7.628 Z-2.993
N6890 X41.007 Y7.59 Z-2.999
N6895 X41.012 Y7.551 Z-3.005
N6900 X41.033 Y7.517 Z-3.012
N6905 X41.065 Y7.493 Z-3.018
N6910 X41.103 Y7.484 Z-3.024
N6915 X41.142 Y7.49 Z-3.031
N6920 X41.176 Y7.511 Z-3.037
N6925 X41.199 Y7.544 Z-3.044
N6930 X41.207 Y7.583 Z-3.05
N6935 X41.199 Y7.622 Z-3.056
N6940 X41.177 Y7.655 Z-3.063
N6945 X41.144 Y7.676 Z-3.069
N6950 X41.105 Y7.684 Z-3.075
N6955 X41.066 Y7.675 Z-3.082
N6960 X41.034 Y7.652 Z-3.088
N6965 X41.013 Y7.618 Z-3.094
N6970 X41.007 Y7.579 Z-3.101
N6975 X41.017 Y7.54 Z-3.107
N6980 X41.041 Y7.509 Z-3.113
N6985 X41.075 Y7.489 Z-3.12
N6990 X41.114 Y7.484 Z-3.126
N6995 X41.153 Y7.495 Z-3.133
N7000 X41.184 Y7.52 Z-3.139
N7005 X41.203 Y7.554 Z-3.145
N7010 X41.206 Y7.594 Z-3.152
N7015 X41.194 Y7.632 Z-3.158
N7020 X41.169 Y7.662 Z-3.164
N7025 X41.133 Y7.68 Z-3.171
N7030 X41.094 Y7.683 Z-3.177
N7035 X41.056 Y7.67 Z-3.183
N7040 X41.027 Y7.643 Z-3.19
N7045 X41.01 Y7.607 Z-3.196
N7050 X41.008 Y7.568 Z-3.203
N7055 X41.022 Y7.531 Z-3.209
N7060 X41.049 Y7.502 Z-3.215
N7065 X41.086 Y7.486 Z-3.222
N7070 X41.126 Y7.485 Z-3.228
N7075 X41.162 Y7.5 Z-3.234
N7080 X41.19 Y7.528 Z-3.241
N7085 X41.205 Y7.565 Z-3.247
N7090 Y7.605 Z-3.253
N7095 X41.188 Y7.641 Z-3.26
N7100 X41.16 Y7.669 Z-3.266
N7105 X41.122 Y7.682 Z-3.273
N7110 X41.083 Y7.681 Z-3.279
N7115 X41.047 Y7.664 Z-3.285
N7120 X41.02 Y7.634 Z-3.292
N7125 X41.008 Y7.596 Z-3.298
N7130 X41.011 Y7.557 Z-3.304
N7135 X41.029 Y7.521 Z-3.311
N7140 X41.059 Y7.496 Z-3.317
N7145 X41.097 Y7.484 Z-3.323
N7150 X41.136 Y7.488 Z-3.33
N7155 X41.171 Y7.507 Z-3.336
N7160 X41.196 Y7.538 Z-3.342
N7165 X41.207 Y7.576 Z-3.349
N7170 X41.202 Y7.616 Z-3.355
N7175 X41.182 Y7.65 Z-3.362
N7180 X41.15 Y7.674 Z-3.368
N7185 X41.111 Y7.683 Z-3.374
N7190 X41.072 Y7.677 Z-3.381
N7195 X41.038 Y7.656 Z-3.387
N7200 X41.015 Y7.624 Z-3.393
N7205 X41.007 Y7.585 Z-3.4
N7210 X41.014 Y7.546 Z-3.406
N7215 X41.036 Y7.513 Z-3.412
N7220 X41.069 Y7.491 Z-3.419
N7225 X41.108 Y7.484 Z-3.425
N7230 X41.147 Y7.492 Z-3.432
N7235 X41.179 Y7.515 Z-3.438
N7240 X41.2 Y7.548 Z-3.444
N7245 X41.207 Y7.588 Z-3.451
N7250 X41.197 Y7.626 Z-3.457
N7255 X41.174 Y7.658 Z-3.463
N7260 X41.139 Y7.678 Z-3.47
N7265 X41.1 Y7.683 Z-3.476
N7270 X41.062 Y7.673 Z-3.482
N7275 X41.031 Y7.648 Z-3.489
N7280 X41.011 Y7.614 Z-3.495
N7285 X41.007 Y7.574 Z-3.502
N7290 X41.019 Y7.536 Z-3.508
N7295 X41.044 Y7.506 Z-3.514
N7300 X41.08 Y7.487 Z-3.521
N7305 X41.119 Y7.484 Z-3.527
N7310 X41.157 Y7.497 Z-3.533
N7315 X41.187 Y7.523 Z-3.54
N7320 X41.204 Y7.559 Z-3.546
N7325 X41.206 Y7.599 Z-3.552
N7330 X41.192 Y7.636 Z-3.559
N7335 X41.165 Y7.665 Z-3.565
N7340 X41.129 Y7.681 Z-3.572
N7345 X41.089 Y7.682 Z-3.578
N7350 X41.052 Y7.667 Z-3.584
N7355 X41.024 Y7.639 Z-3.591
N7360 X41.009 Y7.603 Z-3.597
N7365 Y7.563 Z-3.603
N7370 X41.025 Y7.527 Z-3.61
N7375 X41.053 Y7.499 Z-3.616
N7380 X41.091 Y7.485 Z-3.622
N7385 X41.13 Y7.486 Z-3.629
N7390 X41.166 Y7.503 Z-3.635
N7395 X41.193 Y7.533 Z-3.641
N7400 X41.206 Y7.57 Z-3.648
N7405 X41.203 Y7.61 Z-3.654
N7410 X41.186 Y7.645 Z-3.661
N7415 X41.155 Y7.671 Z-3.667
N7420 X41.118 Y7.683 Z-3.673
N7425 X41.078 Y7.679 Z-3.68
N7430 X41.043 Y7.661 Z-3.686
N7435 X41.018 Y7.63 Z-3.692
N7440 X41.007 Y7.592 Z-3.699
N7445 X41.012 Y7.552 Z-3.705
N7450 X41.032 Y7.518 Z-3.711
N7455 X41.063 Y7.494 Z-3.718
N7460 X41.102 Y7.484 Z-3.724
N7465 X41.141 Y7.49 Z-3.731
N7470 X41.175 Y7.51 Z-3.737
N7475 X41.198 Y7.542 Z-3.743
N7480 X41.207 Y7.581 Z-3.75
N7485 X41.2 Y7.62 Z-3.756
N7490 X41.178 Y7.654 Z-3.762
N7495 X41.145 Y7.676 Z-3.769
N7500 X41.106 Y7.684 Z-3.775
N7505 X41.068 Y7.676 Z-3.781
N7510 X41.035 Y7.653 Z-3.788
N7515 X41.014 Y7.62 Z-3.794
N7520 X41.007 Y7.58 Z-3.801
N7525 X41.016 Y7.542 Z-3.807
N7530 X41.039 Y7.51 Z-3.813
N7535 X41.074 Y7.489 Z-3.82
N7540 X41.113 Y7.484 Z-3.826
N7545 X41.151 Y7.494 Z-3.832
N7550 X41.183 Y7.518 Z-3.839
N7555 X41.202 Y7.553 Z-3.845
N7560 X41.206 Y7.592 Z-3.851
N7565 X41.195 Y7.63 Z-3.858
N7570 X41.17 Y7.661 Z-3.864
N7575 X41.135 Y7.68 Z-3.87
N7580 X41.095 Y7.683 Z-3.877
N7585 X41.058 Y7.671 Z-3.883
N7590 X41.028 Y7.645 Z-3.89
N7595 X41.01 Y7.609 Z-3.896
N7600 X41.008 Y7.569 Z-3.902
N7605 X41.021 Y7.532 Z-3.909
N7610 X41.048 Y7.503 Z-3.915
N7615 X41.084 Y7.486 Z-3.921
N7620 X41.124 Y7.485 Z-3.928
N7625 X41.161 Y7.499 Z-3.934
N7630 X41.189 Y7.527 Z-3.94
N7635 X41.205 Y7.564 Z-3.947
N7640 Y7.603 Z-3.953
N7645 X41.189 Y7.64 Z-3.96
N7650 X41.161 Y7.668 Z-3.966
N7655 X41.124 Y7.682 Z-3.972
N7660 X41.084 Y7.681 Z-3.979
N7665 X41.048 Y7.665 Z-3.985
N7670 X41.021 Y7.635 Z-3.991
N7675 X41.008 Y7.598 Z-3.998
N7680 X41.01 Y7.558 Z-4.004
N7685 X41.028 Y7.523 Z-4.01
N7690 X41.058 Y7.497 Z-4.017
N7695 X41.095 Y7.484 Z-4.023
N7700 X41.135 Y7.488 Z-4.03
N7705 X41.17 Y7.506 Z-4.036
N7710 X41.195 Y7.537 Z-4.042
N7715 X41.206 Y7.575 Z-4.049
N7720 X41.202 Y7.614 Z-4.055
N7725 X41.183 Y7.649 Z-4.061
N7730 X41.151 Y7.673 Z-4.068
N7735 X41.113 Y7.683 Z-4.074
N7740 X41.074 Y7.678 Z-4.08
N7745 X41.039 Y7.657 Z-4.087
N7750 X41.016 Y7.625 Z-4.093
N7755 X41.007 Y7.587 Z-4.099
N7760 X41.014 Y7.548 Z-4.106
N7765 X41.035 Y7.514 Z-4.112
N7770 X41.068 Y7.492 Z-4.119
N7775 X41.106 Y7.484 Z-4.125
N7780 X41.145 Y7.491 Z-4.131
N7785 X41.178 Y7.514 Z-4.138
N7790 X41.2 Y7.547 Z-4.144
N7795 X41.207 Y7.586 Z-4.15
N7800 X41.198 Y7.625 Z-4.157
N7805 X41.175 Y7.657 Z-4.163
N7810 X41.141 Y7.678 Z-4.169
N7815 X41.102 Y7.683 Z-4.176
N7820 X41.063 Y7.674 Z-4.182
N7825 X41.032 Y7.649 Z-4.189
N7830 X41.012 Y7.615 Z-4.195
N7835 X41.007 Y7.576 Z-4.201
N7840 X41.018 Y7.537 Z-4.208
N7845 X41.043 Y7.507 Z-4.214
N7850 X41.078 Y7.488 Z-4.22
N7855 X41.118 Y7.484 Z-4.227
N7860 X41.155 Y7.496 Z-4.233
N7865 X41.186 Y7.522 Z-4.239
N7870 X41.203 Y7.558 Z-4.246
N7875 X41.206 Y7.597 Z-4.252
N7880 X41.193 Y7.635 Z-4.259
N7885 X41.166 Y7.664 Z-4.265
N7890 X41.13 Y7.681 Z-4.271
N7895 X41.091 Y7.682 Z-4.278
N7900 X41.053 Y7.668 Z-4.284
N7905 X41.025 Y7.641 Z-4.29
N7910 X41.009 Y7.604 Z-4.297
N7915 Y7.565 Z-4.303
N7920 X41.024 Y7.528 Z-4.309
N7925 X41.052 Y7.5 Z-4.316
N7930 X41.089 Y7.485 Z-4.322
N7935 X41.129 Y7.486 Z-4.328
N7940 X41.165 Y7.502 Z-4.335
N7945 X41.192 Y7.531 Z-4.341
N7950 X41.206 Y7.568 Z-4.348
N7955 X41.204 Y7.608 Z-4.354
N7960 X41.187 Y7.644 Z-4.36
N7965 X41.157 Y7.67 Z-4.367
N7970 X41.119 Y7.683 Z-4.373
N7975 X41.08 Y7.68 Z-4.379
N7980 X41.044 Y7.662 Z-4.386
N7985 X41.019 Y7.631 Z-4.392
N7990 X41.007 Y7.593 Z-4.398
N7995 X41.011 Y7.554 Z-4.405
N8000 X41.031 Y7.519 Z-4.411
N8005 X41.062 Y7.494 Z-4.418
N8010 X41.1 Y7.484 Z-4.424
N8015 X41.139 Y7.489 Z-4.43
N8020 X41.174 Y7.509 Z-4.437
N8025 X41.197 Y7.541 Z-4.443
N8030 X41.207 Y7.58 Z-4.449
N8035 X41.2 Y7.619 Z-4.456
N8040 X41.179 Y7.652 Z-4.462
N8045 X41.147 Y7.675 Z-4.468
N8050 X41.108 Y7.684 Z-4.475
N8055 X41.069 Y7.676 Z-4.481
N8060 X41.036 Y7.654 Z-4.488
N8065 X41.014 Y7.621 Z-4.494
N8070 X41.007 Y7.582 Z-4.5
N8075 X41.015 Y7.543 Z-4.507
N8080 X41.038 Y7.511 Z-4.513
N8085 X41.072 Y7.49 Z-4.519
N8090 X41.111 Y7.484 Z-4.526
N8095 X41.15 Y7.493 Z-4.532
N8100 X41.182 Y7.517 Z-4.538
N8105 X41.202 Y7.551 Z-4.545
N8110 X41.207 Y7.591 Z-4.551
N8115 X41.196 Y7.629 Z-4.558
N8120 X41.171 Y7.66 Z-4.564
N8125 X41.136 Y7.679 Z-4.57
N8130 X41.097 Y7.683 Z-4.577
N8135 X41.059 Y7.671 Z-4.583
N8140 X41.029 Y7.646 Z-4.589
N8145 X41.011 Y7.61 Z-4.596
N8150 X41.008 Y7.571 Z-4.602
N8155 X41.02 Y7.533 Z-4.608
N8160 X41.047 Y7.504 Z-4.615
N8165 X41.083 Y7.487 Z-4.621
N8170 X41.122 Y7.485 Z-4.627
N8175 X41.16 Y7.499 Z-4.634
N8180 X41.188 Y7.526 Z-4.64
N8185 X41.205 Y7.562 Z-4.647
N8190 Y7.602 Z-4.653
N8195 X41.19 Y7.639 Z-4.659
N8200 X41.162 Y7.667 Z-4.666
N8205 X41.126 Y7.682 Z-4.672
N8210 X41.086 Y7.681 Z-4.678
N8215 X41.049 Y7.665 Z-4.685
N8220 X41.022 Y7.637 Z-4.691
N8225 X41.008 Y7.6 Z-4.697
N8230 X41.01 Y7.56 Z-4.704
N8235 X41.027 Y7.524 Z-4.71
N8240 X41.056 Y7.497 Z-4.717
N8245 X41.094 Y7.484 Z-4.723
N8250 X41.133 Y7.487 Z-4.729
N8255 X41.169 Y7.505 Z-4.736
N8260 X41.194 Y7.535 Z-4.742
N8265 X41.206 Y7.573 Z-4.748
N8270 X41.203 Y7.613 Z-4.755
N8275 X41.184 Y7.648 Z-4.761
N8280 X41.153 Y7.672 Z-4.767
N8285 X41.114 Y7.683 Z-4.774
N8290 X41.075 Y7.678 Z-4.78
N8295 X41.041 Y7.659 Z-4.787
N8300 X41.017 Y7.627 Z-4.793
N8305 X41.007 Y7.588 Z-4.799
N8310 X41.013 Y7.549 Z-4.806
N8315 X41.034 Y7.515 Z-4.812
N8320 X41.066 Y7.492 Z-4.818
N8325 X41.105 Y7.484 Z-4.825
N8330 X41.144 Y7.491 Z-4.831
N8335 X41.177 Y7.512 Z-4.837
N8340 X41.199 Y7.545 Z-4.844
N8345 X41.207 Y7.584 Z-4.85
N8350 X41.199 Y7.623 Z-4.856
N8355 X41.176 Y7.656 Z-4.863
N8360 X41.142 Y7.677 Z-4.869
N8365 X41.103 Y7.684 Z-4.876
N8370 X41.065 Y7.674 Z-4.882
N8375 X41.033 Y7.651 Z-4.888
N8380 X41.012 Y7.617 Z-4.895
N8385 X41.007 Y7.577 Z-4.901
N8390 X41.017 Y7.539 Z-4.907
N8395 X41.042 Y7.508 Z-4.914
N8400 X41.077 Y7.488 Z-4.92
N8405 X41.116 Y7.484 Z-4.926
N8410 X41.154 Y7.495 Z-4.933
N8415 X41.185 Y7.521 Z-4.939
N8420 X41.203 Y7.556 Z-4.946
N8425 X41.206 Y7.596 Z-4.952
N8430 X41.194 Y7.633 Z-4.958
N8435 X41.167 Y7.663 Z-4.965
N8440 X41.132 Y7.68 Z-4.971
N8445 X41.092 Y7.682 Z-4.977
N8450 X41.055 Y7.669 Z-4.984
N8455 X41.026 Y7.642 Z-4.99
N8460 X41.009 Y7.606 Z-4.996
N8465 X41.008 Y7.566 Z-5.003
N8470 X41.023 Y7.529 Z-5.009
N8475 X41.051 Y7.501 Z-5.016
N8480 X41.087 Y7.486 Z-5.022
N8485 X41.127 Z-5.028
N8490 X41.164 Y7.501 Z-5.035
N8495 X41.191 Y7.53 Z-5.041
N8500 X41.205 Y7.567 Z-5.047
N8505 X41.204 Y7.607 Z-5.054
N8510 X41.188 Y7.643 Z-5.06
N8515 X41.158 Y7.669 Z-5.066
N8520 X41.121 Y7.683 Z-5.073
N8525 X41.081 Y7.68 Z-5.079
N8530 X41.046 Y7.663 Z-5.085
N8535 X41.02 Y7.633 Z-5.092
N8540 X41.007 Y7.595 Z-5.098
N8545 X41.011 Y7.555 Z-5.105
N8550 X41.03 Y7.52 Z-5.111
N8555 X41.06 Y7.495 Z-5.117
N8560 X41.098 Y7.484 Z-5.124
N8565 X41.138 Y7.489 Z-5.13
N8570 X41.172 Y7.508 Z-5.136
N8575 X41.197 Y7.54 Z-5.143
N8580 X41.207 Y7.578 Z-5.149
N8585 X41.201 Y7.617 Z-5.155
N8590 X41.18 Y7.651 Z-5.162
N8595 X41.148 Y7.675 Z-5.168
N8600 X41.11 Y7.684 Z-5.175
N8605 X41.071 Y7.677 Z-5.181
N8610 X41.037 Y7.655 Z-5.187
N8615 X41.015 Y7.623 Z-5.194
N8620 X41.007 Y7.584 Z-5.2
N8625 G3 X41.207 I0.1
N8630 X41.007 I-0.1
N8635 G1 X41.014 Y7.559
N8640 X41.032 Y7.54
N8645 X41.057 Y7.534
N8650 X41.107 Y7.584
N8655 G0 Z2.3
N8660 X27 Y3
N8665 Z-1
N8670 G1 Z-2.7 F50
N8675 X26.95 Y3.05
N8680 X26.925 Y3.043
N8685 X26.907 Y3.025
N8690 X26.9 Y3
N8695 X26.908 Y2.961 Z-2.706 F800
N8700 X26.93 Y2.928 Z-2.713
N8705 X26.964 Y2.907 Z-2.719
N8710 X27.003 Y2.9 Z-2.725
N8715 X27.041 Y2.909 Z-2.732
N8720 X27.074 Y2.932 Z-2.738
N8725 X27.094 Y2.966 Z-2.745
N8730 X27.1 Y3.006 Z-2.751
N8735 X27.09 Y3.044 Z-2.757
N8740 X27.066 Y3.075 Z-2.764
N8745 X27.031 Y3.095 Z-2.77
N8750 X26.992 Y3.1 Z-2.776
N8755 X26.954 Y3.089 Z-2.783
N8760 X26.923 Y3.063 Z-2.789
N8765 X26.904 Y3.028 Z-2.795
N8770 X26.901 Y2.989 Z-2.802
N8775 X26.913 Y2.951 Z-2.808
N8780 X26.939 Y2.921 Z-2.815
N8785 X26.974 Y2.903 Z-2.821
N8790 X27.014 Y2.901 Z-2.827
N8795 X27.051 Y2.914 Z-2.834
N8800 X27.081 Y2.941 Z-2.84
N8805 X27.097 Y2.977 Z-2.846
N8810 X27.099 Y3.017 Z-2.853
N8815 X27.084 Y3.054 Z-2.859
N8820 X27.057 Y3.082 Z-2.865
N8825 X27.02 Y3.098 Z-2.872
N8830 X26.981 Z-2.878
N8835 X26.944 Y3.083 Z-2.884
N8840 X26.916 Y3.054 Z-2.891
N8845 X26.902 Y3.017 Z-2.897
N8850 Y2.978 Z-2.904
N8855 X26.919 Y2.942 Z-2.91
N8860 X26.948 Y2.915 Z-2.916
N8865 X26.985 Y2.901 Z-2.923
N8870 X27.025 Y2.903 Z-2.929
N8875 X27.061 Y2.92 Z-2.935
N8880 X27.087 Y2.95 Z-2.942
N8885 X27.099 Y2.988 Z-2.948
N8890 X27.096 Y3.028 Z-2.954
N8895 X27.078 Y3.063 Z-2.961
N8900 X27.047 Y3.088 Z-2.967
N8905 X27.009 Y3.1 Z-2.974
N8910 X26.97 Y3.095 Z-2.98
N8915 X26.935 Y3.076 Z-2.986
N8920 X26.911 Y3.045 Z-2.993
N8925 X26.9 Y3.006 Z-2.999
N8930 X26.906 Y2.967 Z-3.005
N8935 X26.926 Y2.933 Z-3.012
N8940 X26.958 Y2.909 Z-3.018
N8945 X26.996 Y2.9 Z-3.024
N8950 X27.036 Y2.907 Z-3.031
N8955 X27.069 Y2.928 Z-3.037
N8960 X27.092 Y2.96 Z-3.044
N8965 X27.1 Y2.999 Z-3.05
N8970 X27.092 Y3.038 Z-3.056
N8975 X27.07 Y3.071 Z-3.063
N8980 X27.037 Y3.093 Z-3.069
N8985 X26.998 Y3.1 Z-3.075
N8990 X26.959 Y3.091 Z-3.082
N8995 X26.927 Y3.068 Z-3.088
N9000 X26.906 Y3.034 Z-3.094
N9005 X26.9 Y2.995 Z-3.101
N9010 X26.91 Y2.957 Z-3.107
N9015 X26.934 Y2.925 Z-3.113
N9020 X26.968 Y2.905 Z-3.12
N9025 X27.008 Y2.9 Z-3.126
N9030 X27.046 Y2.911 Z-3.133
N9035 X27.077 Y2.936 Z-3.139
N9040 X27.096 Y2.971 Z-3.145
N9045 X27.099 Y3.01 Z-3.152
N9050 X27.088 Y3.048 Z-3.158
N9055 X27.062 Y3.079 Z-3.164
N9060 X27.026 Y3.096 Z-3.171
N9065 X26.987 Y3.099 Z-3.177
N9070 X26.949 Y3.086 Z-3.183
N9075 X26.92 Y3.06 Z-3.19
N9080 X26.903 Y3.024 Z-3.196
N9085 X26.901 Y2.984 Z-3.203
N9090 X26.915 Y2.947 Z-3.209
N9095 X26.943 Y2.918 Z-3.215
N9100 X26.979 Y2.902 Z-3.222
N9105 X27.019 Z-3.228
N9110 X27.055 Y2.917 Z-3.234
N9115 X27.083 Y2.945 Z-3.241
N9120 X27.098 Y2.982 Z-3.247
N9125 Y3.021 Z-3.253
N9130 X27.082 Y3.058 Z-3.26
N9135 X27.053 Y3.085 Z-3.266
N9140 X27.016 Y3.099 Z-3.273
N9145 X26.976 Y3.097 Z-3.279
N9150 X26.94 Y3.08 Z-3.285
N9155 X26.914 Y3.05 Z-3.292
N9160 X26.901 Y3.013 Z-3.298
N9165 X26.904 Y2.973 Z-3.304
N9170 X26.922 Y2.938 Z-3.311
N9175 X26.952 Y2.912 Z-3.317
N9180 X26.99 Y2.9 Z-3.323
N9185 X27.03 Y2.904 Z-3.33
N9190 X27.064 Y2.923 Z-3.336
N9195 X27.089 Y2.955 Z-3.342
N9200 X27.1 Y2.993 Z-3.349
N9205 X27.095 Y3.032 Z-3.355
N9210 X27.075 Y3.066 Z-3.362
N9215 X27.043 Y3.09 Z-3.368
N9220 X27.004 Y3.1 Z-3.374
N9225 X26.965 Y3.094 Z-3.381
N9230 X26.931 Y3.073 Z-3.387
N9235 X26.909 Y3.04 Z-3.393
N9240 X26.9 Y3.002 Z-3.4
N9245 X26.907 Y2.963 Z-3.406
N9250 X26.929 Y2.929 Z-3.412
N9255 X26.962 Y2.907 Z-3.419
N9260 X27.001 Y2.9 Z-3.425
N9265 X27.04 Y2.908 Z-3.432
N9270 X27.073 Y2.931 Z-3.438
N9275 X27.094 Y2.965 Z-3.444
N9280 X27.1 Y3.004 Z-3.451
N9285 X27.09 Y3.043 Z-3.457
N9290 X27.067 Y3.074 Z-3.463
N9295 X27.033 Y3.095 Z-3.47
N9300 X26.993 Y3.1 Z-3.476
N9305 X26.955 Y3.089 Z-3.482
N9310 X26.924 Y3.065 Z-3.489
N9315 X26.905 Y3.03 Z-3.495
N9320 X26.9 Y2.99 Z-3.502
N9325 X26.912 Y2.952 Z-3.508
N9330 X26.937 Y2.922 Z-3.514
N9335 X26.973 Y2.904 Z-3.521
N9340 X27.012 Y2.901 Z-3.527
N9345 X27.05 Y2.913 Z-3.533
N9350 X27.08 Y2.94 Z-3.54
N9355 X27.097 Y2.975 Z-3.546
N9360 X27.099 Y3.015 Z-3.552
N9365 X27.085 Y3.052 Z-3.559
N9370 X27.058 Y3.081 Z-3.565
N9375 X27.022 Y3.098 Z-3.572
N9380 X26.982 Z-3.578
N9385 X26.945 Y3.084 Z-3.584
N9390 X26.917 Y3.056 Z-3.591
N9395 X26.902 Y3.019 Z-3.597
N9400 Y2.979 Z-3.603
N9405 X26.918 Y2.943 Z-3.61
N9410 X26.947 Y2.915 Z-3.616
N9415 X26.984 Y2.901 Z-3.622
N9420 X27.023 Y2.903 Z-3.629
N9425 X27.059 Y2.92 Z-3.635
N9430 X27.086 Y2.949 Z-3.641
N9435 X27.099 Y2.986 Z-3.648
N9440 X27.097 Y3.026 Z-3.654
N9445 X27.079 Y3.062 Z-3.661
N9450 X27.049 Y3.087 Z-3.667
N9455 X27.011 Y3.099 Z-3.673
N9460 X26.971 Y3.096 Z-3.68
N9465 X26.936 Y3.077 Z-3.686
N9470 X26.911 Y3.046 Z-3.692
N9475 X26.9 Y3.008 Z-3.699
N9480 X26.905 Y2.969 Z-3.705
N9485 X26.925 Y2.934 Z-3.711
N9490 X26.956 Y2.91 Z-3.718
N9495 X26.995 Y2.9 Z-3.724
N9500 X27.034 Y2.906 Z-3.731
N9505 X27.068 Y2.927 Z-3.737
N9510 X27.091 Y2.959 Z-3.743
N9515 X27.1 Y2.998 Z-3.75
N9520 X27.093 Y3.037 Z-3.756
N9525 X27.071 Y3.07 Z-3.762
N9530 X27.039 Y3.092 Z-3.769
N9535 X27 Y3.1 Z-3.775
N9540 X26.961 Y3.092 Z-3.781
N9545 X26.928 Y3.069 Z-3.788
N9550 X26.907 Y3.036 Z-3.794
N9555 X26.9 Y2.997 Z-3.801
N9560 X26.909 Y2.958 Z-3.807
N9565 X26.933 Y2.926 Z-3.813
N9570 X26.967 Y2.906 Z-3.82
N9575 X27.006 Y2.9 Z-3.826
N9580 X27.044 Y2.91 Z-3.832
N9585 X27.076 Y2.935 Z-3.839
N9590 X27.095 Y2.969 Z-3.845
N9595 X27.1 Y3.009 Z-3.851
N9600 X27.088 Y3.047 Z-3.858
N9605 X27.063 Y3.078 Z-3.864
N9610 X27.028 Y3.096 Z-3.87
N9615 X26.988 Y3.099 Z-3.877
N9620 X26.951 Y3.087 Z-3.883
N9625 X26.921 Y3.061 Z-3.89
N9630 X26.903 Y3.025 Z-3.896
N9635 X26.901 Y2.986 Z-3.902
N9640 X26.914 Y2.948 Z-3.909
N9645 X26.941 Y2.919 Z-3.915
N9650 X26.977 Y2.903 Z-3.921
N9655 X27.017 Y2.901 Z-3.928
N9660 X27.054 Y2.916 Z-3.934
N9665 X27.083 Y2.944 Z-3.94
N9670 X27.098 Y2.98 Z-3.947
N9675 Y3.02 Z-3.953
N9680 X27.083 Y3.056 Z-3.96
N9685 X27.054 Y3.084 Z-3.966
N9690 X27.017 Y3.099 Z-3.972
N9695 X26.977 Y3.097 Z-3.979
N9700 X26.941 Y3.081 Z-3.985
N9705 X26.914 Y3.052 Z-3.991
N9710 X26.901 Y3.014 Z-3.998
N9715 X26.903 Y2.975 Z-4.004
N9720 X26.921 Y2.939 Z-4.01
N9725 X26.951 Y2.913 Z-4.017
N9730 X26.988 Y2.901 Z-4.023
N9735 X27.028 Y2.904 Z-4.03
N9740 X27.063 Y2.922 Z-4.036
N9745 X27.088 Y2.953 Z-4.042
N9750 X27.1 Y2.991 Z-4.049
N9755 X27.095 Y3.031 Z-4.055
N9760 X27.076 Y3.065 Z-4.061
N9765 X27.044 Y3.09 Z-4.068
N9770 X27.006 Y3.1 Z-4.074
N9775 X26.967 Y3.094 Z-4.08
N9780 X26.933 Y3.074 Z-4.087
N9785 X26.909 Y3.042 Z-4.093
N9790 X26.9 Y3.003 Z-4.099
N9795 X26.907 Y2.964 Z-4.106
N9800 X26.928 Y2.931 Z-4.112
N9805 X26.961 Y2.908 Z-4.119
N9810 X27 Y2.9 Z-4.125
N9815 X27.039 Y2.908 Z-4.131
N9820 X27.071 Y2.93 Z-4.138
N9825 X27.093 Y2.963 Z-4.144
N9830 X27.1 Y3.002 Z-4.15
N9835 X27.091 Y3.041 Z-4.157
N9840 X27.068 Y3.073 Z-4.163
N9845 X27.034 Y3.094 Z-4.169
N9850 X26.995 Y3.1 Z-4.176
N9855 X26.956 Y3.09 Z-4.182
N9860 X26.925 Y3.066 Z-4.189
N9865 X26.905 Y3.031 Z-4.195
N9870 X26.9 Y2.992 Z-4.201
N9875 X26.911 Y2.954 Z-4.208
N9880 X26.936 Y2.923 Z-4.214
N9885 X26.971 Y2.904 Z-4.22
N9890 X27.011 Y2.901 Z-4.227
N9895 X27.049 Y2.913 Z-4.233
N9900 X27.079 Y2.938 Z-4.239
N9905 X27.097 Y2.974 Z-4.246
N9910 X27.099 Y3.014 Z-4.252
N9915 X27.086 Y3.051 Z-4.259
N9920 X27.059 Y3.08 Z-4.265
N9925 X27.023 Y3.097 Z-4.271
N9930 X26.984 Y3.099 Z-4.278
N9935 X26.947 Y3.085 Z-4.284
N9940 X26.918 Y3.057 Z-4.29
N9945 X26.902 Y3.021 Z-4.297
N9950 Y2.981 Z-4.303
N9955 X26.917 Y2.944 Z-4.309
N9960 X26.945 Y2.916 Z-4.316
N9965 X26.982 Y2.902 Z-4.322
N9970 X27.022 Z-4.328
N9975 X27.058 Y2.919 Z-4.335
N9980 X27.085 Y2.948 Z-4.341
N9985 X27.099 Y2.985 Z-4.348
N9990 X27.097 Y3.025 Z-4.354
N9995 X27.08 Y3.06 Z-4.36
N10000 X27.05 Y3.087 Z-4.367
N10005 X27.012 Y3.099 Z-4.373
N10010 X26.973 Y3.096 Z-4.379
N10015 X26.937 Y3.078 Z-4.386
N10020 X26.912 Y3.048 Z-4.392
N10025 X26.9 Y3.01 Z-4.398
N10030 X26.905 Y2.97 Z-4.405
N10035 X26.924 Y2.935 Z-4.411
N10040 X26.955 Y2.911 Z-4.418
N10045 X26.993 Y2.9 Z-4.424
N10050 X27.033 Y2.905 Z-4.43
N10055 X27.067 Y2.926 Z-4.437
N10060 X27.09 Y2.957 Z-4.443
N10065 X27.1 Y2.996 Z-4.449
N10070 X27.094 Y3.035 Z-4.456
N10075 X27.073 Y3.069 Z-4.462
N10080 X27.04 Y3.092 Z-4.468
N10085 X27.001 Y3.1 Z-4.475
N10090 X26.962 Y3.093 Z-4.481
N10095 X26.929 Y3.071 Z-4.488
N10100 X26.907 Y3.037 Z-4.494
N10105 X26.9 Y2.998 Z-4.5
N10110 X26.909 Y2.96 Z-4.507
N10115 X26.931 Y2.927 Z-4.513
N10120 X26.965 Y2.906 Z-4.519
N10125 X27.004 Y2.9 Z-4.526
N10130 X27.043 Y2.91 Z-4.532
N10135 X27.075 Y2.934 Z-4.538
N10140 X27.095 Y2.968 Z-4.545
N10145 X27.1 Y3.007 Z-4.551
N10150 X27.089 Y3.045 Z-4.558
N10155 X27.064 Y3.077 Z-4.564
N10160 X27.03 Y3.096 Z-4.57
N10165 X26.99 Y3.1 Z-4.577
N10170 X26.952 Y3.088 Z-4.583
N10175 X26.922 Y3.062 Z-4.589
N10180 X26.904 Y3.027 Z-4.596
N10185 X26.901 Y2.987 Z-4.602
N10190 X26.914 Y2.95 Z-4.608
N10195 X26.94 Y2.92 Z-4.615
N10200 X26.976 Y2.903 Z-4.621
N10205 X27.016 Y2.901 Z-4.627
N10210 X27.053 Y2.915 Z-4.634
N10215 X27.082 Y2.942 Z-4.64
N10220 X27.098 Y2.979 Z-4.647
N10225 Y3.018 Z-4.653
N10230 X27.083 Y3.055 Z-4.659
N10235 X27.055 Y3.083 Z-4.666
N10240 X27.019 Y3.098 Z-4.672
N10245 X26.979 Z-4.678
N10250 X26.943 Y3.082 Z-4.685
N10255 X26.915 Y3.053 Z-4.691
N10260 X26.901 Y3.016 Z-4.697
N10265 X26.903 Y2.976 Z-4.704
N10270 X26.92 Y2.94 Z-4.71
N10275 X26.949 Y2.914 Z-4.717
N10280 X26.987 Y2.901 Z-4.723
N10285 X27.026 Y2.904 Z-4.729
N10290 X27.062 Y2.921 Z-4.736
N10295 X27.088 Y2.952 Z-4.742
N10300 X27.099 Y2.99 Z-4.748
N10305 X27.096 Y3.029 Z-4.755
N10310 X27.077 Y3.064 Z-4.761
N10315 X27.046 Y3.089 Z-4.767
N10320 X27.008 Y3.1 Z-4.774
N10325 X26.968 Y3.095 Z-4.78
N10330 X26.934 Y3.075 Z-4.787
N10335 X26.91 Y3.043 Z-4.793
N10340 X26.9 Y3.005 Z-4.799
N10345 X26.906 Y2.966 Z-4.806
N10350 X26.927 Y2.932 Z-4.812
N10355 X26.959 Y2.909 Z-4.818
N10360 X26.998 Y2.9 Z-4.825
N10365 X27.037 Y2.907 Z-4.831
N10370 X27.07 Y2.929 Z-4.837
N10375 X27.092 Y2.962 Z-4.844
N10380 X27.1 Y3.001 Z-4.85
N10385 X27.092 Y3.04 Z-4.856
N10390 X27.069 Y3.072 Z-4.863
N10395 X27.036 Y3.093 Z-4.869
N10400 X26.996 Y3.1 Z-4.876
N10405 X26.958 Y3.091 Z-4.882
N10410 X26.926 Y3.067 Z-4.888
N10415 X26.906 Y3.033 Z-4.895
N10420 X26.9 Y2.994 Z-4.901
N10425 X26.911 Y2.955 Z-4.907
N10430 X26.935 Y2.924 Z-4.914
N10435 X26.97 Y2.905 Z-4.92
N10440 X27.009 Y2.9 Z-4.926
N10445 X27.047 Y2.912 Z-4.933
N10450 X27.078 Y2.937 Z-4.939
N10455 X27.096 Y2.972 Z-4.946
N10460 X27.099 Y3.012 Z-4.952
N10465 X27.087 Y3.05 Z-4.958
N10470 X27.061 Y3.08 Z-4.965
N10475 X27.025 Y3.097 Z-4.971
N10480 X26.985 Y3.099 Z-4.977
N10485 X26.948 Y3.085 Z-4.984
N10490 X26.919 Y3.058 Z-4.99
N10495 X26.902 Y3.022 Z-4.996
N10500 Y2.983 Z-5.003
N10505 X26.916 Y2.946 Z-5.009
N10510 X26.944 Y2.917 Z-5.016
N10515 X26.981 Y2.902 Z-5.022
N10520 X27.02 Z-5.028
N10525 X27.057 Y2.918 Z-5.035
N10530 X27.084 Y2.946 Z-5.041
N10535 X27.099 Y2.983 Z-5.047
N10540 X27.097 Y3.023 Z-5.054
N10545 X27.081 Y3.059 Z-5.06
N10550 X27.051 Y3.086 Z-5.066
N10555 X27.014 Y3.099 Z-5.073
N10560 X26.974 Y3.097 Z-5.079
N10565 X26.939 Y3.079 Z-5.085
N10570 X26.913 Y3.049 Z-5.092
N10575 X26.901 Y3.011 Z-5.098
N10580 X26.904 Y2.972 Z-5.105
N10585 X26.923 Y2.937 Z-5.111
N10590 X26.954 Y2.911 Z-5.117
N10595 X26.992 Y2.9 Z-5.124
N10600 X27.031 Y2.905 Z-5.13
N10605 X27.066 Y2.925 Z-5.136
N10610 X27.09 Y2.956 Z-5.143
N10615 X27.1 Y2.994 Z-5.149
N10620 X27.094 Y3.034 Z-5.155
N10625 X27.074 Y3.068 Z-5.162
N10630 X27.041 Y3.091 Z-5.168
N10635 X27.003 Y3.1 Z-5.175
N10640 X26.964 Y3.093 Z-5.181
N10645 X26.93 Y3.072 Z-5.187
N10650 X26.908 Y3.039 Z-5.194
N10655 X26.9 Y3 Z-5.2
N10660 G3 X27.1 I0.1
N10665 X26.9 I-0.1
N10670 G1 X26.907 Y2.975
N10675 X26.925 Y2.957
N10680 X26.95 Y2.95
N10685 X27 Y3
N10690 G0 Z2.3
N10695 X12.893 Y7.584
N10700 Z-1
N10705 G1 Z-2.7 F50
N10710 X12.843 Y7.634
N10715 X12.818 Y7.627
N10720 X12.8 Y7.609
N10725 X12.793 Y7.584
N10730 X12.801 Y7.545 Z-2.706 F800
N10735 X12.823 Y7.512 Z-2.713
N10740 X12.857 Y7.49 Z-2.719
N10745 X12.896 Y7.484 Z-2.725
N10750 X12.935 Y7.493 Z-2.732
N10755 X12.967 Y7.516 Z-2.738
N10760 X12.987 Y7.55 Z-2.745
N10765 X12.993 Y7.589 Z-2.751
N10770 X12.983 Y7.628 Z-2.757
N10775 X12.959 Y7.659 Z-2.764
N10780 X12.924 Y7.679 Z-2.77
N10785 X12.885 Y7.683 Z-2.776
N10790 X12.847 Y7.672 Z-2.783
N10795 X12.816 Y7.647 Z-2.789
N10800 X12.797 Y7.612 Z-2.795
N10805 X12.794 Y7.572 Z-2.802
N10810 X12.806 Y7.535 Z-2.808
N10815 X12.832 Y7.505 Z-2.815
N10820 X12.867 Y7.487 Z-2.821
N10825 X12.907 Y7.485 Z-2.827
N10830 X12.945 Y7.498 Z-2.834
N10835 X12.974 Y7.525 Z-2.84
N10840 X12.99 Y7.561 Z-2.846
N10845 X12.992 Y7.6 Z-2.853
N10850 X12.977 Y7.637 Z-2.859
N10855 X12.95 Y7.666 Z-2.865
N10860 X12.913 Y7.682 Z-2.872
N10865 X12.874 Z-2.878
N10870 X12.837 Y7.666 Z-2.884
N10875 X12.809 Y7.638 Z-2.891
N10880 X12.795 Y7.601 Z-2.897
N10885 X12.796 Y7.561 Z-2.904
N10890 X12.812 Y7.525 Z-2.91
N10895 X12.841 Y7.498 Z-2.916
N10900 X12.878 Y7.485 Z-2.923
N10905 X12.918 Y7.487 Z-2.929
N10910 X12.954 Y7.504 Z-2.935
N10915 X12.98 Y7.534 Z-2.942
N10920 X12.992 Y7.572 Z-2.948
N10925 X12.989 Y7.611 Z-2.954
N10930 X12.971 Y7.646 Z-2.961
N10935 X12.94 Y7.672 Z-2.967
N10940 X12.902 Y7.683 Z-2.974
N10945 X12.863 Y7.679 Z-2.98
N10950 X12.828 Y7.66 Z-2.986
N10955 X12.804 Y7.628 Z-2.993
N10960 X12.793 Y7.59 Z-2.999
N10965 X12.799 Y7.551 Z-3.005
N10970 X12.819 Y7.517 Z-3.012
N10975 X12.851 Y7.493 Z-3.018
N10980 X12.89 Y7.484 Z-3.024
N10985 X12.929 Y7.49 Z-3.031
N10990 X12.962 Y7.511 Z-3.037
N10995 X12.985 Y7.544 Z-3.044
N11000 X12.993 Y7.583 Z-3.05
N11005 X12.986 Y7.622 Z-3.056
N11010 X12.963 Y7.655 Z-3.063
N11015 X12.93 Y7.676 Z-3.069
N11020 X12.891 Y7.684 Z-3.075
N11025 X12.852 Y7.675 Z-3.082
N11030 X12.82 Y7.652 Z-3.088
N11035 X12.799 Y7.618 Z-3.094
N11040 X12.793 Y7.579 Z-3.101
N11045 X12.803 Y7.54 Z-3.107
N11050 X12.827 Y7.509 Z-3.113
N11055 X12.861 Y7.489 Z-3.12
N11060 X12.901 Y7.484 Z-3.126
N11065 X12.939 Y7.495 Z-3.133
N11070 X12.97 Y7.52 Z-3.139
N11075 X12.989 Y7.554 Z-3.145
N11080 X12.993 Y7.594 Z-3.152
N11085 X12.981 Y7.632 Z-3.158
N11090 X12.955 Y7.662 Z-3.164
N11095 X12.92 Y7.68 Z-3.171
N11100 X12.88 Y7.683 Z-3.177
N11105 X12.842 Y7.67 Z-3.183
N11110 X12.813 Y7.643 Z-3.19
N11115 X12.796 Y7.607 Z-3.196
N11120 X12.794 Y7.568 Z-3.203
N11125 X12.808 Y7.531 Z-3.209
N11130 X12.836 Y7.502 Z-3.215
N11135 X12.872 Y7.486 Z-3.222
N11140 X12.912 Y7.485 Z-3.228
N11145 X12.949 Y7.5 Z-3.234
N11150 X12.977 Y7.528 Z-3.241
N11155 X12.991 Y7.565 Z-3.247
N11160 Y7.605 Z-3.253
N11165 X12.975 Y7.641 Z-3.26
N11170 X12.946 Y7.669 Z-3.266
N11175 X12.909 Y7.682 Z-3.273
N11180 X12.869 Y7.681 Z-3.279
N11185 X12.833 Y7.664 Z-3.285
N11190 X12.807 Y7.634 Z-3.292
N11195 X12.794 Y7.596 Z-3.298
N11200 X12.797 Y7.557 Z-3.304
N11205 X12.815 Y7.521 Z-3.311
N11210 X12.845 Y7.496 Z-3.317
N11215 X12.883 Y7.484 Z-3.323
N11220 X12.923 Y7.488 Z-3.33
N11225 X12.958 Y7.507 Z-3.336
N11230 X12.982 Y7.538 Z-3.342
N11235 X12.993 Y7.576 Z-3.349
N11240 X12.988 Y7.616 Z-3.355
N11245 X12.968 Y7.65 Z-3.362
N11250 X12.936 Y7.674 Z-3.368
N11255 X12.898 Y7.683 Z-3.374
N11260 X12.858 Y7.677 Z-3.381
N11265 X12.825 Y7.656 Z-3.387
N11270 X12.802 Y7.624 Z-3.393
N11275 X12.793 Y7.585 Z-3.4
N11280 X12.8 Y7.546 Z-3.406
N11285 X12.822 Y7.513 Z-3.412
N11290 X12.855 Y7.491 Z-3.419
N11295 X12.894 Y7.484 Z-3.425
N11300 X12.933 Y7.492 Z-3.432
N11305 X12.966 Y7.515 Z-3.438
N11310 X12.987 Y7.548 Z-3.444
N11315 X12.993 Y7.588 Z-3.451
N11320 X12.984 Y7.626 Z-3.457
N11325 X12.96 Y7.658 Z-3.463
N11330 X12.926 Y7.678 Z-3.47
N11335 X12.886 Y7.683 Z-3.476
N11340 X12.848 Y7.673 Z-3.482
N11345 X12.817 Y7.648 Z-3.489
N11350 X12.798 Y7.614 Z-3.495
N11355 X12.794 Y7.574 Z-3.502
N11360 X12.805 Y7.536 Z-3.508
N11365 X12.831 Y7.506 Z-3.514
N11370 X12.866 Y7.487 Z-3.521
N11375 X12.906 Y7.484 Z-3.527
N11380 X12.943 Y7.497 Z-3.533
N11385 X12.973 Y7.523 Z-3.54
N11390 X12.99 Y7.559 Z-3.546
N11395 X12.992 Y7.599 Z-3.552
N11400 X12.978 Y7.636 Z-3.559
N11405 X12.951 Y7.665 Z-3.565
N11410 X12.915 Y7.681 Z-3.572
N11415 X12.875 Y7.682 Z-3.578
N11420 X12.838 Y7.667 Z-3.584
N11425 X12.81 Y7.639 Z-3.591
N11430 X12.795 Y7.603 Z-3.597
N11435 Y7.563 Z-3.603
N11440 X12.811 Y7.527 Z-3.61
N11445 X12.84 Y7.499 Z-3.616
N11450 X12.877 Y7.485 Z-3.622
N11455 X12.917 Y7.486 Z-3.629
N11460 X12.953 Y7.503 Z-3.635
N11465 X12.979 Y7.533 Z-3.641
N11470 X12.992 Y7.57 Z-3.648
N11475 X12.99 Y7.61 Z-3.654
N11480 X12.972 Y7.645 Z-3.661
N11485 X12.942 Y7.671 Z-3.667
N11490 X12.904 Y7.683 Z-3.673
N11495 X12.864 Y7.679 Z-3.68
N11500 X12.829 Y7.661 Z-3.686
N11505 X12.804 Y7.63 Z-3.692
N11510 X12.793 Y7.592 Z-3.699
N11515 X12.798 Y7.552 Z-3.705
N11520 X12.818 Y7.518 Z-3.711
N11525 X12.85 Y7.494 Z-3.718
N11530 X12.888 Y7.484 Z-3.724
N11535 X12.927 Y7.49 Z-3.731
N11540 X12.961 Y7.51 Z-3.737
N11545 X12.984 Y7.542 Z-3.743
N11550 X12.993 Y7.581 Z-3.75
N11555 X12.986 Y7.62 Z-3.756
N11560 X12.965 Y7.654 Z-3.762
N11565 X12.932 Y7.676 Z-3.769
N11570 X12.893 Y7.684 Z-3.775
N11575 X12.854 Y7.676 Z-3.781
N11580 X12.821 Y7.653 Z-3.788
N11585 X12.8 Y7.62 Z-3.794
N11590 X12.793 Y7.58 Z-3.801
N11595 X12.802 Y7.542 Z-3.807
N11600 X12.826 Y7.51 Z-3.813
N11605 X12.86 Y7.489 Z-3.82
N11610 X12.899 Y7.484 Z-3.826
N11615 X12.938 Y7.494 Z-3.832
N11620 X12.969 Y7.518 Z-3.839
N11625 X12.988 Y7.553 Z-3.845
N11630 X12.993 Y7.592 Z-3.851
N11635 X12.981 Y7.63 Z-3.858
N11640 X12.956 Y7.661 Z-3.864
N11645 X12.921 Y7.68 Z-3.87
N11650 X12.882 Y7.683 Z-3.877
N11655 X12.844 Y7.671 Z-3.883
N11660 X12.814 Y7.645 Z-3.89
N11665 X12.796 Y7.609 Z-3.896
N11670 X12.794 Y7.569 Z-3.902
N11675 X12.808 Y7.532 Z-3.909
N11680 X12.834 Y7.503 Z-3.915
N11685 X12.871 Y7.486 Z-3.921
N11690 X12.91 Y7.485 Z-3.928
N11695 X12.947 Y7.499 Z-3.934
N11700 X12.976 Y7.527 Z-3.94
N11705 X12.991 Y7.564 Z-3.947
N11710 Y7.603 Z-3.953
N11715 X12.976 Y7.64 Z-3.96
N11720 X12.947 Y7.668 Z-3.966
N11725 X12.91 Y7.682 Z-3.972
N11730 X12.871 Y7.681 Z-3.979
N11735 X12.834 Y7.665 Z-3.985
N11740 X12.808 Y7.635 Z-3.991
N11745 X12.794 Y7.598 Z-3.998
N11750 X12.796 Y7.558 Z-4.004
N11755 X12.814 Y7.523 Z-4.01
N11760 X12.844 Y7.497 Z-4.017
N11765 X12.882 Y7.484 Z-4.023
N11770 X12.921 Y7.488 Z-4.03
N11775 X12.956 Y7.506 Z-4.036
N11780 X12.981 Y7.537 Z-4.042
N11785 X12.993 Y7.575 Z-4.049
N11790 X12.988 Y7.614 Z-4.055
N11795 X12.969 Y7.649 Z-4.061
N11800 X12.938 Y7.673 Z-4.068
N11805 X12.899 Y7.683 Z-4.074
N11810 X12.86 Y7.678 Z-4.08
N11815 X12.826 Y7.657 Z-4.087
N11820 X12.802 Y7.625 Z-4.093
N11825 X12.793 Y7.587 Z-4.099
N11830 X12.8 Y7.548 Z-4.106
N11835 X12.821 Y7.514 Z-4.112
N11840 X12.854 Y7.492 Z-4.119
N11845 X12.893 Y7.484 Z-4.125
N11850 X12.932 Y7.491 Z-4.131
N11855 X12.965 Y7.514 Z-4.138
N11860 X12.986 Y7.547 Z-4.144
N11865 X12.993 Y7.586 Z-4.15
N11870 X12.984 Y7.625 Z-4.157
N11875 X12.961 Y7.657 Z-4.163
N11880 X12.927 Y7.678 Z-4.169
N11885 X12.888 Y7.683 Z-4.176
N11890 X12.85 Y7.674 Z-4.182
N11895 X12.818 Y7.649 Z-4.189
N11900 X12.798 Y7.615 Z-4.195
N11905 X12.793 Y7.576 Z-4.201
N11910 X12.804 Y7.537 Z-4.208
N11915 X12.829 Y7.507 Z-4.214
N11920 X12.864 Y7.488 Z-4.22
N11925 X12.904 Y7.484 Z-4.227
N11930 X12.942 Y7.496 Z-4.233
N11935 X12.972 Y7.522 Z-4.239
N11940 X12.99 Y7.558 Z-4.246
N11945 X12.992 Y7.597 Z-4.252
N11950 X12.979 Y7.635 Z-4.259
N11955 X12.953 Y7.664 Z-4.265
N11960 X12.917 Y7.681 Z-4.271
N11965 X12.877 Y7.682 Z-4.278
N11970 X12.84 Y7.668 Z-4.284
N11975 X12.811 Y7.641 Z-4.29
N11980 X12.795 Y7.604 Z-4.297
N11985 Y7.565 Z-4.303
N11990 X12.81 Y7.528 Z-4.309
N11995 X12.838 Y7.5 Z-4.316
N12000 X12.875 Y7.485 Z-4.322
N12005 X12.915 Y7.486 Z-4.328
N12010 X12.951 Y7.502 Z-4.335
N12015 X12.978 Y7.531 Z-4.341
N12020 X12.992 Y7.568 Z-4.348
N12025 X12.99 Y7.608 Z-4.354
N12030 X12.973 Y7.644 Z-4.36
N12035 X12.943 Y7.67 Z-4.367
N12040 X12.906 Y7.683 Z-4.373
N12045 X12.866 Y7.68 Z-4.379
N12050 X12.831 Y7.662 Z-4.386
N12055 X12.805 Y7.631 Z-4.392
N12060 X12.794 Y7.593 Z-4.398
N12065 X12.798 Y7.554 Z-4.405
N12070 X12.817 Y7.519 Z-4.411
N12075 X12.848 Y7.494 Z-4.418
N12080 X12.886 Y7.484 Z-4.424
N12085 X12.926 Y7.489 Z-4.43
N12090 X12.96 Y7.509 Z-4.437
N12095 X12.984 Y7.541 Z-4.443
N12100 X12.993 Y7.58 Z-4.449
N12105 X12.987 Y7.619 Z-4.456
N12110 X12.966 Y7.652 Z-4.462
N12115 X12.933 Y7.675 Z-4.468
N12120 X12.894 Y7.684 Z-4.475
N12125 X12.855 Y7.676 Z-4.481
N12130 X12.822 Y7.654 Z-4.488
N12135 X12.8 Y7.621 Z-4.494
N12140 X12.793 Y7.582 Z-4.5
N12145 X12.802 Y7.543 Z-4.507
N12150 X12.825 Y7.511 Z-4.513
N12155 X12.858 Y7.49 Z-4.519
N12160 X12.898 Y7.484 Z-4.526
N12165 X12.936 Y7.493 Z-4.532
N12170 X12.968 Y7.517 Z-4.538
N12175 X12.988 Y7.551 Z-4.545
N12180 X12.993 Y7.591 Z-4.551
N12185 X12.982 Y7.629 Z-4.558
N12190 X12.958 Y7.66 Z-4.564
N12195 X12.923 Y7.679 Z-4.57
N12200 X12.883 Y7.683 Z-4.577
N12205 X12.845 Y7.671 Z-4.583
N12210 X12.815 Y7.646 Z-4.589
N12215 X12.797 Y7.61 Z-4.596
N12220 X12.794 Y7.571 Z-4.602
N12225 X12.807 Y7.533 Z-4.608
N12230 X12.833 Y7.504 Z-4.615
N12235 X12.869 Y7.487 Z-4.621
N12240 X12.909 Y7.485 Z-4.627
N12245 X12.946 Y7.499 Z-4.634
N12250 X12.975 Y7.526 Z-4.64
N12255 X12.991 Y7.562 Z-4.647
N12260 Y7.602 Z-4.653
N12265 X12.977 Y7.639 Z-4.659
N12270 X12.949 Y7.667 Z-4.666
N12275 X12.912 Y7.682 Z-4.672
N12280 X12.872 Y7.681 Z-4.678
N12285 X12.836 Y7.665 Z-4.685
N12290 X12.808 Y7.637 Z-4.691
N12295 X12.794 Y7.6 Z-4.697
N12300 X12.796 Y7.56 Z-4.704
N12305 X12.813 Y7.524 Z-4.71
N12310 X12.842 Y7.497 Z-4.717
N12315 X12.88 Y7.484 Z-4.723
N12320 X12.92 Y7.487 Z-4.729
N12325 X12.955 Y7.505 Z-4.736
N12330 X12.981 Y7.535 Z-4.742
N12335 X12.993 Y7.573 Z-4.748
N12340 X12.989 Y7.613 Z-4.755
N12345 X12.97 Y7.648 Z-4.761
N12350 X12.939 Y7.672 Z-4.767
N12355 X12.901 Y7.683 Z-4.774
N12360 X12.861 Y7.678 Z-4.78
N12365 X12.827 Y7.659 Z-4.787
N12370 X12.803 Y7.627 Z-4.793
N12375 X12.793 Y7.588 Z-4.799
N12380 X12.799 Y7.549 Z-4.806
N12385 X12.82 Y7.515 Z-4.812
N12390 X12.852 Y7.492 Z-4.818
N12395 X12.891 Y7.484 Z-4.825
N12400 X12.93 Y7.491 Z-4.831
N12405 X12.963 Y7.512 Z-4.837
N12410 X12.986 Y7.545 Z-4.844
N12415 X12.993 Y7.584 Z-4.85
N12420 X12.985 Y7.623 Z-4.856
N12425 X12.962 Y7.656 Z-4.863
N12430 X12.929 Y7.677 Z-4.869
N12435 X12.89 Y7.684 Z-4.876
N12440 X12.851 Y7.674 Z-4.882
N12445 X12.819 Y7.651 Z-4.888
N12450 X12.799 Y7.617 Z-4.895
N12455 X12.793 Y7.577 Z-4.901
N12460 X12.804 Y7.539 Z-4.907
N12465 X12.828 Y7.508 Z-4.914
N12470 X12.863 Y7.488 Z-4.92
N12475 X12.902 Y7.484 Z-4.926
N12480 X12.94 Y7.495 Z-4.933
N12485 X12.971 Y7.521 Z-4.939
N12490 X12.989 Y7.556 Z-4.946
N12495 X12.992 Y7.596 Z-4.952
N12500 X12.98 Y7.633 Z-4.958
N12505 X12.954 Y7.663 Z-4.965
N12510 X12.918 Y7.68 Z-4.971
N12515 X12.878 Y7.683 Z-4.977
N12520 X12.841 Y7.669 Z-4.984
N12525 X12.812 Y7.642 Z-4.99
N12530 X12.796 Y7.606 Z-4.996
N12535 X12.795 Y7.566 Z-5.003
N12540 X12.809 Y7.529 Z-5.009
N12545 X12.837 Y7.501 Z-5.016
N12550 X12.874 Y7.486 Z-5.022
N12555 X12.913 Z-5.028
N12560 X12.95 Y7.501 Z-5.035
N12565 X12.977 Y7.53 Z-5.041
N12570 X12.992 Y7.567 Z-5.047
N12575 X12.99 Y7.607 Z-5.054
N12580 X12.974 Y7.643 Z-5.06
N12585 X12.945 Y7.669 Z-5.066
N12590 X12.907 Y7.683 Z-5.073
N12595 X12.867 Y7.68 Z-5.079
N12600 X12.832 Y7.663 Z-5.085
N12605 X12.806 Y7.633 Z-5.092
N12610 X12.794 Y7.595 Z-5.098
N12615 X12.797 Y7.555 Z-5.105
N12620 X12.816 Y7.52 Z-5.111
N12625 X12.847 Y7.495 Z-5.117
N12630 X12.885 Y7.484 Z-5.124
N12635 X12.924 Y7.489 Z-5.13
N12640 X12.959 Y7.508 Z-5.136
N12645 X12.983 Y7.54 Z-5.143
N12650 X12.993 Y7.578 Z-5.149
N12655 X12.987 Y7.617 Z-5.155
N12660 X12.967 Y7.651 Z-5.162
N12665 X12.935 Y7.675 Z-5.168
N12670 X12.896 Y7.684 Z-5.175
N12675 X12.857 Y7.677 Z-5.181
N12680 X12.823 Y7.655 Z-5.187
N12685 X12.801 Y7.623 Z-5.194
N12690 X12.793 Y7.584 Z-5.2
N12695 G3 X12.993 I0.1
N12700 X12.793 I-0.1
N12705 G1 X12.8 Y7.559
N12710 X12.818 Y7.54
N12715 X12.843 Y7.534
N12720 X12.893 Y7.584
N12725 G0 Z2.3
N12730 X4.175 Y19.584
N12735 Z-1
N12740 G1 Z-2.7 F50
N12745 X4.125 Y19.634
N12750 X4.1 Y19.627
N12755 X4.081 Y19.609
N12760 X4.075 Y19.584
N12765 X4.083 Y19.545 Z-2.706 F800
N12770 X4.105 Y19.512 Z-2.713
N12775 X4.138 Y19.49 Z-2.719
N12780 X4.177 Y19.484 Z-2.725
N12785 X4.216 Y19.493 Z-2.732
N12790 X4.248 Y19.516 Z-2.738
N12795 X4.269 Y19.55 Z-2.745
N12800 X4.274 Y19.589 Z-2.751
N12805 X4.264 Y19.628 Z-2.757
N12810 X4.24 Y19.659 Z-2.764
N12815 X4.206 Y19.679 Z-2.77
N12820 X4.166 Y19.683 Z-2.776
N12825 X4.128 Y19.672 Z-2.783
N12830 X4.097 Y19.647 Z-2.789
N12835 X4.079 Y19.612 Z-2.795
N12840 X4.075 Y19.572 Z-2.802
N12845 X4.087 Y19.535 Z-2.808
N12850 X4.113 Y19.505 Z-2.815
N12855 X4.149 Y19.487 Z-2.821
N12860 X4.189 Y19.485 Z-2.827
N12865 X4.226 Y19.498 Z-2.834
N12870 X4.255 Y19.525 Z-2.84
N12875 X4.272 Y19.561 Z-2.846
N12880 X4.273 Y19.6 Z-2.853
N12885 X4.259 Y19.637 Z-2.859
N12890 X4.231 Y19.666 Z-2.865
N12895 X4.195 Y19.682 Z-2.872
N12900 X4.155 Z-2.878
N12905 X4.119 Y19.666 Z-2.884
N12910 X4.091 Y19.638 Z-2.891
N12915 X4.076 Y19.601 Z-2.897
N12920 X4.077 Y19.561 Z-2.904
N12925 X4.093 Y19.525 Z-2.91
N12930 X4.123 Y19.498 Z-2.916
N12935 X4.16 Y19.485 Z-2.923
N12940 X4.2 Y19.487 Z-2.929
N12945 X4.235 Y19.504 Z-2.935
N12950 X4.261 Y19.534 Z-2.942
N12955 X4.274 Y19.572 Z-2.948
N12960 X4.271 Y19.611 Z-2.954
N12965 X4.252 Y19.646 Z-2.961
N12970 X4.222 Y19.672 Z-2.967
N12975 X4.184 Y19.683 Z-2.974
N12980 X4.144 Y19.679 Z-2.98
N12985 X4.11 Y19.66 Z-2.986
N12990 X4.085 Y19.628 Z-2.993
N12995 X4.075 Y19.59 Z-2.999
N13000 X4.08 Y19.551 Z-3.005
N13005 X4.1 Y19.517 Z-3.012
N13010 X4.132 Y19.493 Z-3.018
N13015 X4.171 Y19.484 Z-3.024
N13020 X4.21 Y19.49 Z-3.031
N13025 X4.244 Y19.511 Z-3.037
N13030 X4.266 Y19.544 Z-3.044
N13035 X4.275 Y19.583 Z-3.05
N13040 X4.267 Y19.622 Z-3.056
N13045 X4.245 Y19.655 Z-3.063
N13050 X4.212 Y19.676 Z-3.069
N13055 X4.173 Y19.684 Z-3.075
N13060 X4.134 Y19.675 Z-3.082
N13065 X4.102 Y19.652 Z-3.088
N13070 X4.081 Y19.618 Z-3.094
N13075 X4.075 Y19.579 Z-3.101
N13080 X4.084 Y19.54 Z-3.107
N13085 X4.108 Y19.509 Z-3.113
N13090 X4.143 Y19.489 Z-3.12
N13095 X4.182 Y19.484 Z-3.126
N13100 X4.22 Y19.495 Z-3.133
N13105 X4.251 Y19.52 Z-3.139
N13110 X4.27 Y19.554 Z-3.145
N13115 X4.274 Y19.594 Z-3.152
N13120 X4.262 Y19.632 Z-3.158
N13125 X4.237 Y19.662 Z-3.164
N13130 X4.201 Y19.68 Z-3.171
N13135 X4.161 Y19.683 Z-3.177
N13140 X4.124 Y19.67 Z-3.183
N13145 X4.094 Y19.643 Z-3.19
N13150 X4.078 Y19.607 Z-3.196
N13155 X4.076 Y19.568 Z-3.203
N13160 X4.09 Y19.531 Z-3.209
N13165 X4.117 Y19.502 Z-3.215
N13170 X4.154 Y19.486 Z-3.222
N13175 X4.193 Y19.485 Z-3.228
N13180 X4.23 Y19.5 Z-3.234
N13185 X4.258 Y19.528 Z-3.241
N13190 X4.273 Y19.565 Z-3.247
N13195 X4.272 Y19.605 Z-3.253
N13200 X4.256 Y19.641 Z-3.26
N13205 X4.227 Y19.669 Z-3.266
N13210 X4.19 Y19.682 Z-3.273
N13215 X4.151 Y19.681 Z-3.279
N13220 X4.115 Y19.664 Z-3.285
N13225 X4.088 Y19.634 Z-3.292
N13230 X4.075 Y19.596 Z-3.298
N13235 X4.078 Y19.557 Z-3.304
N13240 X4.096 Y19.521 Z-3.311
N13245 X4.127 Y19.496 Z-3.317
N13250 X4.165 Y19.484 Z-3.323
N13255 X4.204 Y19.488 Z-3.33
N13260 X4.239 Y19.507 Z-3.336
N13265 X4.264 Y19.538 Z-3.342
N13270 X4.274 Y19.576 Z-3.349
N13275 X4.269 Y19.616 Z-3.355
N13280 X4.249 Y19.65 Z-3.362
N13285 X4.218 Y19.674 Z-3.368
N13290 X4.179 Y19.683 Z-3.374
N13295 X4.14 Y19.677 Z-3.381
N13300 X4.106 Y19.656 Z-3.387
N13305 X4.083 Y19.624 Z-3.393
N13310 X4.075 Y19.585 Z-3.4
N13315 X4.082 Y19.546 Z-3.406
N13320 X4.104 Y19.513 Z-3.412
N13325 X4.137 Y19.491 Z-3.419
N13330 X4.176 Y19.484 Z-3.425
N13335 X4.215 Y19.492 Z-3.432
N13340 X4.247 Y19.515 Z-3.438
N13345 X4.268 Y19.548 Z-3.444
N13350 X4.275 Y19.588 Z-3.451
N13355 X4.265 Y19.626 Z-3.457
N13360 X4.241 Y19.658 Z-3.463
N13365 X4.207 Y19.678 Z-3.47
N13370 X4.168 Y19.683 Z-3.476
N13375 X4.13 Y19.673 Z-3.482
N13380 X4.098 Y19.648 Z-3.489
N13385 X4.079 Y19.614 Z-3.495
N13390 X4.075 Y19.574 Z-3.502
N13395 X4.087 Y19.536 Z-3.508
N13400 X4.112 Y19.506 Z-3.514
N13405 X4.147 Y19.487 Z-3.521
N13410 X4.187 Y19.484 Z-3.527
N13415 X4.225 Y19.497 Z-3.533
N13420 X4.254 Y19.523 Z-3.54
N13425 X4.272 Y19.559 Z-3.546
N13430 X4.273 Y19.599 Z-3.552
N13435 X4.26 Y19.636 Z-3.559
N13440 X4.233 Y19.665 Z-3.565
N13445 X4.196 Y19.681 Z-3.572
N13450 X4.157 Y19.682 Z-3.578
N13455 X4.12 Y19.667 Z-3.584
N13460 X4.092 Y19.639 Z-3.591
N13465 X4.076 Y19.603 Z-3.597
N13470 X4.077 Y19.563 Z-3.603
N13475 X4.093 Y19.527 Z-3.61
N13480 X4.121 Y19.499 Z-3.616
N13485 X4.158 Y19.485 Z-3.622
N13490 X4.198 Y19.486 Z-3.629
N13495 X4.234 Y19.503 Z-3.635
N13500 X4.261 Y19.533 Z-3.641
N13505 X4.274 Y19.57 Z-3.648
N13510 X4.271 Y19.61 Z-3.654
N13515 X4.253 Y19.645 Z-3.661
N13520 X4.223 Y19.671 Z-3.667
N13525 X4.185 Y19.683 Z-3.673
N13530 X4.146 Y19.679 Z-3.68
N13535 X4.111 Y19.661 Z-3.686
N13540 X4.086 Y19.63 Z-3.692
N13545 X4.075 Y19.592 Z-3.699
N13550 X4.08 Y19.552 Z-3.705
N13555 X4.099 Y19.518 Z-3.711
N13560 X4.131 Y19.494 Z-3.718
N13565 X4.169 Y19.484 Z-3.724
N13570 X4.209 Y19.49 Z-3.731
N13575 X4.243 Y19.51 Z-3.737
N13580 X4.266 Y19.542 Z-3.743
N13585 X4.275 Y19.581 Z-3.75
N13590 X4.268 Y19.62 Z-3.756
N13595 X4.246 Y19.654 Z-3.762
N13600 X4.213 Y19.676 Z-3.769
N13605 X4.174 Y19.684 Z-3.775
N13610 X4.135 Y19.676 Z-3.781
N13615 X4.103 Y19.653 Z-3.788
N13620 X4.081 Y19.62 Z-3.794
N13625 X4.075 Y19.58 Z-3.801
N13630 X4.084 Y19.542 Z-3.807
N13635 X4.107 Y19.51 Z-3.813
N13640 X4.141 Y19.489 Z-3.82
N13645 X4.181 Y19.484 Z-3.826
N13650 X4.219 Y19.494 Z-3.832
N13655 X4.25 Y19.518 Z-3.839
N13660 X4.27 Y19.553 Z-3.845
N13665 X4.274 Y19.592 Z-3.851
N13670 X4.263 Y19.63 Z-3.858
N13675 X4.238 Y19.661 Z-3.864
N13680 X4.203 Y19.68 Z-3.87
N13685 X4.163 Y19.683 Z-3.877
N13690 X4.125 Y19.671 Z-3.883
N13695 X4.095 Y19.645 Z-3.89
N13700 X4.078 Y19.609 Z-3.896
N13705 X4.076 Y19.569 Z-3.902
N13710 X4.089 Y19.532 Z-3.909
N13715 X4.116 Y19.503 Z-3.915
N13720 X4.152 Y19.486 Z-3.921
N13725 X4.192 Y19.485 Z-3.928
N13730 X4.229 Y19.499 Z-3.934
N13735 X4.257 Y19.527 Z-3.94
N13740 X4.273 Y19.564 Z-3.947
N13745 Y19.603 Z-3.953
N13750 X4.257 Y19.64 Z-3.96
N13755 X4.229 Y19.668 Z-3.966
N13760 X4.192 Y19.682 Z-3.972
N13765 X4.152 Y19.681 Z-3.979
N13770 X4.116 Y19.665 Z-3.985
N13775 X4.089 Y19.635 Z-3.991
N13780 X4.076 Y19.598 Z-3.998
N13785 X4.078 Y19.558 Z-4.004
N13790 X4.095 Y19.523 Z-4.01
N13795 X4.125 Y19.497 Z-4.017
N13800 X4.163 Y19.484 Z-4.023
N13805 X4.203 Y19.488 Z-4.03
N13810 X4.238 Y19.506 Z-4.036
N13815 X4.263 Y19.537 Z-4.042
N13820 X4.274 Y19.575 Z-4.049
N13825 X4.27 Y19.614 Z-4.055
N13830 X4.25 Y19.649 Z-4.061
N13835 X4.219 Y19.673 Z-4.068
N13840 X4.181 Y19.683 Z-4.074
N13845 X4.141 Y19.678 Z-4.08
N13850 X4.107 Y19.657 Z-4.087
N13855 X4.084 Y19.625 Z-4.093
N13860 X4.075 Y19.587 Z-4.099
N13865 X4.081 Y19.548 Z-4.106
N13870 X4.103 Y19.514 Z-4.112
N13875 X4.135 Y19.492 Z-4.119
N13880 X4.174 Y19.484 Z-4.125
N13885 X4.213 Y19.491 Z-4.131
N13890 X4.246 Y19.514 Z-4.138
N13895 X4.268 Y19.547 Z-4.144
N13900 X4.275 Y19.586 Z-4.15
N13905 X4.266 Y19.625 Z-4.157
N13910 X4.243 Y19.657 Z-4.163
N13915 X4.209 Y19.678 Z-4.169
N13920 X4.169 Y19.683 Z-4.176
N13925 X4.131 Y19.674 Z-4.182
N13930 X4.099 Y19.649 Z-4.189
N13935 X4.08 Y19.615 Z-4.195
N13940 X4.075 Y19.576 Z-4.201
N13945 X4.086 Y19.537 Z-4.208
N13950 X4.111 Y19.507 Z-4.214
N13955 X4.146 Y19.488 Z-4.22
N13960 X4.185 Y19.484 Z-4.227
N13965 X4.223 Y19.496 Z-4.233
N13970 X4.253 Y19.522 Z-4.239
N13975 X4.271 Y19.558 Z-4.246
N13980 X4.274 Y19.597 Z-4.252
N13985 X4.261 Y19.635 Z-4.259
N13990 X4.234 Y19.664 Z-4.265
N13995 X4.198 Y19.681 Z-4.271
N14000 X4.158 Y19.682 Z-4.278
N14005 X4.121 Y19.668 Z-4.284
N14010 X4.093 Y19.641 Z-4.29
N14015 X4.077 Y19.604 Z-4.297
N14020 X4.076 Y19.565 Z-4.303
N14025 X4.092 Y19.528 Z-4.309
N14030 X4.12 Y19.5 Z-4.316
N14035 X4.157 Y19.485 Z-4.322
N14040 X4.196 Y19.486 Z-4.328
N14045 X4.233 Y19.502 Z-4.335
N14050 X4.26 Y19.531 Z-4.341
N14055 X4.273 Y19.568 Z-4.348
N14060 X4.272 Y19.608 Z-4.354
N14065 X4.254 Y19.644 Z-4.36
N14070 X4.225 Y19.67 Z-4.367
N14075 X4.187 Y19.683 Z-4.373
N14080 X4.147 Y19.68 Z-4.379
N14085 X4.112 Y19.662 Z-4.386
N14090 X4.087 Y19.631 Z-4.392
N14095 X4.075 Y19.593 Z-4.398
N14100 X4.079 Y19.554 Z-4.405
N14105 X4.098 Y19.519 Z-4.411
N14110 X4.13 Y19.494 Z-4.418
N14115 X4.168 Y19.484 Z-4.424
N14120 X4.207 Y19.489 Z-4.43
N14125 X4.241 Y19.509 Z-4.437
N14130 X4.265 Y19.541 Z-4.443
N14135 X4.275 Y19.58 Z-4.449
N14140 X4.268 Y19.619 Z-4.456
N14145 X4.247 Y19.652 Z-4.462
N14150 X4.215 Y19.675 Z-4.468
N14155 X4.176 Y19.684 Z-4.475
N14160 X4.137 Y19.676 Z-4.481
N14165 X4.104 Y19.654 Z-4.488
N14170 X4.082 Y19.621 Z-4.494
N14175 X4.075 Y19.582 Z-4.5
N14180 X4.083 Y19.543 Z-4.507
N14185 X4.106 Y19.511 Z-4.513
N14190 X4.14 Y19.49 Z-4.519
N14195 X4.179 Y19.484 Z-4.526
N14200 X4.218 Y19.493 Z-4.532
N14205 X4.249 Y19.517 Z-4.538
N14210 X4.269 Y19.551 Z-4.545
N14215 X4.274 Y19.591 Z-4.551
N14220 X4.264 Y19.629 Z-4.558
N14225 X4.239 Y19.66 Z-4.564
N14230 X4.204 Y19.679 Z-4.57
N14235 X4.165 Y19.683 Z-4.577
N14240 X4.127 Y19.671 Z-4.583
N14245 X4.096 Y19.646 Z-4.589
N14250 X4.078 Y19.61 Z-4.596
N14255 X4.075 Y19.571 Z-4.602
N14260 X4.088 Y19.533 Z-4.608
N14265 X4.115 Y19.504 Z-4.615
N14270 X4.151 Y19.487 Z-4.621
N14275 X4.19 Y19.485 Z-4.627
N14280 X4.227 Y19.499 Z-4.634
N14285 X4.256 Y19.526 Z-4.64
N14290 X4.272 Y19.562 Z-4.647
N14295 X4.273 Y19.602 Z-4.653
N14300 X4.258 Y19.639 Z-4.659
N14305 X4.23 Y19.667 Z-4.666
N14310 X4.193 Y19.682 Z-4.672
N14315 X4.154 Y19.681 Z-4.678
N14320 X4.117 Y19.665 Z-4.685
N14325 X4.09 Y19.637 Z-4.691
N14330 X4.076 Y19.6 Z-4.697
N14335 X4.078 Y19.56 Z-4.704
N14340 X4.094 Y19.524 Z-4.71
N14345 X4.124 Y19.497 Z-4.717
N14350 X4.161 Y19.484 Z-4.723
N14355 X4.201 Y19.487 Z-4.729
N14360 X4.237 Y19.505 Z-4.736
N14365 X4.262 Y19.535 Z-4.742
N14370 X4.274 Y19.573 Z-4.748
N14375 X4.27 Y19.613 Z-4.755
N14380 X4.251 Y19.648 Z-4.761
N14385 X4.22 Y19.672 Z-4.767
N14390 X4.182 Y19.683 Z-4.774
N14395 X4.143 Y19.678 Z-4.78
N14400 X4.108 Y19.659 Z-4.787
N14405 X4.084 Y19.627 Z-4.793
N14410 X4.075 Y19.588 Z-4.799
N14415 X4.081 Y19.549 Z-4.806
N14420 X4.102 Y19.515 Z-4.812
N14425 X4.134 Y19.492 Z-4.818
N14430 X4.173 Y19.484 Z-4.825
N14435 X4.212 Y19.491 Z-4.831
N14440 X4.245 Y19.512 Z-4.837
N14445 X4.267 Y19.545 Z-4.844
N14450 X4.275 Y19.584 Z-4.85
N14455 X4.266 Y19.623 Z-4.856
N14460 X4.244 Y19.656 Z-4.863
N14465 X4.21 Y19.677 Z-4.869
N14470 X4.171 Y19.684 Z-4.876
N14475 X4.132 Y19.674 Z-4.882
N14480 X4.1 Y19.651 Z-4.888
N14485 X4.08 Y19.617 Z-4.895
N14490 X4.075 Y19.577 Z-4.901
N14495 X4.085 Y19.539 Z-4.907
N14500 X4.11 Y19.508 Z-4.914
N14505 X4.144 Y19.488 Z-4.92
N14510 X4.184 Y19.484 Z-4.926
N14515 X4.222 Y19.495 Z-4.933
N14520 X4.252 Y19.521 Z-4.939
N14525 X4.271 Y19.556 Z-4.946
N14530 X4.274 Y19.596 Z-4.952
N14535 X4.261 Y19.633 Z-4.958
N14540 X4.235 Y19.663 Z-4.965
N14545 X4.2 Y19.68 Z-4.971
N14550 X4.16 Y19.682 Z-4.977
N14555 X4.123 Y19.669 Z-4.984
N14560 X4.093 Y19.642 Z-4.99
N14565 X4.077 Y19.606 Z-4.996
N14570 X4.076 Y19.566 Z-5.003
N14575 X4.091 Y19.529 Z-5.009
N14580 X4.119 Y19.501 Z-5.016
N14585 X4.155 Y19.486 Z-5.022
N14590 X4.195 Z-5.028
N14595 X4.231 Y19.501 Z-5.035
N14600 X4.259 Y19.53 Z-5.041
N14605 X4.273 Y19.567 Z-5.047
N14610 X4.272 Y19.607 Z-5.054
N14615 X4.255 Y19.643 Z-5.06
N14620 X4.226 Y19.669 Z-5.066
N14625 X4.189 Y19.683 Z-5.073
N14630 X4.149 Y19.68 Z-5.079
N14635 X4.113 Y19.663 Z-5.085
N14640 X4.087 Y19.633 Z-5.092
N14645 X4.075 Y19.595 Z-5.098
N14650 X4.079 Y19.555 Z-5.105
N14655 X4.097 Y19.52 Z-5.111
N14660 X4.128 Y19.495 Z-5.117
N14665 X4.166 Y19.484 Z-5.124
N14670 X4.206 Y19.489 Z-5.13
N14675 X4.24 Y19.508 Z-5.136
N14680 X4.264 Y19.54 Z-5.143
N14685 X4.274 Y19.578 Z-5.149
N14690 X4.269 Y19.617 Z-5.155
N14695 X4.248 Y19.651 Z-5.162
N14700 X4.216 Y19.675 Z-5.168
N14705 X4.177 Y19.684 Z-5.175
N14710 X4.138 Y19.677 Z-5.181
N14715 X4.105 Y19.655 Z-5.187
N14720 X4.083 Y19.623 Z-5.194
N14725 X4.075 Y19.584 Z-5.2
N14730 G3 X4.275 I0.1
N14735 X4.075 I-0.1
N14740 G1 X4.081 Y19.559
N14745 X4.1 Y19.54
N14750 X4.125 Y19.534
N14755 X4.175 Y19.584
N14760 G0 Z2.3
N14765 X14.77 Y27
N14770 Z2
N14775 G1 Z0.3 F50
N14780 X14.72 Y27.05
N14785 X14.695 Y27.043
N14790 X14.677 Y27.025
N14795 X14.67 Y27
N14800 X14.678 Y26.961 Z0.294 F800
N14805 X14.7 Y26.928 Z0.287
N14810 X14.734 Y26.907 Z0.281
N14815 X14.773 Y26.9 Z0.275
N14820 X14.812 Y26.909 Z0.268
N14825 X14.844 Y26.933 Z0.262
N14830 X14.864 Y26.967 Z0.255
N14835 X14.87 Y27.006 Z0.249
N14840 X14.86 Y27.045 Z0.243
N14845 X14.835 Y27.076 Z0.236
N14850 X14.8 Y27.095 Z0.23
N14855 X14.761 Y27.1 Z0.224
N14860 X14.723 Y27.088 Z0.217
N14865 X14.692 Y27.063 Z0.211
N14870 X14.674 Y27.027 Z0.204
N14875 X14.671 Y26.988 Z0.198
N14880 X14.683 Y26.95 Z0.192
N14885 X14.71 Y26.92 Z0.185
N14890 X14.746 Y26.903 Z0.179
N14895 X14.785 Y26.901 Z0.173
N14900 X14.823 Y26.915 Z0.166
N14905 X14.852 Y26.942 Z0.16
N14910 X14.868 Y26.979 Z0.153
N14915 Y27.018 Z0.147
N14920 X14.853 Y27.055 Z0.141
N14925 X14.825 Y27.083 Z0.134
N14930 X14.788 Y27.098 Z0.128
N14935 X14.749 Z0.122
N14940 X14.712 Y27.082 Z0.115
N14945 X14.685 Y27.053 Z0.109
N14950 X14.671 Y27.015 Z0.102
N14955 X14.673 Y26.975 Z0.096
N14960 X14.69 Y26.94 Z0.09
N14965 X14.72 Y26.913 Z0.083
N14970 X14.758 Y26.901 Z0.077
N14975 X14.797 Y26.904 Z0.071
N14980 X14.833 Y26.922 Z0.064
N14985 X14.858 Y26.953 Z0.058
N14990 X14.87 Y26.991 Z0.051
N14995 X14.865 Y27.03 Z0.045
N15000 X14.846 Y27.065 Z0.039
N15005 X14.814 Y27.09 Z0.032
N15010 X14.776 Y27.1 Z0.026
N15015 X14.737 Y27.094 Z0.02
N15020 X14.703 Y27.074 Z0.013
N15025 X14.679 Y27.042 Z0.007
N15030 X14.67 Y27.003 Z0
N15035 X14.677 Y26.964 Z-0.006
N15040 X14.698 Y26.93 Z-0.012
N15045 X14.731 Y26.908 Z-0.019
N15050 X14.77 Y26.9 Z-0.025
N15055 X14.809 Y26.908 Z-0.031
N15060 X14.842 Y26.931 Z-0.038
N15065 X14.863 Y26.964 Z-0.044
N15070 X14.87 Y27.003 Z-0.051
N15075 X14.861 Y27.042 Z-0.057
N15080 X14.837 Y27.074 Z-0.063
N15085 X14.803 Y27.094 Z-0.07
N15090 X14.764 Y27.1 Z-0.076
N15095 X14.725 Y27.089 Z-0.082
N15100 X14.694 Y27.065 Z-0.089
N15105 X14.675 Y27.03 Z-0.095
N15110 X14.67 Y26.991 Z-0.102
N15115 X14.682 Y26.952 Z-0.108
N15120 X14.707 Y26.922 Z-0.114
N15125 X14.743 Y26.904 Z-0.121
N15130 X14.783 Y26.901 Z-0.127
N15135 X14.82 Y26.914 Z-0.133
N15140 X14.85 Y26.94 Z-0.14
N15145 X14.867 Y26.976 Z-0.146
N15150 X14.869 Y27.016 Z-0.152
N15155 X14.855 Y27.053 Z-0.159
N15160 X14.828 Y27.082 Z-0.165
N15165 X14.791 Y27.098 Z-0.172
N15170 X14.751 Z-0.178
N15175 X14.715 Y27.083 Z-0.184
N15180 X14.686 Y27.055 Z-0.191
N15185 X14.672 Y27.018 Z-0.197
N15190 Y26.978 Z-0.203
N15195 X14.689 Y26.942 Z-0.21
N15200 X14.718 Y26.915 Z-0.216
N15205 X14.755 Y26.901 Z-0.223
N15210 X14.795 Y26.903 Z-0.229
N15215 X14.831 Y26.92 Z-0.235
N15220 X14.857 Y26.95 Z-0.242
N15225 X14.869 Y26.988 Z-0.248
N15230 X14.866 Y27.028 Z-0.254
N15235 X14.848 Y27.063 Z-0.261
N15240 X14.817 Y27.088 Z-0.267
N15245 X14.779 Y27.1 Z-0.274
N15250 X14.739 Y27.095 Z-0.28
N15255 X14.705 Y27.076 Z-0.286
N15260 X14.68 Y27.044 Z-0.293
N15265 X14.67 Y27.006 Z-0.299
N15270 X14.676 Y26.966 Z-0.305
N15275 X14.696 Y26.932 Z-0.312
N15280 X14.729 Y26.909 Z-0.318
N15285 X14.767 Y26.9 Z-0.325
N15290 X14.806 Y26.907 Z-0.331
N15295 X14.84 Y26.928 Z-0.337
N15300 X14.862 Y26.961 Z-0.344
N15305 X14.87 Y27 Z-0.35
N15310 X14.862 Y27.039 Z-0.356
N15315 X14.839 Y27.072 Z-0.363
N15320 X14.806 Y27.093 Z-0.369
N15325 X14.767 Y27.1 Z-0.376
N15330 X14.728 Y27.091 Z-0.382
N15335 X14.696 Y27.067 Z-0.388
N15340 X14.676 Y27.033 Z-0.395
N15345 X14.67 Y26.993 Z-0.401
N15350 X14.681 Y26.955 Z-0.407
N15355 X14.705 Y26.924 Z-0.414
N15360 X14.74 Y26.905 Z-0.42
N15365 X14.78 Y26.9 Z-0.427
N15370 X14.818 Y26.912 Z-0.433
N15375 X14.848 Y26.938 Z-0.439
N15380 X14.866 Y26.973 Z-0.446
N15385 X14.869 Y27.013 Z-0.452
N15390 X14.856 Y27.05 Z-0.458
N15395 X14.83 Y27.08 Z-0.465
N15400 X14.794 Y27.097 Z-0.471
N15405 X14.754 Y27.099 Z-0.478
N15410 X14.717 Y27.085 Z-0.484
N15415 X14.688 Y27.057 Z-0.49
N15420 X14.672 Y27.021 Z-0.497
N15425 Y26.981 Z-0.503
N15430 X14.687 Y26.944 Z-0.509
N15435 X14.715 Y26.916 Z-0.516
N15440 X14.752 Y26.902 Z-0.522
N15445 X14.792 Z-0.529
N15450 X14.828 Y26.919 Z-0.535
N15455 X14.855 Y26.948 Z-0.541
N15460 X14.869 Y26.985 Z-0.548
N15465 X14.867 Y27.025 Z-0.554
N15470 X14.85 Y27.061 Z-0.56
N15475 X14.82 Y27.087 Z-0.567
N15480 X14.782 Y27.099 Z-0.573
N15485 X14.742 Y27.096 Z-0.579
N15490 X14.707 Y27.078 Z-0.586
N15495 X14.682 Y27.047 Z-0.592
N15500 X14.67 Y27.009 Z-0.599
N15505 X14.675 Y26.969 Z-0.605
N15510 X14.694 Y26.935 Z-0.611
N15515 X14.726 Y26.91 Z-0.618
N15520 X14.764 Y26.9 Z-0.624
N15525 X14.804 Y26.906 Z-0.63
N15530 X14.838 Y26.926 Z-0.637
N15535 X14.861 Y26.959 Z-0.643
N15540 X14.87 Y26.997 Z-0.65
N15545 X14.863 Y27.037 Z-0.656
N15550 X14.841 Y27.07 Z-0.662
N15555 X14.808 Y27.092 Z-0.669
N15560 X14.769 Y27.1 Z-0.675
N15565 X14.731 Y27.092 Z-0.681
N15570 X14.698 Y27.069 Z-0.688
N15575 X14.677 Y27.036 Z-0.694
N15580 X14.67 Y26.996 Z-0.701
N15585 X14.679 Y26.958 Z-0.707
N15590 X14.703 Y26.926 Z-0.713
N15595 X14.737 Y26.905 Z-0.72
N15600 X14.777 Y26.9 Z-0.726
N15605 X14.815 Y26.911 Z-0.732
N15610 X14.846 Y26.935 Z-0.739
N15615 X14.865 Y26.97 Z-0.745
N15620 X14.87 Y27.01 Z-0.752
N15625 X14.858 Y27.048 Z-0.758
N15630 X14.832 Y27.078 Z-0.764
N15635 X14.797 Y27.096 Z-0.771
N15640 X14.757 Y27.099 Z-0.777
N15645 X14.719 Y27.086 Z-0.783
N15650 X14.69 Y27.06 Z-0.79
N15655 X14.673 Y27.024 Z-0.796
N15660 X14.671 Y26.984 Z-0.803
N15665 X14.685 Y26.947 Z-0.809
N15670 X14.713 Y26.918 Z-0.815
N15675 X14.749 Y26.902 Z-0.822
N15680 X14.789 Z-0.828
N15685 X14.826 Y26.917 Z-0.834
N15690 X14.854 Y26.945 Z-0.841
N15695 X14.868 Y26.982 Z-0.847
N15700 Y27.022 Z-0.854
N15705 X14.851 Y27.058 Z-0.86
N15710 X14.822 Y27.085 Z-0.866
N15715 X14.785 Y27.099 Z-0.873
N15720 X14.745 Y27.097 Z-0.879
N15725 X14.709 Y27.079 Z-0.885
N15730 X14.683 Y27.049 Z-0.892
N15735 X14.671 Y27.012 Z-0.898
N15740 X14.674 Y26.972 Z-0.905
N15745 X14.693 Y26.937 Z-0.911
N15750 X14.723 Y26.912 Z-0.917
N15755 X14.761 Y26.9 Z-0.924
N15760 X14.801 Y26.905 Z-0.93
N15765 X14.836 Y26.925 Z-0.936
N15770 X14.86 Y26.956 Z-0.943
N15775 X14.87 Y26.995 Z-0.949
N15780 X14.864 Y27.034 Z-0.956
N15785 X14.843 Y27.068 Z-0.962
N15790 X14.811 Y27.091 Z-0.968
N15795 X14.772 Y27.1 Z-0.975
N15800 X14.733 Y27.093 Z-0.981
N15805 X14.7 Y27.071 Z-0.987
N15810 X14.678 Y27.038 Z-0.994
N15815 X14.67 Y26.999 Z-1
N15820 X14.678 Y26.96 Z-1.006
N15825 X14.701 Y26.928 Z-1.013
N15830 X14.735 Y26.906 Z-1.019
N15835 X14.774 Y26.9 Z-1.026
N15840 X14.812 Y26.909 Z-1.032
N15845 X14.844 Y26.933 Z-1.038
N15850 X14.865 Y26.967 Z-1.045
N15855 X14.87 Y27.007 Z-1.051
N15860 X14.859 Y27.045 Z-1.057
N15865 X14.834 Y27.076 Z-1.064
N15870 X14.8 Y27.096 Z-1.07
N15875 X14.76 Y27.099 Z-1.077
N15880 X14.722 Y27.088 Z-1.083
N15885 X14.692 Y27.062 Z-1.089
N15890 X14.674 Y27.027 Z-1.096
N15895 X14.671 Y26.987 Z-1.102
N15900 X14.684 Y26.949 Z-1.108
N15905 X14.71 Y26.92 Z-1.115
N15910 X14.746 Y26.903 Z-1.121
N15915 X14.786 Y26.901 Z-1.128
N15920 X14.823 Y26.915 Z-1.134
N15925 X14.852 Y26.943 Z-1.14
N15930 X14.868 Y26.979 Z-1.147
N15935 Y27.019 Z-1.153
N15940 X14.853 Y27.056 Z-1.159
N15945 X14.825 Y27.084 Z-1.166
N15950 X14.788 Y27.098 Z-1.172
N15955 X14.748 Z-1.179
N15960 X14.712 Y27.081 Z-1.185
N15965 X14.685 Y27.052 Z-1.191
N15970 X14.671 Y27.015 Z-1.198
N15975 X14.673 Y26.975 Z-1.204
N15980 X14.691 Y26.939 Z-1.21
N15985 X14.721 Y26.913 Z-1.217
N15990 X14.759 Y26.901 Z-1.223
N15995 X14.798 Y26.904 Z-1.23
N16000 X14.833 Y26.923 Z-1.236
N16005 X14.859 Y26.953 Z-1.242
N16010 X14.87 Y26.992 Z-1.249
N16015 X14.865 Y27.031 Z-1.255
N16020 X14.845 Y27.066 Z-1.261
N16025 X14.814 Y27.09 Z-1.268
N16030 X14.775 Y27.1 Z-1.274
N16035 X14.736 Y27.094 Z-1.281
N16040 X14.702 Y27.073 Z-1.287
N16045 X14.679 Y27.041 Z-1.293
N16050 X14.67 Y27.002 Z-1.3
N16055 X14.677 Y26.963 Z-1.306
N16060 X14.699 Y26.93 Z-1.312
N16065 X14.732 Y26.908 Z-1.319
N16070 X14.771 Y26.9 Z-1.325
N16075 X14.81 Y26.908 Z-1.332
N16080 X14.842 Y26.931 Z-1.338
N16085 X14.864 Y26.965 Z-1.344
N16090 X14.87 Y27.004 Z-1.351
N16095 X14.86 Y27.043 Z-1.357
N16100 X14.837 Y27.075 Z-1.363
N16105 X14.802 Y27.095 Z-1.37
N16110 X14.763 Y27.1 Z-1.376
N16115 X14.725 Y27.089 Z-1.383
N16120 X14.693 Y27.064 Z-1.389
N16125 X14.674 Y27.029 Z-1.395
N16130 X14.671 Y26.99 Z-1.402
N16135 X14.682 Y26.952 Z-1.408
N16140 X14.708 Y26.921 Z-1.414
N16145 X14.744 Y26.904 Z-1.421
N16150 X14.783 Y26.901 Z-1.427
N16155 X14.821 Y26.914 Z-1.433
N16160 X14.85 Y26.941 Z-1.44
N16165 X14.867 Y26.977 Z-1.446
N16170 X14.869 Y27.016 Z-1.453
N16175 X14.854 Y27.053 Z-1.459
N16180 X14.827 Y27.082 Z-1.465
N16185 X14.79 Y27.098 Z-1.472
N16190 X14.751 Z-1.478
N16195 X14.714 Y27.083 Z-1.484
N16200 X14.686 Y27.054 Z-1.491
N16205 X14.672 Y27.017 Z-1.497
N16210 X14.673 Y26.978 Z-1.504
