%
(1001)
(T3 D=3 CR=0 - ZMIN=-3.2 - flat end mill)
N10 G90 G94
N15 G17
N20 G21
N25 G28

(2D ????1)
N30 T3 M6
N35 S20000 M3
N40 G54
N45 M8
N50 G0 X17.497 Y70.595
N55 G43 Z2.3
N60 G1 Z0.5 F100
N65 G18 G2 X17.797 Z0.2 I0.3 F50
N70 G1 X18.601
N75 X38.391 F800
N80 G17 G3 X38.591 Y70.794 J0.2
N85 G1 X38.599 Y73.204
N90 G3 X38.399 Y73.405 I-0.2 J0.001
N95 G1 X18.609
N100 G3 X18.409 Y73.205 J-0.2
N105 G1 X18.411 Y68.398
N110 G3 X18.611 Y68.198 I0.2
N115 G1 X28.994
N120 X32.612
N125 X38.384
N130 G3 X38.387 Y69.397 J0.599
N135 G1 X35.623 Y69.409
N140 X35.56 Y69.406
N145 X35.498 Y69.397
N150 X32.612 Y68.797
N155 G3 X32.136 Y68.253 I0.122 J-0.587
N160 G1 X32.007 Y66.443
N165 G3 X32.605 Y65.802 I0.598 J-0.043
N170 G1 X38.394
N175 G3 X38.594 Y66.002 J0.2
N180 G1 X38.589 Y75.602
N185 G3 X38.389 Y75.802 I-0.2
N190 G1 X18.616
N195 G3 X18.416 Y75.602 J-0.2
N200 G1 X18.404 Y66.002
N205 G3 X18.604 Y65.802 I0.2
N210 G1 X30.754
N215 G3 Y67 J0.599
N220 G1 X24.738 Y67.003
N225 X24.718
N230 X24.698 Y67.002
N235 X24.679 Y67
N240 X18.604 Y66.401
N245 G3 X18.064 Y65.822 I0.059 J-0.596
N250 G1 X18.01 Y64.017
N255 G3 X18.609 Y63.4 I0.599 J-0.018
N260 G1 X24.397
N265 X24.419 Y63.404
N270 X24.439 Y63.415
N275 X24.454 Y63.432
N280 X24.544 Y63.573
N285 X24.559 Y63.59
N290 X24.579 Y63.601
N295 X24.601 Y63.604
N300 X25.135
N305 X25.157 Y63.601
N310 X25.177 Y63.59
N315 X25.192 Y63.573
N320 X25.282 Y63.432
N325 X25.297 Y63.415
N330 X25.317 Y63.404
N335 X25.339 Y63.4
N340 X38.397
N345 G3 X38.597 Y63.6 J0.2
N350 G1 X38.596 Y77.998
N355 G3 X38.396 Y78.198 I-0.2
N360 G1 X18.606
N365 G2 X18.59 Y78.598 J0.2
N370 G1 X38.407 Y80.201
N375 G3 X38.391 Y80.6 I-0.016 J0.199
N380 G1 X32.603
N385 X32.581 Y80.596
N390 X32.561 Y80.585
N395 X32.546 Y80.568
N400 X32.456 Y80.427
N405 X32.441 Y80.41
N410 X32.421 Y80.399
N415 X32.399 Y80.396
N420 X27.995
N425 X27.972 Y80.399
N430 X27.952 Y80.41
N435 X27.937 Y80.427
N440 X27.848 Y80.568
N445 X27.833 Y80.585
N450 X27.813 Y80.596
N455 X27.79 Y80.6
N460 X18.603
N465 G3 X17.178 Y79.175 Z0.181 J-1.425 F100
N470 G1 X17.176 Y72.02 Z0.119
N475 G3 X18.601 Y70.595 Z0.1 I1.425
N480 G1 X38.391 F800
N485 G3 X38.591 Y70.794 J0.2
N490 G1 X38.599 Y73.204
N495 G3 X38.399 Y73.405 I-0.2 J0.001
N500 G1 X18.609
N505 G3 X18.409 Y73.205 J-0.2
N510 G1 X18.411 Y68.398
N515 G3 X18.611 Y68.198 I0.2
N520 G1 X28.994
N525 X32.612
N530 X38.384
N535 G3 X38.387 Y69.397 J0.599
N540 G1 X35.623 Y69.409
N545 X35.56 Y69.406
N550 X35.498 Y69.397
N555 X32.612 Y68.797
N560 G3 X32.136 Y68.253 I0.122 J-0.587
N565 G1 X32.007 Y66.443
N570 G3 X32.605 Y65.802 I0.598 J-0.043
N575 G1 X38.394
N580 G3 X38.594 Y66.002 J0.2
N585 G1 X38.589 Y75.602
N590 G3 X38.389 Y75.802 I-0.2
N595 G1 X18.616
N600 G3 X18.416 Y75.602 J-0.2
N605 G1 X18.404 Y66.002
N610 G3 X18.604 Y65.802 I0.2
N615 G1 X30.754
N620 G3 Y67 J0.599
N625 G1 X24.738 Y67.003
N630 X24.718
N635 X24.698 Y67.002
N640 X24.679 Y67
N645 X18.604 Y66.401
N650 G3 X18.064 Y65.822 I0.059 J-0.596
N655 G1 X18.01 Y64.017
N660 G3 X18.609 Y63.4 I0.599 J-0.018
N665 G1 X24.397
N670 X24.419 Y63.404
N675 X24.439 Y63.415
N680 X24.454 Y63.432
N685 X24.544 Y63.573
N690 X24.559 Y63.59
N695 X24.579 Y63.601
N700 X24.601 Y63.604
N705 X25.135
N710 X25.157 Y63.601
N715 X25.177 Y63.59
N720 X25.192 Y63.573
N725 X25.282 Y63.432
N730 X25.297 Y63.415
N735 X25.317 Y63.404
N740 X25.339 Y63.4
N745 X38.397
N750 G3 X38.597 Y63.6 J0.2
N755 G1 X38.596 Y77.998
N760 G3 X38.396 Y78.198 I-0.2
N765 G1 X18.606
N770 G2 X18.59 Y78.598 J0.2
N775 G1 X38.407 Y80.201
N780 G3 X38.391 Y80.6 I-0.016 J0.199
N785 G1 X32.603
N790 X32.581 Y80.596
N795 X32.561 Y80.585
N800 X32.546 Y80.568
N805 X32.456 Y80.427
N810 X32.441 Y80.41
N815 X32.421 Y80.399
N820 X32.399 Y80.396
N825 X27.995
N830 X27.972 Y80.399
N835 X27.952 Y80.41
N840 X27.937 Y80.427
N845 X27.848 Y80.568
N850 X27.833 Y80.585
N855 X27.813 Y80.596
N860 X27.79 Y80.6
N865 X18.603
N870 G3 X17.178 Y79.175 Z0.081 J-1.425 F100
N875 G1 X17.176 Y72.02 Z0.019
N880 G3 X18.601 Y70.595 Z0 I1.425
N885 G1 X38.391 F800
N890 G3 X38.591 Y70.794 J0.2
N895 G1 X38.599 Y73.204
N900 G3 X38.399 Y73.405 I-0.2 J0.001
N905 G1 X18.609
N910 G3 X18.409 Y73.205 J-0.2
N915 G1 X18.411 Y68.398
N920 G3 X18.611 Y68.198 I0.2
N925 G1 X28.994
N930 X32.612
N935 X38.384
N940 G3 X38.387 Y69.397 J0.599
N945 G1 X35.623 Y69.409
N950 X35.56 Y69.406
N955 X35.498 Y69.397
N960 X32.612 Y68.797
N965 G3 X32.136 Y68.253 I0.122 J-0.587
N970 G1 X32.007 Y66.443
N975 G3 X32.605 Y65.802 I0.598 J-0.043
N980 G1 X38.394
N985 G3 X38.594 Y66.002 J0.2
N990 G1 X38.589 Y75.602
N995 G3 X38.389 Y75.802 I-0.2
N1000 G1 X18.616
N1005 G3 X18.416 Y75.602 J-0.2
N1010 G1 X18.404 Y66.002
N1015 G3 X18.604 Y65.802 I0.2
N1020 G1 X30.754
N1025 G3 Y67 J0.599
N1030 G1 X24.738 Y67.003
N1035 X24.718
N1040 X24.698 Y67.002
N1045 X24.679 Y67
N1050 X18.604 Y66.401
N1055 G3 X18.064 Y65.822 I0.059 J-0.596
N1060 G1 X18.01 Y64.017
N1065 G3 X18.609 Y63.4 I0.599 J-0.018
N1070 G1 X24.397
N1075 X24.419 Y63.404
N1080 X24.439 Y63.415
N1085 X24.454 Y63.432
N1090 X24.544 Y63.573
N1095 X24.559 Y63.59
N1100 X24.579 Y63.601
N1105 X24.601 Y63.604
N1110 X25.135
N1115 X25.157 Y63.601
N1120 X25.177 Y63.59
N1125 X25.192 Y63.573
N1130 X25.282 Y63.432
N1135 X25.297 Y63.415
N1140 X25.317 Y63.404
N1145 X25.339 Y63.4
N1150 X38.397
N1155 G3 X38.597 Y63.6 J0.2
N1160 G1 X38.596 Y77.998
N1165 G3 X38.396 Y78.198 I-0.2
N1170 G1 X18.606
N1175 G2 X18.59 Y78.598 J0.2
N1180 G1 X38.407 Y80.201
N1185 G3 X38.391 Y80.6 I-0.016 J0.199
N1190 G1 X32.603
N1195 X32.581 Y80.596
N1200 X32.561 Y80.585
N1205 X32.546 Y80.568
N1210 X32.456 Y80.427
N1215 X32.441 Y80.41
N1220 X32.421 Y80.399
N1225 X32.399 Y80.396
N1230 X27.995
N1235 X27.972 Y80.399
N1240 X27.952 Y80.41
N1245 X27.937 Y80.427
N1250 X27.848 Y80.568
N1255 X27.833 Y80.585
N1260 X27.813 Y80.596
N1265 X27.79 Y80.6
N1270 X18.603
N1275 G3 X17.178 Y79.175 Z-0.019 J-1.425 F100
N1280 G1 X17.176 Y72.02 Z-0.081
N1285 G3 X18.601 Y70.595 Z-0.1 I1.425
N1290 G1 X38.391 F800
N1295 G3 X38.591 Y70.794 J0.2
N1300 G1 X38.599 Y73.204
N1305 G3 X38.399 Y73.405 I-0.2 J0.001
N1310 G1 X18.609
N1315 G3 X18.409 Y73.205 J-0.2
N1320 G1 X18.411 Y68.398
N1325 G3 X18.611 Y68.198 I0.2
N1330 G1 X28.994
N1335 X32.612
N1340 X38.384
N1345 G3 X38.387 Y69.397 J0.599
N1350 G1 X35.623 Y69.409
N1355 X35.56 Y69.406
N1360 X35.498 Y69.397
N1365 X32.612 Y68.797
N1370 G3 X32.136 Y68.253 I0.122 J-0.587
N1375 G1 X32.007 Y66.443
N1380 G3 X32.605 Y65.802 I0.598 J-0.043
N1385 G1 X38.394
N1390 G3 X38.594 Y66.002 J0.2
N1395 G1 X38.589 Y75.602
N1400 G3 X38.389 Y75.802 I-0.2
N1405 G1 X18.616
N1410 G3 X18.416 Y75.602 J-0.2
N1415 G1 X18.404 Y66.002
N1420 G3 X18.604 Y65.802 I0.2
N1425 G1 X30.754
N1430 G3 Y67 J0.599
N1435 G1 X24.738 Y67.003
N1440 X24.718
N1445 X24.698 Y67.002
N1450 X24.679 Y67
N1455 X18.604 Y66.401
N1460 G3 X18.064 Y65.822 I0.059 J-0.596
N1465 G1 X18.01 Y64.017
N1470 G3 X18.609 Y63.4 I0.599 J-0.018
N1475 G1 X24.397
N1480 X24.419 Y63.404
N1485 X24.439 Y63.415
N1490 X24.454 Y63.432
N1495 X24.544 Y63.573
N1500 X24.559 Y63.59
N1505 X24.579 Y63.601
N1510 X24.601 Y63.604
N1515 X25.135
N1520 X25.157 Y63.601
N1525 X25.177 Y63.59
N1530 X25.192 Y63.573
N1535 X25.282 Y63.432
N1540 X25.297 Y63.415
N1545 X25.317 Y63.404
N1550 X25.339 Y63.4
N1555 X38.397
N1560 G3 X38.597 Y63.6 J0.2
N1565 G1 X38.596 Y77.998
N1570 G3 X38.396 Y78.198 I-0.2
N1575 G1 X18.606
N1580 G2 X18.59 Y78.598 J0.2
N1585 G1 X38.407 Y80.201
N1590 G3 X38.391 Y80.6 I-0.016 J0.199
N1595 G1 X32.603
N1600 X32.581 Y80.596
N1605 X32.561 Y80.585
N1610 X32.546 Y80.568
N1615 X32.456 Y80.427
N1620 X32.441 Y80.41
N1625 X32.421 Y80.399
N1630 X32.399 Y80.396
N1635 X27.995
N1640 X27.972 Y80.399
N1645 X27.952 Y80.41
N1650 X27.937 Y80.427
N1655 X27.848 Y80.568
N1660 X27.833 Y80.585
N1665 X27.813 Y80.596
N1670 X27.79 Y80.6
N1675 X18.603
N1680 G3 X17.178 Y79.175 Z-0.119 J-1.425 F100
N1685 G1 X17.176 Y72.02 Z-0.181
N1690 G3 X18.601 Y70.595 Z-0.2 I1.425
N1695 G1 X38.391 F800
N1700 G3 X38.591 Y70.794 J0.2
N1705 G1 X38.599 Y73.204
N1710 G3 X38.399 Y73.405 I-0.2 J0.001
N1715 G1 X18.609
N1720 G3 X18.409 Y73.205 J-0.2
N1725 G1 X18.411 Y68.398
N1730 G3 X18.611 Y68.198 I0.2
N1735 G1 X28.994
N1740 X32.612
N1745 X38.384
N1750 G3 X38.387 Y69.397 J0.599
N1755 G1 X35.623 Y69.409
N1760 X35.56 Y69.406
N1765 X35.498 Y69.397
N1770 X32.612 Y68.797
N1775 G3 X32.136 Y68.253 I0.122 J-0.587
N1780 G1 X32.007 Y66.443
N1785 G3 X32.605 Y65.802 I0.598 J-0.043
N1790 G1 X38.394
N1795 G3 X38.594 Y66.002 J0.2
N1800 G1 X38.589 Y75.602
N1805 G3 X38.389 Y75.802 I-0.2
N1810 G1 X18.616
N1815 G3 X18.416 Y75.602 J-0.2
N1820 G1 X18.404 Y66.002
N1825 G3 X18.604 Y65.802 I0.2
N1830 G1 X30.754
N1835 G3 Y67 J0.599
N1840 G1 X24.738 Y67.003
N1845 X24.718
N1850 X24.698 Y67.002
N1855 X24.679 Y67
N1860 X18.604 Y66.401
N1865 G3 X18.064 Y65.822 I0.059 J-0.596
N1870 G1 X18.01 Y64.017
N1875 G3 X18.609 Y63.4 I0.599 J-0.018
N1880 G1 X24.397
N1885 X24.419 Y63.404
N1890 X24.439 Y63.415
N1895 X24.454 Y63.432
N1900 X24.544 Y63.573
N1905 X24.559 Y63.59
N1910 X24.579 Y63.601
N1915 X24.601 Y63.604
N1920 X25.135
N1925 X25.157 Y63.601
N1930 X25.177 Y63.59
N1935 X25.192 Y63.573
N1940 X25.282 Y63.432
N1945 X25.297 Y63.415
N1950 X25.317 Y63.404
N1955 X25.339 Y63.4
N1960 X38.397
N1965 G3 X38.597 Y63.6 J0.2
N1970 G1 X38.596 Y77.998
N1975 G3 X38.396 Y78.198 I-0.2
N1980 G1 X18.606
N1985 G2 X18.59 Y78.598 J0.2
N1990 G1 X38.407 Y80.201
N1995 G3 X38.391 Y80.6 I-0.016 J0.199
N2000 G1 X32.603
N2005 X32.581 Y80.596
N2010 X32.561 Y80.585
N2015 X32.546 Y80.568
N2020 X32.456 Y80.427
N2025 X32.441 Y80.41
N2030 X32.421 Y80.399
N2035 X32.399 Y80.396
N2040 X27.995
N2045 X27.972 Y80.399
N2050 X27.952 Y80.41
N2055 X27.937 Y80.427
N2060 X27.848 Y80.568
N2065 X27.833 Y80.585
N2070 X27.813 Y80.596
N2075 X27.79 Y80.6
N2080 X18.603
N2085 G3 X17.178 Y79.175 Z-0.219 J-1.425 F100
N2090 G1 X17.176 Y72.02 Z-0.281
N2095 G3 X18.601 Y70.595 Z-0.3 I1.425
N2100 G1 X38.391 F800
N2105 G3 X38.591 Y70.794 J0.2
N2110 G1 X38.599 Y73.204
N2115 G3 X38.399 Y73.405 I-0.2 J0.001
N2120 G1 X18.609
N2125 G3 X18.409 Y73.205 J-0.2
N2130 G1 X18.411 Y68.398
N2135 G3 X18.611 Y68.198 I0.2
N2140 G1 X28.994
N2145 X32.612
N2150 X38.384
N2155 G3 X38.387 Y69.397 J0.599
N2160 G1 X35.623 Y69.409
N2165 X35.56 Y69.406
N2170 X35.498 Y69.397
N2175 X32.612 Y68.797
N2180 G3 X32.136 Y68.253 I0.122 J-0.587
N2185 G1 X32.007 Y66.443
N2190 G3 X32.605 Y65.802 I0.598 J-0.043
N2195 G1 X38.394
N2200 G3 X38.594 Y66.002 J0.2
N2205 G1 X38.589 Y75.602
N2210 G3 X38.389 Y75.802 I-0.2
N2215 G1 X18.616
N2220 G3 X18.416 Y75.602 J-0.2
N2225 G1 X18.404 Y66.002
N2230 G3 X18.604 Y65.802 I0.2
N2235 G1 X30.754
N2240 G3 Y67 J0.599
N2245 G1 X24.738 Y67.003
N2250 X24.718
N2255 X24.698 Y67.002
N2260 X24.679 Y67
N2265 X18.604 Y66.401
N2270 G3 X18.064 Y65.822 I0.059 J-0.596
N2275 G1 X18.01 Y64.017
N2280 G3 X18.609 Y63.4 I0.599 J-0.018
N2285 G1 X24.397
N2290 X24.419 Y63.404
N2295 X24.439 Y63.415
N2300 X24.454 Y63.432
N2305 X24.544 Y63.573
N2310 X24.559 Y63.59
N2315 X24.579 Y63.601
N2320 X24.601 Y63.604
N2325 X25.135
N2330 X25.157 Y63.601
N2335 X25.177 Y63.59
N2340 X25.192 Y63.573
N2345 X25.282 Y63.432
N2350 X25.297 Y63.415
N2355 X25.317 Y63.404
N2360 X25.339 Y63.4
N2365 X38.397
N2370 G3 X38.597 Y63.6 J0.2
N2375 G1 X38.596 Y77.998
N2380 G3 X38.396 Y78.198 I-0.2
N2385 G1 X18.606
N2390 G2 X18.59 Y78.598 J0.2
N2395 G1 X38.407 Y80.201
N2400 G3 X38.391 Y80.6 I-0.016 J0.199
N2405 G1 X32.603
N2410 X32.581 Y80.596
N2415 X32.561 Y80.585
N2420 X32.546 Y80.568
N2425 X32.456 Y80.427
N2430 X32.441 Y80.41
N2435 X32.421 Y80.399
N2440 X32.399 Y80.396
N2445 X27.995
N2450 X27.972 Y80.399
N2455 X27.952 Y80.41
N2460 X27.937 Y80.427
N2465 X27.848 Y80.568
N2470 X27.833 Y80.585
N2475 X27.813 Y80.596
N2480 X27.79 Y80.6
N2485 X18.603
N2490 G3 X17.178 Y79.175 Z-0.319 J-1.425 F100
N2495 G1 X17.176 Y72.02 Z-0.381
N2500 G3 X18.601 Y70.595 Z-0.4 I1.425
N2505 G1 X38.391 F800
N2510 G3 X38.591 Y70.794 J0.2
N2515 G1 X38.599 Y73.204
N2520 G3 X38.399 Y73.405 I-0.2 J0.001
N2525 G1 X18.609
N2530 G3 X18.409 Y73.205 J-0.2
N2535 G1 X18.411 Y68.398
N2540 G3 X18.611 Y68.198 I0.2
N2545 G1 X28.994
N2550 X32.612
N2555 X38.384
N2560 G3 X38.387 Y69.397 J0.599
N2565 G1 X35.623 Y69.409
N2570 X35.56 Y69.406
N2575 X35.498 Y69.397
N2580 X32.612 Y68.797
N2585 G3 X32.136 Y68.253 I0.122 J-0.587
N2590 G1 X32.007 Y66.443
N2595 G3 X32.605 Y65.802 I0.598 J-0.043
N2600 G1 X38.394
N2605 G3 X38.594 Y66.002 J0.2
N2610 G1 X38.589 Y75.602
N2615 G3 X38.389 Y75.802 I-0.2
N2620 G1 X18.616
N2625 G3 X18.416 Y75.602 J-0.2
N2630 G1 X18.404 Y66.002
N2635 G3 X18.604 Y65.802 I0.2
N2640 G1 X30.754
N2645 G3 Y67 J0.599
N2650 G1 X24.738 Y67.003
N2655 X24.718
N2660 X24.698 Y67.002
N2665 X24.679 Y67
N2670 X18.604 Y66.401
N2675 G3 X18.064 Y65.822 I0.059 J-0.596
N2680 G1 X18.01 Y64.017
N2685 G3 X18.609 Y63.4 I0.599 J-0.018
N2690 G1 X24.397
N2695 X24.419 Y63.404
N2700 X24.439 Y63.415
N2705 X24.454 Y63.432
N2710 X24.544 Y63.573
N2715 X24.559 Y63.59
N2720 X24.579 Y63.601
N2725 X24.601 Y63.604
N2730 X25.135
N2735 X25.157 Y63.601
N2740 X25.177 Y63.59
N2745 X25.192 Y63.573
N2750 X25.282 Y63.432
N2755 X25.297 Y63.415
N2760 X25.317 Y63.404
N2765 X25.339 Y63.4
N2770 X38.397
N2775 G3 X38.597 Y63.6 J0.2
N2780 G1 X38.596 Y77.998
N2785 G3 X38.396 Y78.198 I-0.2
N2790 G1 X18.606
N2795 G2 X18.59 Y78.598 J0.2
N2800 G1 X38.407 Y80.201
N2805 G3 X38.391 Y80.6 I-0.016 J0.199
N2810 G1 X32.603
N2815 X32.581 Y80.596
N2820 X32.561 Y80.585
N2825 X32.546 Y80.568
N2830 X32.456 Y80.427
N2835 X32.441 Y80.41
N2840 X32.421 Y80.399
N2845 X32.399 Y80.396
N2850 X27.995
N2855 X27.972 Y80.399
N2860 X27.952 Y80.41
N2865 X27.937 Y80.427
N2870 X27.848 Y80.568
N2875 X27.833 Y80.585
N2880 X27.813 Y80.596
N2885 X27.79 Y80.6
N2890 X18.603
N2895 G3 X17.178 Y79.175 Z-0.419 J-1.425 F100
N2900 G1 X17.176 Y72.02 Z-0.481
N2905 G3 X18.601 Y70.595 Z-0.5 I1.425
N2910 G1 X38.391 F800
N2915 G3 X38.591 Y70.794 J0.2
N2920 G1 X38.599 Y73.204
N2925 G3 X38.399 Y73.405 I-0.2 J0.001
N2930 G1 X18.609
N2935 G3 X18.409 Y73.205 J-0.2
N2940 G1 X18.411 Y68.398
N2945 G3 X18.611 Y68.198 I0.2
N2950 G1 X28.994
N2955 X32.612
N2960 X38.384
N2965 G3 X38.387 Y69.397 J0.599
N2970 G1 X35.623 Y69.409
N2975 X35.56 Y69.406
N2980 X35.498 Y69.397
N2985 X32.612 Y68.797
N2990 G3 X32.136 Y68.253 I0.122 J-0.587
N2995 G1 X32.007 Y66.443
N3000 G3 X32.605 Y65.802 I0.598 J-0.043
N3005 G1 X38.394
N3010 G3 X38.594 Y66.002 J0.2
N3015 G1 X38.589 Y75.602
N3020 G3 X38.389 Y75.802 I-0.2
N3025 G1 X18.616
N3030 G3 X18.416 Y75.602 J-0.2
N3035 G1 X18.404 Y66.002
N3040 G3 X18.604 Y65.802 I0.2
N3045 G1 X30.754
N3050 G3 Y67 J0.599
N3055 G1 X24.738 Y67.003
N3060 X24.718
N3065 X24.698 Y67.002
N3070 X24.679 Y67
N3075 X18.604 Y66.401
N3080 G3 X18.064 Y65.822 I0.059 J-0.596
N3085 G1 X18.01 Y64.017
N3090 G3 X18.609 Y63.4 I0.599 J-0.018
N3095 G1 X24.397
N3100 X24.419 Y63.404
N3105 X24.439 Y63.415
N3110 X24.454 Y63.432
N3115 X24.544 Y63.573
N3120 X24.559 Y63.59
N3125 X24.579 Y63.601
N3130 X24.601 Y63.604
N3135 X25.135
N3140 X25.157 Y63.601
N3145 X25.177 Y63.59
N3150 X25.192 Y63.573
N3155 X25.282 Y63.432
N3160 X25.297 Y63.415
N3165 X25.317 Y63.404
N3170 X25.339 Y63.4
N3175 X38.397
N3180 G3 X38.597 Y63.6 J0.2
N3185 G1 X38.596 Y77.998
N3190 G3 X38.396 Y78.198 I-0.2
N3195 G1 X18.606
N3200 G2 X18.59 Y78.598 J0.2
N3205 G1 X38.407 Y80.201
N3210 G3 X38.391 Y80.6 I-0.016 J0.199
N3215 G1 X32.603
N3220 X32.581 Y80.596
N3225 X32.561 Y80.585
N3230 X32.546 Y80.568
N3235 X32.456 Y80.427
N3240 X32.441 Y80.41
N3245 X32.421 Y80.399
N3250 X32.399 Y80.396
N3255 X27.995
N3260 X27.972 Y80.399
N3265 X27.952 Y80.41
N3270 X27.937 Y80.427
N3275 X27.848 Y80.568
N3280 X27.833 Y80.585
N3285 X27.813 Y80.596
N3290 X27.79 Y80.6
N3295 X18.603
N3300 G3 X17.178 Y79.175 Z-0.519 J-1.425 F100
N3305 G1 X17.176 Y72.02 Z-0.581
N3310 G3 X18.601 Y70.595 Z-0.6 I1.425
N3315 G1 X38.391 F800
N3320 G3 X38.591 Y70.794 J0.2
N3325 G1 X38.599 Y73.204
N3330 G3 X38.399 Y73.405 I-0.2 J0.001
N3335 G1 X18.609
N3340 G3 X18.409 Y73.205 J-0.2
N3345 G1 X18.411 Y68.398
N3350 G3 X18.611 Y68.198 I0.2
N3355 G1 X28.994
N3360 X32.612
N3365 X38.384
N3370 G3 X38.387 Y69.397 J0.599
N3375 G1 X35.623 Y69.409
N3380 X35.56 Y69.406
N3385 X35.498 Y69.397
N3390 X32.612 Y68.797
N3395 G3 X32.136 Y68.253 I0.122 J-0.587
N3400 G1 X32.007 Y66.443
N3405 G3 X32.605 Y65.802 I0.598 J-0.043
N3410 G1 X38.394
N3415 G3 X38.594 Y66.002 J0.2
N3420 G1 X38.589 Y75.602
N3425 G3 X38.389 Y75.802 I-0.2
N3430 G1 X18.616
N3435 G3 X18.416 Y75.602 J-0.2
N3440 G1 X18.404 Y66.002
N3445 G3 X18.604 Y65.802 I0.2
N3450 G1 X30.754
N3455 G3 Y67 J0.599
N3460 G1 X24.738 Y67.003
N3465 X24.718
N3470 X24.698 Y67.002
N3475 X24.679 Y67
N3480 X18.604 Y66.401
N3485 G3 X18.064 Y65.822 I0.059 J-0.596
N3490 G1 X18.01 Y64.017
N3495 G3 X18.609 Y63.4 I0.599 J-0.018
N3500 G1 X24.397
N3505 X24.419 Y63.404
N3510 X24.439 Y63.415
N3515 X24.454 Y63.432
N3520 X24.544 Y63.573
N3525 X24.559 Y63.59
N3530 X24.579 Y63.601
N3535 X24.601 Y63.604
N3540 X25.135
N3545 X25.157 Y63.601
N3550 X25.177 Y63.59
N3555 X25.192 Y63.573
N3560 X25.282 Y63.432
N3565 X25.297 Y63.415
N3570 X25.317 Y63.404
N3575 X25.339 Y63.4
N3580 X38.397
N3585 G3 X38.597 Y63.6 J0.2
N3590 G1 X38.596 Y77.998
N3595 G3 X38.396 Y78.198 I-0.2
N3600 G1 X18.606
N3605 G2 X18.59 Y78.598 J0.2
N3610 G1 X38.407 Y80.201
N3615 G3 X38.391 Y80.6 I-0.016 J0.199
N3620 G1 X32.603
N3625 X32.581 Y80.596
N3630 X32.561 Y80.585
N3635 X32.546 Y80.568
N3640 X32.456 Y80.427
N3645 X32.441 Y80.41
N3650 X32.421 Y80.399
N3655 X32.399 Y80.396
N3660 X27.995
N3665 X27.972 Y80.399
N3670 X27.952 Y80.41
N3675 X27.937 Y80.427
N3680 X27.848 Y80.568
N3685 X27.833 Y80.585
N3690 X27.813 Y80.596
N3695 X27.79 Y80.6
N3700 X18.603
N3705 G3 X17.178 Y79.175 Z-0.619 J-1.425 F100
N3710 G1 X17.176 Y72.02 Z-0.681
N3715 G3 X18.601 Y70.595 Z-0.7 I1.425
N3720 G1 X38.391 F800
N3725 G3 X38.591 Y70.794 J0.2
N3730 G1 X38.599 Y73.204
N3735 G3 X38.399 Y73.405 I-0.2 J0.001
N3740 G1 X18.609
N3745 G3 X18.409 Y73.205 J-0.2
N3750 G1 X18.411 Y68.398
N3755 G3 X18.611 Y68.198 I0.2
N3760 G1 X28.994
N3765 X32.612
N3770 X38.384
N3775 G3 X38.387 Y69.397 J0.599
N3780 G1 X35.623 Y69.409
N3785 X35.56 Y69.406
N3790 X35.498 Y69.397
N3795 X32.612 Y68.797
N3800 G3 X32.136 Y68.253 I0.122 J-0.587
N3805 G1 X32.007 Y66.443
N3810 G3 X32.605 Y65.802 I0.598 J-0.043
N3815 G1 X38.394
N3820 G3 X38.594 Y66.002 J0.2
N3825 G1 X38.589 Y75.602
N3830 G3 X38.389 Y75.802 I-0.2
N3835 G1 X18.616
N3840 G3 X18.416 Y75.602 J-0.2
N3845 G1 X18.404 Y66.002
N3850 G3 X18.604 Y65.802 I0.2
N3855 G1 X30.754
N3860 G3 Y67 J0.599
N3865 G1 X24.738 Y67.003
N3870 X24.718
N3875 X24.698 Y67.002
N3880 X24.679 Y67
N3885 X18.604 Y66.401
N3890 G3 X18.064 Y65.822 I0.059 J-0.596
N3895 G1 X18.01 Y64.017
N3900 G3 X18.609 Y63.4 I0.599 J-0.018
N3905 G1 X24.397
N3910 X24.419 Y63.404
N3915 X24.439 Y63.415
N3920 X24.454 Y63.432
N3925 X24.544 Y63.573
N3930 X24.559 Y63.59
N3935 X24.579 Y63.601
N3940 X24.601 Y63.604
N3945 X25.135
N3950 X25.157 Y63.601
N3955 X25.177 Y63.59
N3960 X25.192 Y63.573
N3965 X25.282 Y63.432
N3970 X25.297 Y63.415
N3975 X25.317 Y63.404
N3980 X25.339 Y63.4
N3985 X38.397
N3990 G3 X38.597 Y63.6 J0.2
N3995 G1 X38.596 Y77.998
N4000 G3 X38.396 Y78.198 I-0.2
N4005 G1 X18.606
N4010 G2 X18.59 Y78.598 J0.2
N4015 G1 X38.407 Y80.201
N4020 G3 X38.391 Y80.6 I-0.016 J0.199
N4025 G1 X32.603
N4030 X32.581 Y80.596
N4035 X32.561 Y80.585
N4040 X32.546 Y80.568
N4045 X32.456 Y80.427
N4050 X32.441 Y80.41
N4055 X32.421 Y80.399
N4060 X32.399 Y80.396
N4065 X27.995
N4070 X27.972 Y80.399
N4075 X27.952 Y80.41
N4080 X27.937 Y80.427
N4085 X27.848 Y80.568
N4090 X27.833 Y80.585
N4095 X27.813 Y80.596
N4100 X27.79 Y80.6
N4105 X18.603
N4110 G3 X17.178 Y79.175 Z-0.719 J-1.425 F100
N4115 G1 X17.176 Y72.02 Z-0.781
N4120 G3 X18.601 Y70.595 Z-0.8 I1.425
N4125 G1 X38.391 F800
N4130 G3 X38.591 Y70.794 J0.2
N4135 G1 X38.599 Y73.204
N4140 G3 X38.399 Y73.405 I-0.2 J0.001
N4145 G1 X18.609
N4150 G3 X18.409 Y73.205 J-0.2
N4155 G1 X18.411 Y68.398
N4160 G3 X18.611 Y68.198 I0.2
N4165 G1 X28.994
N4170 X32.612
N4175 X38.384
N4180 G3 X38.387 Y69.397 J0.599
N4185 G1 X35.623 Y69.409
N4190 X35.56 Y69.406
N4195 X35.498 Y69.397
N4200 X32.612 Y68.797
N4205 G3 X32.136 Y68.253 I0.122 J-0.587
N4210 G1 X32.007 Y66.443
N4215 G3 X32.605 Y65.802 I0.598 J-0.043
N4220 G1 X38.394
N4225 G3 X38.594 Y66.002 J0.2
N4230 G1 X38.589 Y75.602
N4235 G3 X38.389 Y75.802 I-0.2
N4240 G1 X18.616
N4245 G3 X18.416 Y75.602 J-0.2
N4250 G1 X18.404 Y66.002
N4255 G3 X18.604 Y65.802 I0.2
N4260 G1 X30.754
N4265 G3 Y67 J0.599
N4270 G1 X24.738 Y67.003
N4275 X24.718
N4280 X24.698 Y67.002
N4285 X24.679 Y67
N4290 X18.604 Y66.401
N4295 G3 X18.064 Y65.822 I0.059 J-0.596
N4300 G1 X18.01 Y64.017
N4305 G3 X18.609 Y63.4 I0.599 J-0.018
N4310 G1 X24.397
N4315 X24.419 Y63.404
N4320 X24.439 Y63.415
N4325 X24.454 Y63.432
N4330 X24.544 Y63.573
N4335 X24.559 Y63.59
N4340 X24.579 Y63.601
N4345 X24.601 Y63.604
N4350 X25.135
N4355 X25.157 Y63.601
N4360 X25.177 Y63.59
N4365 X25.192 Y63.573
N4370 X25.282 Y63.432
N4375 X25.297 Y63.415
N4380 X25.317 Y63.404
N4385 X25.339 Y63.4
N4390 X38.397
N4395 G3 X38.597 Y63.6 J0.2
N4400 G1 X38.596 Y77.998
N4405 G3 X38.396 Y78.198 I-0.2
N4410 G1 X18.606
N4415 G2 X18.59 Y78.598 J0.2
N4420 G1 X38.407 Y80.201
N4425 G3 X38.391 Y80.6 I-0.016 J0.199
N4430 G1 X32.603
N4435 X32.581 Y80.596
N4440 X32.561 Y80.585
N4445 X32.546 Y80.568
N4450 X32.456 Y80.427
N4455 X32.441 Y80.41
N4460 X32.421 Y80.399
N4465 X32.399 Y80.396
N4470 X27.995
N4475 X27.972 Y80.399
N4480 X27.952 Y80.41
N4485 X27.937 Y80.427
N4490 X27.848 Y80.568
N4495 X27.833 Y80.585
N4500 X27.813 Y80.596
N4505 X27.79 Y80.6
N4510 X18.603
N4515 G3 X17.178 Y79.175 Z-0.819 J-1.425 F100
N4520 G1 X17.176 Y72.02 Z-0.881
N4525 G3 X18.601 Y70.595 Z-0.9 I1.425
N4530 G1 X38.391 F800
N4535 G3 X38.591 Y70.794 J0.2
N4540 G1 X38.599 Y73.204
N4545 G3 X38.399 Y73.405 I-0.2 J0.001
N4550 G1 X18.609
N4555 G3 X18.409 Y73.205 J-0.2
N4560 G1 X18.411 Y68.398
N4565 G3 X18.611 Y68.198 I0.2
N4570 G1 X28.994
N4575 X32.612
N4580 X38.384
N4585 G3 X38.387 Y69.397 J0.599
N4590 G1 X35.623 Y69.409
N4595 X35.56 Y69.406
N4600 X35.498 Y69.397
N4605 X32.612 Y68.797
N4610 G3 X32.136 Y68.253 I0.122 J-0.587
N4615 G1 X32.007 Y66.443
N4620 G3 X32.605 Y65.802 I0.598 J-0.043
N4625 G1 X38.394
N4630 G3 X38.594 Y66.002 J0.2
N4635 G1 X38.589 Y75.602
N4640 G3 X38.389 Y75.802 I-0.2
N4645 G1 X18.616
N4650 G3 X18.416 Y75.602 J-0.2
N4655 G1 X18.404 Y66.002
N4660 G3 X18.604 Y65.802 I0.2
N4665 G1 X30.754
N4670 G3 Y67 J0.599
N4675 G1 X24.738 Y67.003
N4680 X24.718
N4685 X24.698 Y67.002
N4690 X24.679 Y67
N4695 X18.604 Y66.401
N4700 G3 X18.064 Y65.822 I0.059 J-0.596
N4705 G1 X18.01 Y64.017
N4710 G3 X18.609 Y63.4 I0.599 J-0.018
N4715 G1 X24.397
N4720 X24.419 Y63.404
N4725 X24.439 Y63.415
N4730 X24.454 Y63.432
N4735 X24.544 Y63.573
N4740 X24.559 Y63.59
N4745 X24.579 Y63.601
N4750 X24.601 Y63.604
N4755 X25.135
N4760 X25.157 Y63.601
N4765 X25.177 Y63.59
N4770 X25.192 Y63.573
N4775 X25.282 Y63.432
N4780 X25.297 Y63.415
N4785 X25.317 Y63.404
N4790 X25.339 Y63.4
N4795 X38.397
N4800 G3 X38.597 Y63.6 J0.2
N4805 G1 X38.596 Y77.998
N4810 G3 X38.396 Y78.198 I-0.2
N4815 G1 X18.606
N4820 G2 X18.59 Y78.598 J0.2
N4825 G1 X38.407 Y80.201
N4830 G3 X38.391 Y80.6 I-0.016 J0.199
N4835 G1 X32.603
N4840 X32.581 Y80.596
N4845 X32.561 Y80.585
N4850 X32.546 Y80.568
N4855 X32.456 Y80.427
N4860 X32.441 Y80.41
N4865 X32.421 Y80.399
N4870 X32.399 Y80.396
N4875 X27.995
N4880 X27.972 Y80.399
N4885 X27.952 Y80.41
N4890 X27.937 Y80.427
N4895 X27.848 Y80.568
N4900 X27.833 Y80.585
N4905 X27.813 Y80.596
N4910 X27.79 Y80.6
N4915 X18.603
N4920 G3 X17.178 Y79.175 Z-0.919 J-1.425 F100
N4925 G1 X17.176 Y72.02 Z-0.981
N4930 G3 X18.601 Y70.595 Z-1 I1.425
N4935 G1 X38.391 F800
N4940 G3 X38.591 Y70.794 J0.2
N4945 G1 X38.599 Y73.204
N4950 G3 X38.399 Y73.405 I-0.2 J0.001
N4955 G1 X18.609
N4960 G3 X18.409 Y73.205 J-0.2
N4965 G1 X18.411 Y68.398
N4970 G3 X18.611 Y68.198 I0.2
N4975 G1 X28.994
N4980 X32.612
N4985 X38.384
N4990 G3 X38.387 Y69.397 J0.599
N4995 G1 X35.623 Y69.409
N5000 X35.56 Y69.406
N5005 X35.498 Y69.397
N5010 X32.612 Y68.797
N5015 G3 X32.136 Y68.253 I0.122 J-0.587
N5020 G1 X32.007 Y66.443
N5025 G3 X32.605 Y65.802 I0.598 J-0.043
N5030 G1 X38.394
N5035 G3 X38.594 Y66.002 J0.2
N5040 G1 X38.589 Y75.602
N5045 G3 X38.389 Y75.802 I-0.2
N5050 G1 X18.616
N5055 G3 X18.416 Y75.602 J-0.2
N5060 G1 X18.404 Y66.002
N5065 G3 X18.604 Y65.802 I0.2
N5070 G1 X30.754
N5075 G3 Y67 J0.599
N5080 G1 X24.738 Y67.003
N5085 X24.718
N5090 X24.698 Y67.002
N5095 X24.679 Y67
N5100 X18.604 Y66.401
N5105 G3 X18.064 Y65.822 I0.059 J-0.596
N5110 G1 X18.01 Y64.017
N5115 G3 X18.609 Y63.4 I0.599 J-0.018
N5120 G1 X24.397
N5125 X24.419 Y63.404
N5130 X24.439 Y63.415
N5135 X24.454 Y63.432
N5140 X24.544 Y63.573
N5145 X24.559 Y63.59
N5150 X24.579 Y63.601
N5155 X24.601 Y63.604
N5160 X25.135
N5165 X25.157 Y63.601
N5170 X25.177 Y63.59
N5175 X25.192 Y63.573
N5180 X25.282 Y63.432
N5185 X25.297 Y63.415
N5190 X25.317 Y63.404
N5195 X25.339 Y63.4
N5200 X38.397
N5205 G3 X38.597 Y63.6 J0.2
N5210 G1 X38.596 Y77.998
N5215 G3 X38.396 Y78.198 I-0.2
N5220 G1 X18.606
N5225 G2 X18.59 Y78.598 J0.2
N5230 G1 X38.407 Y80.201
N5235 G3 X38.391 Y80.6 I-0.016 J0.199
N5240 G1 X32.603
N5245 X32.581 Y80.596
N5250 X32.561 Y80.585
N5255 X32.546 Y80.568
N5260 X32.456 Y80.427
N5265 X32.441 Y80.41
N5270 X32.421 Y80.399
N5275 X32.399 Y80.396
N5280 X27.995
N5285 X27.972 Y80.399
N5290 X27.952 Y80.41
N5295 X27.937 Y80.427
N5300 X27.848 Y80.568
N5305 X27.833 Y80.585
N5310 X27.813 Y80.596
N5315 X27.79 Y80.6
N5320 X18.603
N5325 G3 X17.178 Y79.175 Z-1.019 J-1.425 F100
N5330 G1 X17.176 Y72.02 Z-1.081
N5335 G3 X18.601 Y70.595 Z-1.1 I1.425
N5340 G1 X38.391 F800
N5345 G3 X38.591 Y70.794 J0.2
N5350 G1 X38.599 Y73.204
N5355 G3 X38.399 Y73.405 I-0.2 J0.001
N5360 G1 X18.609
N5365 G3 X18.409 Y73.205 J-0.2
N5370 G1 X18.411 Y68.398
N5375 G3 X18.611 Y68.198 I0.2
N5380 G1 X28.994
N5385 X32.612
N5390 X38.384
N5395 G3 X38.387 Y69.397 J0.599
N5400 G1 X35.623 Y69.409
N5405 X35.56 Y69.406
N5410 X35.498 Y69.397
N5415 X32.612 Y68.797
N5420 G3 X32.136 Y68.253 I0.122 J-0.587
N5425 G1 X32.007 Y66.443
N5430 G3 X32.605 Y65.802 I0.598 J-0.043
N5435 G1 X38.394
N5440 G3 X38.594 Y66.002 J0.2
N5445 G1 X38.589 Y75.602
N5450 G3 X38.389 Y75.802 I-0.2
N5455 G1 X18.616
N5460 G3 X18.416 Y75.602 J-0.2
N5465 G1 X18.404 Y66.002
N5470 G3 X18.604 Y65.802 I0.2
N5475 G1 X30.754
N5480 G3 Y67 J0.599
N5485 G1 X24.738 Y67.003
N5490 X24.718
N5495 X24.698 Y67.002
N5500 X24.679 Y67
N5505 X18.604 Y66.401
N5510 G3 X18.064 Y65.822 I0.059 J-0.596
N5515 G1 X18.01 Y64.017
N5520 G3 X18.609 Y63.4 I0.599 J-0.018
N5525 G1 X24.397
N5530 X24.419 Y63.404
N5535 X24.439 Y63.415
N5540 X24.454 Y63.432
N5545 X24.544 Y63.573
N5550 X24.559 Y63.59
N5555 X24.579 Y63.601
N5560 X24.601 Y63.604
N5565 X25.135
N5570 X25.157 Y63.601
N5575 X25.177 Y63.59
N5580 X25.192 Y63.573
N5585 X25.282 Y63.432
N5590 X25.297 Y63.415
N5595 X25.317 Y63.404
N5600 X25.339 Y63.4
N5605 X38.397
N5610 G3 X38.597 Y63.6 J0.2
N5615 G1 X38.596 Y77.998
N5620 G3 X38.396 Y78.198 I-0.2
N5625 G1 X18.606
N5630 G2 X18.59 Y78.598 J0.2
N5635 G1 X38.407 Y80.201
N5640 G3 X38.391 Y80.6 I-0.016 J0.199
N5645 G1 X32.603
N5650 X32.581 Y80.596
N5655 X32.561 Y80.585
N5660 X32.546 Y80.568
N5665 X32.456 Y80.427
N5670 X32.441 Y80.41
N5675 X32.421 Y80.399
N5680 X32.399 Y80.396
N5685 X27.995
N5690 X27.972 Y80.399
N5695 X27.952 Y80.41
N5700 X27.937 Y80.427
N5705 X27.848 Y80.568
N5710 X27.833 Y80.585
N5715 X27.813 Y80.596
N5720 X27.79 Y80.6
N5725 X18.603
N5730 G3 X17.178 Y79.175 Z-1.119 J-1.425 F100
N5735 G1 X17.176 Y72.02 Z-1.181
N5740 G3 X18.601 Y70.595 Z-1.2 I1.425
N5745 G1 X38.391 F800
N5750 G3 X38.591 Y70.794 J0.2
N5755 G1 X38.599 Y73.204
N5760 G3 X38.399 Y73.405 I-0.2 J0.001
N5765 G1 X18.609
N5770 G3 X18.409 Y73.205 J-0.2
N5775 G1 X18.411 Y68.398
N5780 G3 X18.611 Y68.198 I0.2
N5785 G1 X28.994
N5790 X32.612
N5795 X38.384
N5800 G3 X38.387 Y69.397 J0.599
N5805 G1 X35.623 Y69.409
N5810 X35.56 Y69.406
N5815 X35.498 Y69.397
N5820 X32.612 Y68.797
N5825 G3 X32.136 Y68.253 I0.122 J-0.587
N5830 G1 X32.007 Y66.443
N5835 G3 X32.605 Y65.802 I0.598 J-0.043
N5840 G1 X38.394
N5845 G3 X38.594 Y66.002 J0.2
N5850 G1 X38.589 Y75.602
N5855 G3 X38.389 Y75.802 I-0.2
N5860 G1 X18.616
N5865 G3 X18.416 Y75.602 J-0.2
N5870 G1 X18.404 Y66.002
N5875 G3 X18.604 Y65.802 I0.2
N5880 G1 X30.754
N5885 G3 Y67 J0.599
N5890 G1 X24.738 Y67.003
N5895 X24.718
N5900 X24.698 Y67.002
N5905 X24.679 Y67
N5910 X18.604 Y66.401
N5915 G3 X18.064 Y65.822 I0.059 J-0.596
N5920 G1 X18.01 Y64.017
N5925 G3 X18.609 Y63.4 I0.599 J-0.018
N5930 G1 X24.397
N5935 X24.419 Y63.404
N5940 X24.439 Y63.415
N5945 X24.454 Y63.432
N5950 X24.544 Y63.573
N5955 X24.559 Y63.59
N5960 X24.579 Y63.601
N5965 X24.601 Y63.604
N5970 X25.135
N5975 X25.157 Y63.601
N5980 X25.177 Y63.59
N5985 X25.192 Y63.573
N5990 X25.282 Y63.432
N5995 X25.297 Y63.415
N6000 X25.317 Y63.404
N6005 X25.339 Y63.4
N6010 X38.397
N6015 G3 X38.597 Y63.6 J0.2
N6020 G1 X38.596 Y77.998
N6025 G3 X38.396 Y78.198 I-0.2
N6030 G1 X18.606
N6035 G2 X18.59 Y78.598 J0.2
N6040 G1 X38.407 Y80.201
N6045 G3 X38.391 Y80.6 I-0.016 J0.199
N6050 G1 X32.603
N6055 X32.581 Y80.596
N6060 X32.561 Y80.585
N6065 X32.546 Y80.568
N6070 X32.456 Y80.427
N6075 X32.441 Y80.41
N6080 X32.421 Y80.399
N6085 X32.399 Y80.396
N6090 X27.995
N6095 X27.972 Y80.399
N6100 X27.952 Y80.41
N6105 X27.937 Y80.427
N6110 X27.848 Y80.568
N6115 X27.833 Y80.585
N6120 X27.813 Y80.596
N6125 X27.79 Y80.6
N6130 X18.603
N6135 G3 X17.178 Y79.175 Z-1.219 J-1.425 F100
N6140 G1 X17.176 Y72.02 Z-1.281
N6145 G3 X18.601 Y70.595 Z-1.3 I1.425
N6150 G1 X38.391 F800
N6155 G3 X38.591 Y70.794 J0.2
N6160 G1 X38.599 Y73.204
N6165 G3 X38.399 Y73.405 I-0.2 J0.001
N6170 G1 X18.609
N6175 G3 X18.409 Y73.205 J-0.2
N6180 G1 X18.411 Y68.398
N6185 G3 X18.611 Y68.198 I0.2
N6190 G1 X28.994
N6195 X32.612
N6200 X38.384
N6205 G3 X38.387 Y69.397 J0.599
N6210 G1 X35.623 Y69.409
N6215 X35.56 Y69.406
N6220 X35.498 Y69.397
N6225 X32.612 Y68.797
N6230 G3 X32.136 Y68.253 I0.122 J-0.587
N6235 G1 X32.007 Y66.443
N6240 G3 X32.605 Y65.802 I0.598 J-0.043
N6245 G1 X38.394
N6250 G3 X38.594 Y66.002 J0.2
N6255 G1 X38.589 Y75.602
N6260 G3 X38.389 Y75.802 I-0.2
N6265 G1 X18.616
N6270 G3 X18.416 Y75.602 J-0.2
N6275 G1 X18.404 Y66.002
N6280 G3 X18.604 Y65.802 I0.2
N6285 G1 X30.754
N6290 G3 Y67 J0.599
N6295 G1 X24.738 Y67.003
N6300 X24.718
N6305 X24.698 Y67.002
N6310 X24.679 Y67
N6315 X18.604 Y66.401
N6320 G3 X18.064 Y65.822 I0.059 J-0.596
N6325 G1 X18.01 Y64.017
N6330 G3 X18.609 Y63.4 I0.599 J-0.018
N6335 G1 X24.397
N6340 X24.419 Y63.404
N6345 X24.439 Y63.415
N6350 X24.454 Y63.432
N6355 X24.544 Y63.573
N6360 X24.559 Y63.59
N6365 X24.579 Y63.601
N6370 X24.601 Y63.604
N6375 X25.135
N6380 X25.157 Y63.601
N6385 X25.177 Y63.59
N6390 X25.192 Y63.573
N6395 X25.282 Y63.432
N6400 X25.297 Y63.415
N6405 X25.317 Y63.404
N6410 X25.339 Y63.4
N6415 X38.397
N6420 G3 X38.597 Y63.6 J0.2
N6425 G1 X38.596 Y77.998
N6430 G3 X38.396 Y78.198 I-0.2
N6435 G1 X18.606
N6440 G2 X18.59 Y78.598 J0.2
N6445 G1 X38.407 Y80.201
N6450 G3 X38.391 Y80.6 I-0.016 J0.199
N6455 G1 X32.603
N6460 X32.581 Y80.596
N6465 X32.561 Y80.585
N6470 X32.546 Y80.568
N6475 X32.456 Y80.427
N6480 X32.441 Y80.41
N6485 X32.421 Y80.399
N6490 X32.399 Y80.396
N6495 X27.995
N6500 X27.972 Y80.399
N6505 X27.952 Y80.41
N6510 X27.937 Y80.427
N6515 X27.848 Y80.568
N6520 X27.833 Y80.585
N6525 X27.813 Y80.596
N6530 X27.79 Y80.6
N6535 X18.603
N6540 G3 X17.178 Y79.175 Z-1.319 J-1.425 F100
N6545 G1 X17.176 Y72.02 Z-1.381
N6550 G3 X18.601 Y70.595 Z-1.4 I1.425
N6555 G1 X38.391 F800
N6560 G3 X38.591 Y70.794 J0.2
N6565 G1 X38.599 Y73.204
N6570 G3 X38.399 Y73.405 I-0.2 J0.001
N6575 G1 X18.609
N6580 G3 X18.409 Y73.205 J-0.2
N6585 G1 X18.411 Y68.398
N6590 G3 X18.611 Y68.198 I0.2
N6595 G1 X28.994
N6600 X32.612
N6605 X38.384
N6610 G3 X38.387 Y69.397 J0.599
N6615 G1 X35.623 Y69.409
N6620 X35.56 Y69.406
N6625 X35.498 Y69.397
N6630 X32.612 Y68.797
N6635 G3 X32.136 Y68.253 I0.122 J-0.587
N6640 G1 X32.007 Y66.443
N6645 G3 X32.605 Y65.802 I0.598 J-0.043
N6650 G1 X38.394
N6655 G3 X38.594 Y66.002 J0.2
N6660 G1 X38.589 Y75.602
N6665 G3 X38.389 Y75.802 I-0.2
N6670 G1 X18.616
N6675 G3 X18.416 Y75.602 J-0.2
N6680 G1 X18.404 Y66.002
N6685 G3 X18.604 Y65.802 I0.2
N6690 G1 X30.754
N6695 G3 Y67 J0.599
N6700 G1 X24.738 Y67.003
N6705 X24.718
N6710 X24.698 Y67.002
N6715 X24.679 Y67
N6720 X18.604 Y66.401
N6725 G3 X18.064 Y65.822 I0.059 J-0.596
N6730 G1 X18.01 Y64.017
N6735 G3 X18.609 Y63.4 I0.599 J-0.018
N6740 G1 X24.397
N6745 X24.419 Y63.404
N6750 X24.439 Y63.415
N6755 X24.454 Y63.432
N6760 X24.544 Y63.573
N6765 X24.559 Y63.59
N6770 X24.579 Y63.601
N6775 X24.601 Y63.604
N6780 X25.135
N6785 X25.157 Y63.601
N6790 X25.177 Y63.59
N6795 X25.192 Y63.573
N6800 X25.282 Y63.432
N6805 X25.297 Y63.415
N6810 X25.317 Y63.404
N6815 X25.339 Y63.4
N6820 X38.397
N6825 G3 X38.597 Y63.6 J0.2
N6830 G1 X38.596 Y77.998
N6835 G3 X38.396 Y78.198 I-0.2
N6840 G1 X18.606
N6845 G2 X18.59 Y78.598 J0.2
N6850 G1 X38.407 Y80.201
N6855 G3 X38.391 Y80.6 I-0.016 J0.199
N6860 G1 X32.603
N6865 X32.581 Y80.596
N6870 X32.561 Y80.585
N6875 X32.546 Y80.568
N6880 X32.456 Y80.427
N6885 X32.441 Y80.41
N6890 X32.421 Y80.399
N6895 X32.399 Y80.396
N6900 X27.995
N6905 X27.972 Y80.399
N6910 X27.952 Y80.41
N6915 X27.937 Y80.427
N6920 X27.848 Y80.568
N6925 X27.833 Y80.585
N6930 X27.813 Y80.596
N6935 X27.79 Y80.6
N6940 X18.603
N6945 G3 X17.178 Y79.175 Z-1.419 J-1.425 F100
N6950 G1 X17.176 Y72.02 Z-1.481
N6955 G3 X18.601 Y70.595 Z-1.5 I1.425
N6960 G1 X38.391 F800
N6965 G3 X38.591 Y70.794 J0.2
N6970 G1 X38.599 Y73.204
N6975 G3 X38.399 Y73.405 I-0.2 J0.001
N6980 G1 X18.609
N6985 G3 X18.409 Y73.205 J-0.2
N6990 G1 X18.411 Y68.398
N6995 G3 X18.611 Y68.198 I0.2
N7000 G1 X28.994
N7005 X32.612
N7010 X38.384
N7015 G3 X38.387 Y69.397 J0.599
N7020 G1 X35.623 Y69.409
N7025 X35.56 Y69.406
N7030 X35.498 Y69.397
N7035 X32.612 Y68.797
N7040 G3 X32.136 Y68.253 I0.122 J-0.587
N7045 G1 X32.007 Y66.443
N7050 G3 X32.605 Y65.802 I0.598 J-0.043
N7055 G1 X38.394
N7060 G3 X38.594 Y66.002 J0.2
N7065 G1 X38.589 Y75.602
N7070 G3 X38.389 Y75.802 I-0.2
N7075 G1 X18.616
N7080 G3 X18.416 Y75.602 J-0.2
N7085 G1 X18.404 Y66.002
N7090 G3 X18.604 Y65.802 I0.2
N7095 G1 X30.754
N7100 G3 Y67 J0.599
N7105 G1 X24.738 Y67.003
N7110 X24.718
N7115 X24.698 Y67.002
N7120 X24.679 Y67
N7125 X18.604 Y66.401
N7130 G3 X18.064 Y65.822 I0.059 J-0.596
N7135 G1 X18.01 Y64.017
N7140 G3 X18.609 Y63.4 I0.599 J-0.018
N7145 G1 X24.397
N7150 X24.419 Y63.404
N7155 X24.439 Y63.415
N7160 X24.454 Y63.432
N7165 X24.544 Y63.573
N7170 X24.559 Y63.59
N7175 X24.579 Y63.601
N7180 X24.601 Y63.604
N7185 X25.135
N7190 X25.157 Y63.601
N7195 X25.177 Y63.59
N7200 X25.192 Y63.573
N7205 X25.282 Y63.432
N7210 X25.297 Y63.415
N7215 X25.317 Y63.404
N7220 X25.339 Y63.4
N7225 X38.397
N7230 G3 X38.597 Y63.6 J0.2
N7235 G1 X38.596 Y77.998
N7240 G3 X38.396 Y78.198 I-0.2
N7245 G1 X18.606
N7250 G2 X18.59 Y78.598 J0.2
N7255 G1 X38.407 Y80.201
N7260 G3 X38.391 Y80.6 I-0.016 J0.199
N7265 G1 X32.603
N7270 X32.581 Y80.596
N7275 X32.561 Y80.585
N7280 X32.546 Y80.568
N7285 X32.456 Y80.427
N7290 X32.441 Y80.41
N7295 X32.421 Y80.399
N7300 X32.399 Y80.396
N7305 X27.995
N7310 X27.972 Y80.399
N7315 X27.952 Y80.41
N7320 X27.937 Y80.427
N7325 X27.848 Y80.568
N7330 X27.833 Y80.585
N7335 X27.813 Y80.596
N7340 X27.79 Y80.6
N7345 X18.603
N7350 X18.556 Y80.596
N7355 X17.804 Y80.477
N7360 X17.738 Y80.467 Z-1.492
N7365 X17.675 Y80.457 Z-1.47
N7370 X17.619 Y80.448 Z-1.435
N7375 X17.572 Y80.44 Z-1.387
N7380 X17.537 Y80.435 Z-1.33
N7385 X17.515 Y80.431 Z-1.267
N7390 X17.508 Y80.43 Z-1.2
N7395 G0 Z2.3
N7400 X38.78 Y94.451
N7405 G1 Z0.5 F100
N7410 G18 G2 X39.08 Z0.2 I0.3 F50
N7415 G1 X39.884
N7420 X59.674 F800
N7425 G17 G3 X59.874 Y94.65 J0.2
N7430 G1 X59.882 Y97.06
N7435 G3 X59.682 Y97.261 I-0.2 J0.001
N7440 G1 X39.891
N7445 G3 X39.692 Y97.061 J-0.2
N7450 G1 X39.693 Y92.254
N7455 G3 X39.893 Y92.054 I0.2
N7460 G1 X59.667
N7465 G3 X59.867 Y92.254 J0.2
N7470 G1 X59.872 Y99.458
N7475 G3 X59.672 Y99.658 I-0.2
N7480 G1 X50.029
N7485 X45.671
N7490 X39.898
N7495 G3 X39.896 Y98.459 J-0.599
N7500 G1 X42.66 Y98.447
N7505 X42.723 Y98.45
N7510 X42.785 Y98.459
N7515 X45.671 Y99.059
N7520 G3 X46.147 Y99.603 I-0.122 J0.587
N7525 G1 X46.275 Y101.413
N7530 G3 X45.678 Y102.054 I-0.598 J0.043
N7535 G1 X39.889
N7540 G3 X39.886 Y100.856 J-0.599
N7545 G1 X42.659 Y100.844
N7550 X42.721 Y100.847
N7555 X42.783 Y100.856
N7560 X45.678 Y101.455
N7565 G3 X46.154 Y102.002 I-0.121 J0.587
N7570 G1 X46.275 Y103.817
N7575 G3 X45.677 Y104.456 I-0.598 J0.04
N7580 G1 X39.886
N7585 G3 X39.686 Y104.256 J-0.2
N7590 G1 Y89.858
N7595 G3 X39.886 Y89.658 I0.2
N7600 G1 X59.677
N7605 G3 X59.877 Y89.858 J0.2
N7610 G1 X59.879 Y101.854
N7615 G3 X59.679 Y102.054 I-0.2
N7620 G1 X48.64
N7625 G3 X48.639 Y100.856 J-0.599
N7630 G1 X54.094 Y100.853
N7635 X54.116
N7640 X54.138 Y100.854
N7645 X54.159 Y100.856
N7650 X59.679 Y101.455
N7655 G3 X60.213 Y102.031 I-0.065 J0.596
N7660 G1 X60.273 Y103.837
N7665 G3 X59.674 Y104.456 I-0.599 J0.02
N7670 G1 X47.259
N7675 G3 X47.062 Y104.218 J-0.2
N7680 G1 X50.296 Y87.418
N7685 G3 X50.493 Y87.256 I0.196 J0.038
N7690 G1 X59.68
N7695 G3 Y87.656 J0.2
N7700 G1 X39.892
N7705 G3 Y87.256 J-0.2
N7710 G1 X45.68
N7715 G3 X46.017 Y90.066 Z0.172 J1.425 F100
N7720 G1 X39.546 Y91.641 Z0.128
N7725 G2 X39.884 Y94.451 Z0.1 I0.337 J1.385
N7730 G1 X59.674 F800
N7735 G3 X59.874 Y94.65 J0.2
N7740 G1 X59.882 Y97.06
N7745 G3 X59.682 Y97.261 I-0.2 J0.001
N7750 G1 X39.891
N7755 G3 X39.692 Y97.061 J-0.2
N7760 G1 X39.693 Y92.254
N7765 G3 X39.893 Y92.054 I0.2
N7770 G1 X59.667
N7775 G3 X59.867 Y92.254 J0.2
N7780 G1 X59.872 Y99.458
N7785 G3 X59.672 Y99.658 I-0.2
N7790 G1 X50.029
N7795 X45.671
N7800 X39.898
N7805 G3 X39.896 Y98.459 J-0.599
N7810 G1 X42.66 Y98.447
N7815 X42.723 Y98.45
N7820 X42.785 Y98.459
N7825 X45.671 Y99.059
N7830 G3 X46.147 Y99.603 I-0.122 J0.587
N7835 G1 X46.275 Y101.413
N7840 G3 X45.678 Y102.054 I-0.598 J0.043
N7845 G1 X39.889
N7850 G3 X39.886 Y100.856 J-0.599
N7855 G1 X42.659 Y100.844
N7860 X42.721 Y100.847
N7865 X42.783 Y100.856
N7870 X45.678 Y101.455
N7875 G3 X46.154 Y102.002 I-0.121 J0.587
N7880 G1 X46.275 Y103.817
N7885 G3 X45.677 Y104.456 I-0.598 J0.04
N7890 G1 X39.886
N7895 G3 X39.686 Y104.256 J-0.2
N7900 G1 Y89.858
N7905 G3 X39.886 Y89.658 I0.2
N7910 G1 X59.677
N7915 G3 X59.877 Y89.858 J0.2
N7920 G1 X59.879 Y101.854
N7925 G3 X59.679 Y102.054 I-0.2
N7930 G1 X48.64
N7935 G3 X48.639 Y100.856 J-0.599
N7940 G1 X54.094 Y100.853
N7945 X54.116
N7950 X54.138 Y100.854
N7955 X54.159 Y100.856
N7960 X59.679 Y101.455
N7965 G3 X60.213 Y102.031 I-0.065 J0.596
N7970 G1 X60.273 Y103.837
N7975 G3 X59.674 Y104.456 I-0.599 J0.02
N7980 G1 X47.259
N7985 G3 X47.062 Y104.218 J-0.2
N7990 G1 X50.296 Y87.418
N7995 G3 X50.493 Y87.256 I0.196 J0.038
N8000 G1 X59.68
N8005 G3 Y87.656 J0.2
N8010 G1 X39.892
N8015 G3 Y87.256 J-0.2
N8020 G1 X45.68
N8025 G3 X46.017 Y90.066 Z0.072 J1.425 F100
N8030 G1 X39.546 Y91.641 Z0.028
N8035 G2 X39.884 Y94.451 Z0 I0.337 J1.385
N8040 G1 X59.674 F800
N8045 G3 X59.874 Y94.65 J0.2
N8050 G1 X59.882 Y97.06
N8055 G3 X59.682 Y97.261 I-0.2 J0.001
N8060 G1 X39.891
N8065 G3 X39.692 Y97.061 J-0.2
N8070 G1 X39.693 Y92.254
N8075 G3 X39.893 Y92.054 I0.2
N8080 G1 X59.667
N8085 G3 X59.867 Y92.254 J0.2
N8090 G1 X59.872 Y99.458
N8095 G3 X59.672 Y99.658 I-0.2
N8100 G1 X50.029
N8105 X45.671
N8110 X39.898
N8115 G3 X39.896 Y98.459 J-0.599
N8120 G1 X42.66 Y98.447
N8125 X42.723 Y98.45
N8130 X42.785 Y98.459
N8135 X45.671 Y99.059
N8140 G3 X46.147 Y99.603 I-0.122 J0.587
N8145 G1 X46.275 Y101.413
N8150 G3 X45.678 Y102.054 I-0.598 J0.043
N8155 G1 X39.889
N8160 G3 X39.886 Y100.856 J-0.599
N8165 G1 X42.659 Y100.844
N8170 X42.721 Y100.847
N8175 X42.783 Y100.856
N8180 X45.678 Y101.455
N8185 G3 X46.154 Y102.002 I-0.121 J0.587
N8190 G1 X46.275 Y103.817
N8195 G3 X45.677 Y104.456 I-0.598 J0.04
N8200 G1 X39.886
N8205 G3 X39.686 Y104.256 J-0.2
N8210 G1 Y89.858
N8215 G3 X39.886 Y89.658 I0.2
N8220 G1 X59.677
N8225 G3 X59.877 Y89.858 J0.2
N8230 G1 X59.879 Y101.854
N8235 G3 X59.679 Y102.054 I-0.2
N8240 G1 X48.64
N8245 G3 X48.639 Y100.856 J-0.599
N8250 G1 X54.094 Y100.853
N8255 X54.116
N8260 X54.138 Y100.854
N8265 X54.159 Y100.856
N8270 X59.679 Y101.455
N8275 G3 X60.213 Y102.031 I-0.065 J0.596
N8280 G1 X60.273 Y103.837
N8285 G3 X59.674 Y104.456 I-0.599 J0.02
N8290 G1 X47.259
N8295 G3 X47.062 Y104.218 J-0.2
N8300 G1 X50.296 Y87.418
N8305 G3 X50.493 Y87.256 I0.196 J0.038
N8310 G1 X59.68
N8315 G3 Y87.656 J0.2
N8320 G1 X39.892
N8325 G3 Y87.256 J-0.2
N8330 G1 X45.68
N8335 G3 X46.017 Y90.066 Z-0.028 J1.425 F100
N8340 G1 X39.546 Y91.641 Z-0.072
N8345 G2 X39.884 Y94.451 Z-0.1 I0.337 J1.385
N8350 G1 X59.674 F800
N8355 G3 X59.874 Y94.65 J0.2
N8360 G1 X59.882 Y97.06
N8365 G3 X59.682 Y97.261 I-0.2 J0.001
N8370 G1 X39.891
N8375 G3 X39.692 Y97.061 J-0.2
N8380 G1 X39.693 Y92.254
N8385 G3 X39.893 Y92.054 I0.2
N8390 G1 X59.667
N8395 G3 X59.867 Y92.254 J0.2
N8400 G1 X59.872 Y99.458
N8405 G3 X59.672 Y99.658 I-0.2
N8410 G1 X50.029
N8415 X45.671
N8420 X39.898
N8425 G3 X39.896 Y98.459 J-0.599
N8430 G1 X42.66 Y98.447
N8435 X42.723 Y98.45
N8440 X42.785 Y98.459
N8445 X45.671 Y99.059
N8450 G3 X46.147 Y99.603 I-0.122 J0.587
N8455 G1 X46.275 Y101.413
N8460 G3 X45.678 Y102.054 I-0.598 J0.043
N8465 G1 X39.889
N8470 G3 X39.886 Y100.856 J-0.599
N8475 G1 X42.659 Y100.844
N8480 X42.721 Y100.847
N8485 X42.783 Y100.856
N8490 X45.678 Y101.455
N8495 G3 X46.154 Y102.002 I-0.121 J0.587
N8500 G1 X46.275 Y103.817
N8505 G3 X45.677 Y104.456 I-0.598 J0.04
N8510 G1 X39.886
N8515 G3 X39.686 Y104.256 J-0.2
N8520 G1 Y89.858
N8525 G3 X39.886 Y89.658 I0.2
N8530 G1 X59.677
N8535 G3 X59.877 Y89.858 J0.2
N8540 G1 X59.879 Y101.854
N8545 G3 X59.679 Y102.054 I-0.2
N8550 G1 X48.64
N8555 G3 X48.639 Y100.856 J-0.599
N8560 G1 X54.094 Y100.853
N8565 X54.116
N8570 X54.138 Y100.854
N8575 X54.159 Y100.856
N8580 X59.679 Y101.455
N8585 G3 X60.213 Y102.031 I-0.065 J0.596
N8590 G1 X60.273 Y103.837
N8595 G3 X59.674 Y104.456 I-0.599 J0.02
N8600 G1 X47.259
N8605 G3 X47.062 Y104.218 J-0.2
N8610 G1 X50.296 Y87.418
N8615 G3 X50.493 Y87.256 I0.196 J0.038
N8620 G1 X59.68
N8625 G3 Y87.656 J0.2
N8630 G1 X39.892
N8635 G3 Y87.256 J-0.2
N8640 G1 X45.68
N8645 G3 X46.017 Y90.066 Z-0.128 J1.425 F100
N8650 G1 X39.546 Y91.641 Z-0.172
N8655 G2 X39.884 Y94.451 Z-0.2 I0.337 J1.385
N8660 G1 X59.674 F800
N8665 G3 X59.874 Y94.65 J0.2
N8670 G1 X59.882 Y97.06
N8675 G3 X59.682 Y97.261 I-0.2 J0.001
N8680 G1 X39.891
N8685 G3 X39.692 Y97.061 J-0.2
N8690 G1 X39.693 Y92.254
N8695 G3 X39.893 Y92.054 I0.2
N8700 G1 X59.667
N8705 G3 X59.867 Y92.254 J0.2
N8710 G1 X59.872 Y99.458
N8715 G3 X59.672 Y99.658 I-0.2
N8720 G1 X50.029
N8725 X45.671
N8730 X39.898
N8735 G3 X39.896 Y98.459 J-0.599
N8740 G1 X42.66 Y98.447
N8745 X42.723 Y98.45
N8750 X42.785 Y98.459
N8755 X45.671 Y99.059
N8760 G3 X46.147 Y99.603 I-0.122 J0.587
N8765 G1 X46.275 Y101.413
N8770 G3 X45.678 Y102.054 I-0.598 J0.043
N8775 G1 X39.889
N8780 G3 X39.886 Y100.856 J-0.599
N8785 G1 X42.659 Y100.844
N8790 X42.721 Y100.847
N8795 X42.783 Y100.856
N8800 X45.678 Y101.455
N8805 G3 X46.154 Y102.002 I-0.121 J0.587
N8810 G1 X46.275 Y103.817
N8815 G3 X45.677 Y104.456 I-0.598 J0.04
N8820 G1 X39.886
N8825 G3 X39.686 Y104.256 J-0.2
N8830 G1 Y89.858
N8835 G3 X39.886 Y89.658 I0.2
N8840 G1 X59.677
N8845 G3 X59.877 Y89.858 J0.2
N8850 G1 X59.879 Y101.854
N8855 G3 X59.679 Y102.054 I-0.2
N8860 G1 X48.64
N8865 G3 X48.639 Y100.856 J-0.599
N8870 G1 X54.094 Y100.853
N8875 X54.116
N8880 X54.138 Y100.854
N8885 X54.159 Y100.856
N8890 X59.679 Y101.455
N8895 G3 X60.213 Y102.031 I-0.065 J0.596
N8900 G1 X60.273 Y103.837
N8905 G3 X59.674 Y104.456 I-0.599 J0.02
N8910 G1 X47.259
N8915 G3 X47.062 Y104.218 J-0.2
N8920 G1 X50.296 Y87.418
N8925 G3 X50.493 Y87.256 I0.196 J0.038
N8930 G1 X59.68
N8935 G3 Y87.656 J0.2
N8940 G1 X39.892
N8945 G3 Y87.256 J-0.2
N8950 G1 X45.68
N8955 G3 X46.017 Y90.066 Z-0.228 J1.425 F100
N8960 G1 X39.546 Y91.641 Z-0.272
N8965 G2 X39.884 Y94.451 Z-0.3 I0.337 J1.385
N8970 G1 X59.674 F800
N8975 G3 X59.874 Y94.65 J0.2
N8980 G1 X59.882 Y97.06
N8985 G3 X59.682 Y97.261 I-0.2 J0.001
N8990 G1 X39.891
N8995 G3 X39.692 Y97.061 J-0.2
N9000 G1 X39.693 Y92.254
N9005 G3 X39.893 Y92.054 I0.2
N9010 G1 X59.667
N9015 G3 X59.867 Y92.254 J0.2
N9020 G1 X59.872 Y99.458
N9025 G3 X59.672 Y99.658 I-0.2
N9030 G1 X50.029
N9035 X45.671
N9040 X39.898
N9045 G3 X39.896 Y98.459 J-0.599
N9050 G1 X42.66 Y98.447
N9055 X42.723 Y98.45
N9060 X42.785 Y98.459
N9065 X45.671 Y99.059
N9070 G3 X46.147 Y99.603 I-0.122 J0.587
N9075 G1 X46.275 Y101.413
N9080 G3 X45.678 Y102.054 I-0.598 J0.043
N9085 G1 X39.889
N9090 G3 X39.886 Y100.856 J-0.599
N9095 G1 X42.659 Y100.844
N9100 X42.721 Y100.847
N9105 X42.783 Y100.856
N9110 X45.678 Y101.455
N9115 G3 X46.154 Y102.002 I-0.121 J0.587
N9120 G1 X46.275 Y103.817
N9125 G3 X45.677 Y104.456 I-0.598 J0.04
N9130 G1 X39.886
N9135 G3 X39.686 Y104.256 J-0.2
N9140 G1 Y89.858
N9145 G3 X39.886 Y89.658 I0.2
N9150 G1 X59.677
N9155 G3 X59.877 Y89.858 J0.2
N9160 G1 X59.879 Y101.854
N9165 G3 X59.679 Y102.054 I-0.2
N9170 G1 X48.64
N9175 G3 X48.639 Y100.856 J-0.599
N9180 G1 X54.094 Y100.853
N9185 X54.116
N9190 X54.138 Y100.854
N9195 X54.159 Y100.856
N9200 X59.679 Y101.455
N9205 G3 X60.213 Y102.031 I-0.065 J0.596
N9210 G1 X60.273 Y103.837
N9215 G3 X59.674 Y104.456 I-0.599 J0.02
N9220 G1 X47.259
N9225 G3 X47.062 Y104.218 J-0.2
N9230 G1 X50.296 Y87.418
N9235 G3 X50.493 Y87.256 I0.196 J0.038
N9240 G1 X59.68
N9245 G3 Y87.656 J0.2
N9250 G1 X39.892
N9255 G3 Y87.256 J-0.2
N9260 G1 X45.68
N9265 G3 X46.017 Y90.066 Z-0.328 J1.425 F100
N9270 G1 X39.546 Y91.641 Z-0.372
N9275 G2 X39.884 Y94.451 Z-0.4 I0.337 J1.385
N9280 G1 X59.674 F800
N9285 G3 X59.874 Y94.65 J0.2
N9290 G1 X59.882 Y97.06
N9295 G3 X59.682 Y97.261 I-0.2 J0.001
N9300 G1 X39.891
N9305 G3 X39.692 Y97.061 J-0.2
N9310 G1 X39.693 Y92.254
N9315 G3 X39.893 Y92.054 I0.2
N9320 G1 X59.667
N9325 G3 X59.867 Y92.254 J0.2
N9330 G1 X59.872 Y99.458
N9335 G3 X59.672 Y99.658 I-0.2
N9340 G1 X50.029
N9345 X45.671
N9350 X39.898
N9355 G3 X39.896 Y98.459 J-0.599
N9360 G1 X42.66 Y98.447
N9365 X42.723 Y98.45
N9370 X42.785 Y98.459
N9375 X45.671 Y99.059
N9380 G3 X46.147 Y99.603 I-0.122 J0.587
N9385 G1 X46.275 Y101.413
N9390 G3 X45.678 Y102.054 I-0.598 J0.043
N9395 G1 X39.889
N9400 G3 X39.886 Y100.856 J-0.599
N9405 G1 X42.659 Y100.844
N9410 X42.721 Y100.847
N9415 X42.783 Y100.856
N9420 X45.678 Y101.455
N9425 G3 X46.154 Y102.002 I-0.121 J0.587
N9430 G1 X46.275 Y103.817
N9435 G3 X45.677 Y104.456 I-0.598 J0.04
N9440 G1 X39.886
N9445 G3 X39.686 Y104.256 J-0.2
N9450 G1 Y89.858
N9455 G3 X39.886 Y89.658 I0.2
N9460 G1 X59.677
N9465 G3 X59.877 Y89.858 J0.2
N9470 G1 X59.879 Y101.854
N9475 G3 X59.679 Y102.054 I-0.2
N9480 G1 X48.64
N9485 G3 X48.639 Y100.856 J-0.599
N9490 G1 X54.094 Y100.853
N9495 X54.116
N9500 X54.138 Y100.854
N9505 X54.159 Y100.856
N9510 X59.679 Y101.455
N9515 G3 X60.213 Y102.031 I-0.065 J0.596
N9520 G1 X60.273 Y103.837
N9525 G3 X59.674 Y104.456 I-0.599 J0.02
N9530 G1 X47.259
N9535 G3 X47.062 Y104.218 J-0.2
N9540 G1 X50.296 Y87.418
N9545 G3 X50.493 Y87.256 I0.196 J0.038
N9550 G1 X59.68
N9555 G3 Y87.656 J0.2
N9560 G1 X39.892
N9565 G3 Y87.256 J-0.2
N9570 G1 X45.68
N9575 G3 X46.017 Y90.066 Z-0.428 J1.425 F100
N9580 G1 X39.546 Y91.641 Z-0.472
N9585 G2 X39.884 Y94.451 Z-0.5 I0.337 J1.385
N9590 G1 X59.674 F800
N9595 G3 X59.874 Y94.65 J0.2
N9600 G1 X59.882 Y97.06
N9605 G3 X59.682 Y97.261 I-0.2 J0.001
N9610 G1 X39.891
N9615 G3 X39.692 Y97.061 J-0.2
N9620 G1 X39.693 Y92.254
N9625 G3 X39.893 Y92.054 I0.2
N9630 G1 X59.667
N9635 G3 X59.867 Y92.254 J0.2
N9640 G1 X59.872 Y99.458
N9645 G3 X59.672 Y99.658 I-0.2
N9650 G1 X50.029
N9655 X45.671
N9660 X39.898
N9665 G3 X39.896 Y98.459 J-0.599
N9670 G1 X42.66 Y98.447
N9675 X42.723 Y98.45
N9680 X42.785 Y98.459
N9685 X45.671 Y99.059
N9690 G3 X46.147 Y99.603 I-0.122 J0.587
N9695 G1 X46.275 Y101.413
N9700 G3 X45.678 Y102.054 I-0.598 J0.043
N9705 G1 X39.889
N9710 G3 X39.886 Y100.856 J-0.599
N9715 G1 X42.659 Y100.844
N9720 X42.721 Y100.847
N9725 X42.783 Y100.856
N9730 X45.678 Y101.455
N9735 G3 X46.154 Y102.002 I-0.121 J0.587
N9740 G1 X46.275 Y103.817
N9745 G3 X45.677 Y104.456 I-0.598 J0.04
N9750 G1 X39.886
N9755 G3 X39.686 Y104.256 J-0.2
N9760 G1 Y89.858
N9765 G3 X39.886 Y89.658 I0.2
N9770 G1 X59.677
N9775 G3 X59.877 Y89.858 J0.2
N9780 G1 X59.879 Y101.854
N9785 G3 X59.679 Y102.054 I-0.2
N9790 G1 X48.64
N9795 G3 X48.639 Y100.856 J-0.599
N9800 G1 X54.094 Y100.853
N9805 X54.116
N9810 X54.138 Y100.854
N9815 X54.159 Y100.856
N9820 X59.679 Y101.455
N9825 G3 X60.213 Y102.031 I-0.065 J0.596
N9830 G1 X60.273 Y103.837
N9835 G3 X59.674 Y104.456 I-0.599 J0.02
N9840 G1 X47.259
N9845 G3 X47.062 Y104.218 J-0.2
N9850 G1 X50.296 Y87.418
N9855 G3 X50.493 Y87.256 I0.196 J0.038
N9860 G1 X59.68
N9865 G3 Y87.656 J0.2
N9870 G1 X39.892
N9875 G3 Y87.256 J-0.2
N9880 G1 X45.68
N9885 G3 X46.017 Y90.066 Z-0.528 J1.425 F100
N9890 G1 X39.546 Y91.641 Z-0.572
N9895 G2 X39.884 Y94.451 Z-0.6 I0.337 J1.385
N9900 G1 X59.674 F800
N9905 G3 X59.874 Y94.65 J0.2
N9910 G1 X59.882 Y97.06
N9915 G3 X59.682 Y97.261 I-0.2 J0.001
N9920 G1 X39.891
N9925 G3 X39.692 Y97.061 J-0.2
N9930 G1 X39.693 Y92.254
N9935 G3 X39.893 Y92.054 I0.2
N9940 G1 X59.667
N9945 G3 X59.867 Y92.254 J0.2
N9950 G1 X59.872 Y99.458
N9955 G3 X59.672 Y99.658 I-0.2
N9960 G1 X50.029
N9965 X45.671
N9970 X39.898
N9975 G3 X39.896 Y98.459 J-0.599
N9980 G1 X42.66 Y98.447
N9985 X42.723 Y98.45
N9990 X42.785 Y98.459
N9995 X45.671 Y99.059
N10000 G3 X46.147 Y99.603 I-0.122 J0.587
N10005 G1 X46.275 Y101.413
N10010 G3 X45.678 Y102.054 I-0.598 J0.043
N10015 G1 X39.889
N10020 G3 X39.886 Y100.856 J-0.599
N10025 G1 X42.659 Y100.844
N10030 X42.721 Y100.847
N10035 X42.783 Y100.856
N10040 X45.678 Y101.455
N10045 G3 X46.154 Y102.002 I-0.121 J0.587
N10050 G1 X46.275 Y103.817
N10055 G3 X45.677 Y104.456 I-0.598 J0.04
N10060 G1 X39.886
N10065 G3 X39.686 Y104.256 J-0.2
N10070 G1 Y89.858
N10075 G3 X39.886 Y89.658 I0.2
N10080 G1 X59.677
N10085 G3 X59.877 Y89.858 J0.2
N10090 G1 X59.879 Y101.854
N10095 G3 X59.679 Y102.054 I-0.2
N10100 G1 X48.64
N10105 G3 X48.639 Y100.856 J-0.599
N10110 G1 X54.094 Y100.853
N10115 X54.116
N10120 X54.138 Y100.854
N10125 X54.159 Y100.856
N10130 X59.679 Y101.455
N10135 G3 X60.213 Y102.031 I-0.065 J0.596
N10140 G1 X60.273 Y103.837
N10145 G3 X59.674 Y104.456 I-0.599 J0.02
N10150 G1 X47.259
N10155 G3 X47.062 Y104.218 J-0.2
N10160 G1 X50.296 Y87.418
N10165 G3 X50.493 Y87.256 I0.196 J0.038
N10170 G1 X59.68
N10175 G3 Y87.656 J0.2
N10180 G1 X39.892
N10185 G3 Y87.256 J-0.2
N10190 G1 X45.68
N10195 G3 X46.017 Y90.066 Z-0.628 J1.425 F100
N10200 G1 X39.546 Y91.641 Z-0.672
N10205 G2 X39.884 Y94.451 Z-0.7 I0.337 J1.385
N10210 G1 X59.674 F800
N10215 G3 X59.874 Y94.65 J0.2
N10220 G1 X59.882 Y97.06
N10225 G3 X59.682 Y97.261 I-0.2 J0.001
N10230 G1 X39.891
N10235 G3 X39.692 Y97.061 J-0.2
N10240 G1 X39.693 Y92.254
N10245 G3 X39.893 Y92.054 I0.2
N10250 G1 X59.667
N10255 G3 X59.867 Y92.254 J0.2
N10260 G1 X59.872 Y99.458
N10265 G3 X59.672 Y99.658 I-0.2
N10270 G1 X50.029
N10275 X45.671
N10280 X39.898
N10285 G3 X39.896 Y98.459 J-0.599
N10290 G1 X42.66 Y98.447
N10295 X42.723 Y98.45
N10300 X42.785 Y98.459
N10305 X45.671 Y99.059
N10310 G3 X46.147 Y99.603 I-0.122 J0.587
N10315 G1 X46.275 Y101.413
N10320 G3 X45.678 Y102.054 I-0.598 J0.043
N10325 G1 X39.889
N10330 G3 X39.886 Y100.856 J-0.599
N10335 G1 X42.659 Y100.844
N10340 X42.721 Y100.847
N10345 X42.783 Y100.856
N10350 X45.678 Y101.455
N10355 G3 X46.154 Y102.002 I-0.121 J0.587
N10360 G1 X46.275 Y103.817
N10365 G3 X45.677 Y104.456 I-0.598 J0.04
N10370 G1 X39.886
N10375 G3 X39.686 Y104.256 J-0.2
N10380 G1 Y89.858
N10385 G3 X39.886 Y89.658 I0.2
N10390 G1 X59.677
N10395 G3 X59.877 Y89.858 J0.2
N10400 G1 X59.879 Y101.854
N10405 G3 X59.679 Y102.054 I-0.2
N10410 G1 X48.64
N10415 G3 X48.639 Y100.856 J-0.599
N10420 G1 X54.094 Y100.853
N10425 X54.116
N10430 X54.138 Y100.854
N10435 X54.159 Y100.856
N10440 X59.679 Y101.455
N10445 G3 X60.213 Y102.031 I-0.065 J0.596
N10450 G1 X60.273 Y103.837
N10455 G3 X59.674 Y104.456 I-0.599 J0.02
N10460 G1 X47.259
N10465 G3 X47.062 Y104.218 J-0.2
N10470 G1 X50.296 Y87.418
N10475 G3 X50.493 Y87.256 I0.196 J0.038
N10480 G1 X59.68
N10485 G3 Y87.656 J0.2
N10490 G1 X39.892
N10495 G3 Y87.256 J-0.2
N10500 G1 X45.68
N10505 G3 X46.017 Y90.066 Z-0.728 J1.425 F100
N10510 G1 X39.546 Y91.641 Z-0.772
N10515 G2 X39.884 Y94.451 Z-0.8 I0.337 J1.385
N10520 G1 X59.674 F800
N10525 G3 X59.874 Y94.65 J0.2
N10530 G1 X59.882 Y97.06
N10535 G3 X59.682 Y97.261 I-0.2 J0.001
N10540 G1 X39.891
N10545 G3 X39.692 Y97.061 J-0.2
N10550 G1 X39.693 Y92.254
N10555 G3 X39.893 Y92.054 I0.2
N10560 G1 X59.667
N10565 G3 X59.867 Y92.254 J0.2
N10570 G1 X59.872 Y99.458
N10575 G3 X59.672 Y99.658 I-0.2
N10580 G1 X50.029
N10585 X45.671
N10590 X39.898
N10595 G3 X39.896 Y98.459 J-0.599
N10600 G1 X42.66 Y98.447
N10605 X42.723 Y98.45
N10610 X42.785 Y98.459
N10615 X45.671 Y99.059
N10620 G3 X46.147 Y99.603 I-0.122 J0.587
N10625 G1 X46.275 Y101.413
N10630 G3 X45.678 Y102.054 I-0.598 J0.043
N10635 G1 X39.889
N10640 G3 X39.886 Y100.856 J-0.599
N10645 G1 X42.659 Y100.844
N10650 X42.721 Y100.847
N10655 X42.783 Y100.856
N10660 X45.678 Y101.455
N10665 G3 X46.154 Y102.002 I-0.121 J0.587
N10670 G1 X46.275 Y103.817
N10675 G3 X45.677 Y104.456 I-0.598 J0.04
N10680 G1 X39.886
N10685 G3 X39.686 Y104.256 J-0.2
N10690 G1 Y89.858
N10695 G3 X39.886 Y89.658 I0.2
N10700 G1 X59.677
N10705 G3 X59.877 Y89.858 J0.2
N10710 G1 X59.879 Y101.854
N10715 G3 X59.679 Y102.054 I-0.2
N10720 G1 X48.64
N10725 G3 X48.639 Y100.856 J-0.599
N10730 G1 X54.094 Y100.853
N10735 X54.116
N10740 X54.138 Y100.854
N10745 X54.159 Y100.856
N10750 X59.679 Y101.455
N10755 G3 X60.213 Y102.031 I-0.065 J0.596
N10760 G1 X60.273 Y103.837
N10765 G3 X59.674 Y104.456 I-0.599 J0.02
N10770 G1 X47.259
N10775 G3 X47.062 Y104.218 J-0.2
N10780 G1 X50.296 Y87.418
N10785 G3 X50.493 Y87.256 I0.196 J0.038
N10790 G1 X59.68
N10795 G3 Y87.656 J0.2
N10800 G1 X39.892
N10805 G3 Y87.256 J-0.2
N10810 G1 X45.68
N10815 G3 X46.017 Y90.066 Z-0.828 J1.425 F100
N10820 G1 X39.546 Y91.641 Z-0.872
N10825 G2 X39.884 Y94.451 Z-0.9 I0.337 J1.385
N10830 G1 X59.674 F800
N10835 G3 X59.874 Y94.65 J0.2
N10840 G1 X59.882 Y97.06
N10845 G3 X59.682 Y97.261 I-0.2 J0.001
N10850 G1 X39.891
N10855 G3 X39.692 Y97.061 J-0.2
N10860 G1 X39.693 Y92.254
N10865 G3 X39.893 Y92.054 I0.2
N10870 G1 X59.667
N10875 G3 X59.867 Y92.254 J0.2
N10880 G1 X59.872 Y99.458
N10885 G3 X59.672 Y99.658 I-0.2
N10890 G1 X50.029
N10895 X45.671
N10900 X39.898
N10905 G3 X39.896 Y98.459 J-0.599
N10910 G1 X42.66 Y98.447
N10915 X42.723 Y98.45
N10920 X42.785 Y98.459
N10925 X45.671 Y99.059
N10930 G3 X46.147 Y99.603 I-0.122 J0.587
N10935 G1 X46.275 Y101.413
N10940 G3 X45.678 Y102.054 I-0.598 J0.043
N10945 G1 X39.889
N10950 G3 X39.886 Y100.856 J-0.599
N10955 G1 X42.659 Y100.844
N10960 X42.721 Y100.847
N10965 X42.783 Y100.856
N10970 X45.678 Y101.455
N10975 G3 X46.154 Y102.002 I-0.121 J0.587
N10980 G1 X46.275 Y103.817
N10985 G3 X45.677 Y104.456 I-0.598 J0.04
N10990 G1 X39.886
N10995 G3 X39.686 Y104.256 J-0.2
N11000 G1 Y89.858
N11005 G3 X39.886 Y89.658 I0.2
N11010 G1 X59.677
N11015 G3 X59.877 Y89.858 J0.2
N11020 G1 X59.879 Y101.854
N11025 G3 X59.679 Y102.054 I-0.2
N11030 G1 X48.64
N11035 G3 X48.639 Y100.856 J-0.599
N11040 G1 X54.094 Y100.853
N11045 X54.116
N11050 X54.138 Y100.854
N11055 X54.159 Y100.856
N11060 X59.679 Y101.455
N11065 G3 X60.213 Y102.031 I-0.065 J0.596
N11070 G1 X60.273 Y103.837
N11075 G3 X59.674 Y104.456 I-0.599 J0.02
N11080 G1 X47.259
N11085 G3 X47.062 Y104.218 J-0.2
N11090 G1 X50.296 Y87.418
N11095 G3 X50.493 Y87.256 I0.196 J0.038
N11100 G1 X59.68
N11105 G3 Y87.656 J0.2
N11110 G1 X39.892
N11115 G3 Y87.256 J-0.2
N11120 G1 X45.68
N11125 G3 X46.017 Y90.066 Z-0.928 J1.425 F100
N11130 G1 X39.546 Y91.641 Z-0.972
N11135 G2 X39.884 Y94.451 Z-1 I0.337 J1.385
N11140 G1 X59.674 F800
N11145 G3 X59.874 Y94.65 J0.2
N11150 G1 X59.882 Y97.06
N11155 G3 X59.682 Y97.261 I-0.2 J0.001
N11160 G1 X39.891
N11165 G3 X39.692 Y97.061 J-0.2
N11170 G1 X39.693 Y92.254
N11175 G3 X39.893 Y92.054 I0.2
N11180 G1 X59.667
N11185 G3 X59.867 Y92.254 J0.2
N11190 G1 X59.872 Y99.458
N11195 G3 X59.672 Y99.658 I-0.2
N11200 G1 X50.029
N11205 X45.671
N11210 X39.898
N11215 G3 X39.896 Y98.459 J-0.599
N11220 G1 X42.66 Y98.447
N11225 X42.723 Y98.45
N11230 X42.785 Y98.459
N11235 X45.671 Y99.059
N11240 G3 X46.147 Y99.603 I-0.122 J0.587
N11245 G1 X46.275 Y101.413
N11250 G3 X45.678 Y102.054 I-0.598 J0.043
N11255 G1 X39.889
N11260 G3 X39.886 Y100.856 J-0.599
N11265 G1 X42.659 Y100.844
N11270 X42.721 Y100.847
N11275 X42.783 Y100.856
N11280 X45.678 Y101.455
N11285 G3 X46.154 Y102.002 I-0.121 J0.587
N11290 G1 X46.275 Y103.817
N11295 G3 X45.677 Y104.456 I-0.598 J0.04
N11300 G1 X39.886
N11305 G3 X39.686 Y104.256 J-0.2
N11310 G1 Y89.858
N11315 G3 X39.886 Y89.658 I0.2
N11320 G1 X59.677
N11325 G3 X59.877 Y89.858 J0.2
N11330 G1 X59.879 Y101.854
N11335 G3 X59.679 Y102.054 I-0.2
N11340 G1 X48.64
N11345 G3 X48.639 Y100.856 J-0.599
N11350 G1 X54.094 Y100.853
N11355 X54.116
N11360 X54.138 Y100.854
N11365 X54.159 Y100.856
N11370 X59.679 Y101.455
N11375 G3 X60.213 Y102.031 I-0.065 J0.596
N11380 G1 X60.273 Y103.837
N11385 G3 X59.674 Y104.456 I-0.599 J0.02
N11390 G1 X47.259
N11395 G3 X47.062 Y104.218 J-0.2
N11400 G1 X50.296 Y87.418
N11405 G3 X50.493 Y87.256 I0.196 J0.038
N11410 G1 X59.68
N11415 G3 Y87.656 J0.2
N11420 G1 X39.892
N11425 G3 Y87.256 J-0.2
N11430 G1 X45.68
N11435 G3 X46.017 Y90.066 Z-1.028 J1.425 F100
N11440 G1 X39.546 Y91.641 Z-1.072
N11445 G2 X39.884 Y94.451 Z-1.1 I0.337 J1.385
N11450 G1 X59.674 F800
N11455 G3 X59.874 Y94.65 J0.2
N11460 G1 X59.882 Y97.06
N11465 G3 X59.682 Y97.261 I-0.2 J0.001
N11470 G1 X39.891
N11475 G3 X39.692 Y97.061 J-0.2
N11480 G1 X39.693 Y92.254
N11485 G3 X39.893 Y92.054 I0.2
N11490 G1 X59.667
N11495 G3 X59.867 Y92.254 J0.2
N11500 G1 X59.872 Y99.458
N11505 G3 X59.672 Y99.658 I-0.2
N11510 G1 X50.029
N11515 X45.671
N11520 X39.898
N11525 G3 X39.896 Y98.459 J-0.599
N11530 G1 X42.66 Y98.447
N11535 X42.723 Y98.45
N11540 X42.785 Y98.459
N11545 X45.671 Y99.059
N11550 G3 X46.147 Y99.603 I-0.122 J0.587
N11555 G1 X46.275 Y101.413
N11560 G3 X45.678 Y102.054 I-0.598 J0.043
N11565 G1 X39.889
N11570 G3 X39.886 Y100.856 J-0.599
N11575 G1 X42.659 Y100.844
N11580 X42.721 Y100.847
N11585 X42.783 Y100.856
N11590 X45.678 Y101.455
N11595 G3 X46.154 Y102.002 I-0.121 J0.587
N11600 G1 X46.275 Y103.817
N11605 G3 X45.677 Y104.456 I-0.598 J0.04
N11610 G1 X39.886
N11615 G3 X39.686 Y104.256 J-0.2
N11620 G1 Y89.858
N11625 G3 X39.886 Y89.658 I0.2
N11630 G1 X59.677
N11635 G3 X59.877 Y89.858 J0.2
N11640 G1 X59.879 Y101.854
N11645 G3 X59.679 Y102.054 I-0.2
N11650 G1 X48.64
N11655 G3 X48.639 Y100.856 J-0.599
N11660 G1 X54.094 Y100.853
N11665 X54.116
N11670 X54.138 Y100.854
N11675 X54.159 Y100.856
N11680 X59.679 Y101.455
N11685 G3 X60.213 Y102.031 I-0.065 J0.596
N11690 G1 X60.273 Y103.837
N11695 G3 X59.674 Y104.456 I-0.599 J0.02
N11700 G1 X47.259
N11705 G3 X47.062 Y104.218 J-0.2
N11710 G1 X50.296 Y87.418
N11715 G3 X50.493 Y87.256 I0.196 J0.038
N11720 G1 X59.68
N11725 G3 Y87.656 J0.2
N11730 G1 X39.892
N11735 G3 Y87.256 J-0.2
N11740 G1 X45.68
N11745 G3 X46.017 Y90.066 Z-1.128 J1.425 F100
N11750 G1 X39.546 Y91.641 Z-1.172
N11755 G2 X39.884 Y94.451 Z-1.2 I0.337 J1.385
N11760 G1 X59.674 F800
N11765 G3 X59.874 Y94.65 J0.2
N11770 G1 X59.882 Y97.06
N11775 G3 X59.682 Y97.261 I-0.2 J0.001
N11780 G1 X39.891
N11785 G3 X39.692 Y97.061 J-0.2
N11790 G1 X39.693 Y92.254
N11795 G3 X39.893 Y92.054 I0.2
N11800 G1 X59.667
N11805 G3 X59.867 Y92.254 J0.2
N11810 G1 X59.872 Y99.458
N11815 G3 X59.672 Y99.658 I-0.2
N11820 G1 X50.029
N11825 X45.671
N11830 X39.898
N11835 G3 X39.896 Y98.459 J-0.599
N11840 G1 X42.66 Y98.447
N11845 X42.723 Y98.45
N11850 X42.785 Y98.459
N11855 X45.671 Y99.059
N11860 G3 X46.147 Y99.603 I-0.122 J0.587
N11865 G1 X46.275 Y101.413
N11870 G3 X45.678 Y102.054 I-0.598 J0.043
N11875 G1 X39.889
N11880 G3 X39.886 Y100.856 J-0.599
N11885 G1 X42.659 Y100.844
N11890 X42.721 Y100.847
N11895 X42.783 Y100.856
N11900 X45.678 Y101.455
N11905 G3 X46.154 Y102.002 I-0.121 J0.587
N11910 G1 X46.275 Y103.817
N11915 G3 X45.677 Y104.456 I-0.598 J0.04
N11920 G1 X39.886
N11925 G3 X39.686 Y104.256 J-0.2
N11930 G1 Y89.858
N11935 G3 X39.886 Y89.658 I0.2
N11940 G1 X59.677
N11945 G3 X59.877 Y89.858 J0.2
N11950 G1 X59.879 Y101.854
N11955 G3 X59.679 Y102.054 I-0.2
N11960 G1 X48.64
N11965 G3 X48.639 Y100.856 J-0.599
N11970 G1 X54.094 Y100.853
N11975 X54.116
N11980 X54.138 Y100.854
N11985 X54.159 Y100.856
N11990 X59.679 Y101.455
N11995 G3 X60.213 Y102.031 I-0.065 J0.596
N12000 G1 X60.273 Y103.837
N12005 G3 X59.674 Y104.456 I-0.599 J0.02
N12010 G1 X47.259
N12015 G3 X47.062 Y104.218 J-0.2
N12020 G1 X50.296 Y87.418
N12025 G3 X50.493 Y87.256 I0.196 J0.038
N12030 G1 X59.68
N12035 G3 Y87.656 J0.2
N12040 G1 X39.892
N12045 G3 Y87.256 J-0.2
N12050 G1 X45.68
N12055 G3 X46.017 Y90.066 Z-1.228 J1.425 F100
N12060 G1 X39.546 Y91.641 Z-1.272
N12065 G2 X39.884 Y94.451 Z-1.3 I0.337 J1.385
N12070 G1 X59.674 F800
N12075 G3 X59.874 Y94.65 J0.2
N12080 G1 X59.882 Y97.06
N12085 G3 X59.682 Y97.261 I-0.2 J0.001
N12090 G1 X39.891
N12095 G3 X39.692 Y97.061 J-0.2
N12100 G1 X39.693 Y92.254
N12105 G3 X39.893 Y92.054 I0.2
N12110 G1 X59.667
N12115 G3 X59.867 Y92.254 J0.2
N12120 G1 X59.872 Y99.458
N12125 G3 X59.672 Y99.658 I-0.2
N12130 G1 X50.029
N12135 X45.671
N12140 X39.898
N12145 G3 X39.896 Y98.459 J-0.599
N12150 G1 X42.66 Y98.447
N12155 X42.723 Y98.45
N12160 X42.785 Y98.459
N12165 X45.671 Y99.059
N12170 G3 X46.147 Y99.603 I-0.122 J0.587
N12175 G1 X46.275 Y101.413
N12180 G3 X45.678 Y102.054 I-0.598 J0.043
N12185 G1 X39.889
N12190 G3 X39.886 Y100.856 J-0.599
N12195 G1 X42.659 Y100.844
N12200 X42.721 Y100.847
N12205 X42.783 Y100.856
N12210 X45.678 Y101.455
N12215 G3 X46.154 Y102.002 I-0.121 J0.587
N12220 G1 X46.275 Y103.817
N12225 G3 X45.677 Y104.456 I-0.598 J0.04
N12230 G1 X39.886
N12235 G3 X39.686 Y104.256 J-0.2
N12240 G1 Y89.858
N12245 G3 X39.886 Y89.658 I0.2
N12250 G1 X59.677
N12255 G3 X59.877 Y89.858 J0.2
N12260 G1 X59.879 Y101.854
N12265 G3 X59.679 Y102.054 I-0.2
N12270 G1 X48.64
N12275 G3 X48.639 Y100.856 J-0.599
N12280 G1 X54.094 Y100.853
N12285 X54.116
N12290 X54.138 Y100.854
N12295 X54.159 Y100.856
N12300 X59.679 Y101.455
N12305 G3 X60.213 Y102.031 I-0.065 J0.596
N12310 G1 X60.273 Y103.837
N12315 G3 X59.674 Y104.456 I-0.599 J0.02
N12320 G1 X47.259
N12325 G3 X47.062 Y104.218 J-0.2
N12330 G1 X50.296 Y87.418
N12335 G3 X50.493 Y87.256 I0.196 J0.038
N12340 G1 X59.68
N12345 G3 Y87.656 J0.2
N12350 G1 X39.892
N12355 G3 Y87.256 J-0.2
N12360 G1 X45.68
N12365 G3 X46.017 Y90.066 Z-1.328 J1.425 F100
N12370 G1 X39.546 Y91.641 Z-1.372
N12375 G2 X39.884 Y94.451 Z-1.4 I0.337 J1.385
N12380 G1 X59.674 F800
N12385 G3 X59.874 Y94.65 J0.2
N12390 G1 X59.882 Y97.06
N12395 G3 X59.682 Y97.261 I-0.2 J0.001
N12400 G1 X39.891
N12405 G3 X39.692 Y97.061 J-0.2
N12410 G1 X39.693 Y92.254
N12415 G3 X39.893 Y92.054 I0.2
N12420 G1 X59.667
N12425 G3 X59.867 Y92.254 J0.2
N12430 G1 X59.872 Y99.458
N12435 G3 X59.672 Y99.658 I-0.2
N12440 G1 X50.029
N12445 X45.671
N12450 X39.898
N12455 G3 X39.896 Y98.459 J-0.599
N12460 G1 X42.66 Y98.447
N12465 X42.723 Y98.45
N12470 X42.785 Y98.459
N12475 X45.671 Y99.059
N12480 G3 X46.147 Y99.603 I-0.122 J0.587
N12485 G1 X46.275 Y101.413
N12490 G3 X45.678 Y102.054 I-0.598 J0.043
N12495 G1 X39.889
N12500 G3 X39.886 Y100.856 J-0.599
N12505 G1 X42.659 Y100.844
N12510 X42.721 Y100.847
N12515 X42.783 Y100.856
N12520 X45.678 Y101.455
N12525 G3 X46.154 Y102.002 I-0.121 J0.587
N12530 G1 X46.275 Y103.817
N12535 G3 X45.677 Y104.456 I-0.598 J0.04
N12540 G1 X39.886
N12545 G3 X39.686 Y104.256 J-0.2
N12550 G1 Y89.858
N12555 G3 X39.886 Y89.658 I0.2
N12560 G1 X59.677
N12565 G3 X59.877 Y89.858 J0.2
N12570 G1 X59.879 Y101.854
N12575 G3 X59.679 Y102.054 I-0.2
N12580 G1 X48.64
N12585 G3 X48.639 Y100.856 J-0.599
N12590 G1 X54.094 Y100.853
N12595 X54.116
N12600 X54.138 Y100.854
N12605 X54.159 Y100.856
N12610 X59.679 Y101.455
N12615 G3 X60.213 Y102.031 I-0.065 J0.596
N12620 G1 X60.273 Y103.837
N12625 G3 X59.674 Y104.456 I-0.599 J0.02
N12630 G1 X47.259
N12635 G3 X47.062 Y104.218 J-0.2
N12640 G1 X50.296 Y87.418
N12645 G3 X50.493 Y87.256 I0.196 J0.038
N12650 G1 X59.68
N12655 G3 Y87.656 J0.2
N12660 G1 X39.892
N12665 G3 Y87.256 J-0.2
N12670 G1 X45.68
N12675 G3 X46.017 Y90.066 Z-1.428 J1.425 F100
N12680 G1 X39.546 Y91.641 Z-1.472
N12685 G2 X39.884 Y94.451 Z-1.5 I0.337 J1.385
N12690 G1 X59.674 F800
N12695 G3 X59.874 Y94.65 J0.2
N12700 G1 X59.882 Y97.06
N12705 G3 X59.682 Y97.261 I-0.2 J0.001
N12710 G1 X39.891
N12715 G3 X39.692 Y97.061 J-0.2
N12720 G1 X39.693 Y92.254
N12725 G3 X39.893 Y92.054 I0.2
N12730 G1 X59.667
N12735 G3 X59.867 Y92.254 J0.2
N12740 G1 X59.872 Y99.458
N12745 G3 X59.672 Y99.658 I-0.2
N12750 G1 X50.029
N12755 X45.671
N12760 X39.898
N12765 G3 X39.896 Y98.459 J-0.599
N12770 G1 X42.66 Y98.447
N12775 X42.723 Y98.45
N12780 X42.785 Y98.459
N12785 X45.671 Y99.059
N12790 G3 X46.147 Y99.603 I-0.122 J0.587
N12795 G1 X46.275 Y101.413
N12800 G3 X45.678 Y102.054 I-0.598 J0.043
N12805 G1 X39.889
N12810 G3 X39.886 Y100.856 J-0.599
N12815 G1 X42.659 Y100.844
N12820 X42.721 Y100.847
N12825 X42.783 Y100.856
N12830 X45.678 Y101.455
N12835 G3 X46.154 Y102.002 I-0.121 J0.587
N12840 G1 X46.275 Y103.817
N12845 G3 X45.677 Y104.456 I-0.598 J0.04
N12850 G1 X39.886
N12855 G3 X39.686 Y104.256 J-0.2
N12860 G1 Y89.858
N12865 G3 X39.886 Y89.658 I0.2
N12870 G1 X59.677
N12875 G3 X59.877 Y89.858 J0.2
N12880 G1 X59.879 Y101.854
N12885 G3 X59.679 Y102.054 I-0.2
N12890 G1 X48.64
N12895 G3 X48.639 Y100.856 J-0.599
N12900 G1 X54.094 Y100.853
N12905 X54.116
N12910 X54.138 Y100.854
N12915 X54.159 Y100.856
N12920 X59.679 Y101.455
N12925 G3 X60.213 Y102.031 I-0.065 J0.596
N12930 G1 X60.273 Y103.837
N12935 G3 X59.674 Y104.456 I-0.599 J0.02
N12940 G1 X47.259
N12945 G3 X47.062 Y104.218 J-0.2
N12950 G1 X50.296 Y87.418
N12955 G3 X50.493 Y87.256 I0.196 J0.038
N12960 G1 X59.68
N12965 G3 Y87.656 J0.2
N12970 G1 X39.892
N12975 G3 Y87.256 J-0.2
N12980 G1 X45.68
N12985 X45.727 Y87.26
N12990 X46.479 Y87.379
N12995 X46.545 Y87.389 Z-1.492
N13000 X46.607 Y87.399 Z-1.47
N13005 X46.664 Y87.408 Z-1.435
N13010 X46.711 Y87.416 Z-1.387
N13015 X46.746 Y87.421 Z-1.33
N13020 X46.768 Y87.425 Z-1.267
N13025 X46.775 Y87.426 Z-1.2
N13030 G0 Z2.3

(??1)
N13035 X63.518 Y153.541
N13040 Z2.3
N13045 G1 Z0.6 F50
N13050 G19 G3 Y153.841 Z0.3 J0.3
N13055 G1 Y153.991
N13060 G17 G3 X63.218 Y154.291 I-0.3
N13065 Y151.291 Z0.25 J-1.5 F800
N13070 Y154.291 Z0.2 J1.5
N13075 Y151.291 Z0.15 J-1.5
N13080 Y154.291 Z0.1 J1.5
N13085 Y151.291 Z0.05 J-1.5
N13090 Y154.291 Z0 J1.5
N13095 Y151.291 Z-0.05 J-1.5
N13100 Y154.291 Z-0.1 J1.5
N13105 Y151.291 Z-0.15 J-1.5
N13110 Y154.291 Z-0.2 J1.5
N13115 Y151.291 Z-0.25 J-1.5
N13120 Y154.291 Z-0.3 J1.5
N13125 Y151.291 Z-0.35 J-1.5
N13130 Y154.291 Z-0.4 J1.5
N13135 Y151.291 Z-0.45 J-1.5
N13140 Y154.291 Z-0.5 J1.5
N13145 Y151.291 Z-0.55 J-1.5
N13150 Y154.291 Z-0.6 J1.5
N13155 Y151.291 Z-0.65 J-1.5
N13160 Y154.291 Z-0.7 J1.5
N13165 Y151.291 Z-0.75 J-1.5
N13170 Y154.291 Z-0.8 J1.5
N13175 Y151.291 Z-0.85 J-1.5
N13180 Y154.291 Z-0.9 J1.5
N13185 Y151.291 Z-0.95 J-1.5
N13190 Y154.291 Z-1 J1.5
N13195 Y151.291 Z-1.05 J-1.5
N13200 Y154.291 Z-1.1 J1.5
N13205 Y151.291 Z-1.15 J-1.5
N13210 Y154.291 Z-1.2 J1.5
N13215 Y151.291 Z-1.25 J-1.5
N13220 Y154.291 Z-1.3 J1.5
N13225 Y151.291 Z-1.35 J-1.5
N13230 Y154.291 Z-1.4 J1.5
N13235 Y151.291 Z-1.45 J-1.5
N13240 Y154.291 Z-1.5 J1.5
N13245 Y151.291 Z-1.55 J-1.5
N13250 Y154.291 Z-1.6 J1.5
N13255 Y151.291 Z-1.65 J-1.5
N13260 Y154.291 Z-1.7 J1.5
N13265 Y151.291 Z-1.75 J-1.5
N13270 Y154.291 Z-1.8 J1.5
N13275 Y151.291 Z-1.85 J-1.5
N13280 Y154.291 Z-1.9 J1.5
N13285 Y151.291 Z-1.95 J-1.5
N13290 Y154.291 Z-2 J1.5
N13295 Y151.291 Z-2.05 J-1.5
N13300 Y154.291 Z-2.1 J1.5
N13305 Y151.291 Z-2.15 J-1.5
N13310 Y154.291 Z-2.2 J1.5
N13315 Y151.291 J-1.5
N13320 Y154.291 J1.5
N13325 X62.918 Y153.991 J-0.3
N13330 G1 Y153.841
N13335 G19 G2 Y153.541 Z-1.9 K0.3
N13340 G0 Z2.3
N13345 X36.648
N13350 G1 Z0.6 F50
N13355 G3 Y153.841 Z0.3 J0.3
N13360 G1 Y153.991
N13365 G17 G3 X36.348 Y154.291 I-0.3
N13370 Y151.291 Z0.25 J-1.5 F800
N13375 Y154.291 Z0.2 J1.5
N13380 Y151.291 Z0.15 J-1.5
N13385 Y154.291 Z0.1 J1.5
N13390 Y151.291 Z0.05 J-1.5
N13395 Y154.291 Z0 J1.5
N13400 Y151.291 Z-0.05 J-1.5
N13405 Y154.291 Z-0.1 J1.5
N13410 Y151.291 Z-0.15 J-1.5
N13415 Y154.291 Z-0.2 J1.5
N13420 Y151.291 Z-0.25 J-1.5
N13425 Y154.291 Z-0.3 J1.5
N13430 Y151.291 Z-0.35 J-1.5
N13435 Y154.291 Z-0.4 J1.5
N13440 Y151.291 Z-0.45 J-1.5
N13445 Y154.291 Z-0.5 J1.5
N13450 Y151.291 Z-0.55 J-1.5
N13455 Y154.291 Z-0.6 J1.5
N13460 Y151.291 Z-0.65 J-1.5
N13465 Y154.291 Z-0.7 J1.5
N13470 Y151.291 Z-0.75 J-1.5
N13475 Y154.291 Z-0.8 J1.5
N13480 Y151.291 Z-0.85 J-1.5
N13485 Y154.291 Z-0.9 J1.5
N13490 Y151.291 Z-0.95 J-1.5
N13495 Y154.291 Z-1 J1.5
N13500 Y151.291 Z-1.05 J-1.5
N13505 Y154.291 Z-1.1 J1.5
N13510 Y151.291 Z-1.15 J-1.5
N13515 Y154.291 Z-1.2 J1.5
N13520 Y151.291 Z-1.25 J-1.5
N13525 Y154.291 Z-1.3 J1.5
N13530 Y151.291 Z-1.35 J-1.5
N13535 Y154.291 Z-1.4 J1.5
N13540 Y151.291 Z-1.45 J-1.5
N13545 Y154.291 Z-1.5 J1.5
N13550 Y151.291 Z-1.55 J-1.5
N13555 Y154.291 Z-1.6 J1.5
N13560 Y151.291 Z-1.65 J-1.5
N13565 Y154.291 Z-1.7 J1.5
N13570 Y151.291 Z-1.75 J-1.5
N13575 Y154.291 Z-1.8 J1.5
N13580 Y151.291 Z-1.85 J-1.5
N13585 Y154.291 Z-1.9 J1.5
N13590 Y151.291 Z-1.95 J-1.5
N13595 Y154.291 Z-2 J1.5
N13600 Y151.291 Z-2.05 J-1.5
N13605 Y154.291 Z-2.1 J1.5
N13610 Y151.291 Z-2.15 J-1.5
N13615 Y154.291 Z-2.2 J1.5
N13620 Y151.291 J-1.5
N13625 Y154.291 J1.5
N13630 X36.048 Y153.991 J-0.3
N13635 G1 Y153.841
N13640 G19 G2 Y153.541 Z-1.9 K0.3
N13645 G0 Z2.3
N13650 X36.648 Y126.671
N13655 G1 Z0.6 F50
N13660 G3 Y126.971 Z0.3 J0.3
N13665 G1 Y127.121
N13670 G17 G3 X36.348 Y127.421 I-0.3
N13675 Y124.421 Z0.25 J-1.5 F800
N13680 Y127.421 Z0.2 J1.5
N13685 Y124.421 Z0.15 J-1.5
N13690 Y127.421 Z0.1 J1.5
N13695 Y124.421 Z0.05 J-1.5
N13700 Y127.421 Z0 J1.5
N13705 Y124.421 Z-0.05 J-1.5
N13710 Y127.421 Z-0.1 J1.5
N13715 Y124.421 Z-0.15 J-1.5
N13720 Y127.421 Z-0.2 J1.5
N13725 Y124.421 Z-0.25 J-1.5
N13730 Y127.421 Z-0.3 J1.5
N13735 Y124.421 Z-0.35 J-1.5
N13740 Y127.421 Z-0.4 J1.5
N13745 Y124.421 Z-0.45 J-1.5
N13750 Y127.421 Z-0.5 J1.5
N13755 Y124.421 Z-0.55 J-1.5
N13760 Y127.421 Z-0.6 J1.5
N13765 Y124.421 Z-0.65 J-1.5
N13770 Y127.421 Z-0.7 J1.5
N13775 Y124.421 Z-0.75 J-1.5
N13780 Y127.421 Z-0.8 J1.5
N13785 Y124.421 Z-0.85 J-1.5
N13790 Y127.421 Z-0.9 J1.5
N13795 Y124.421 Z-0.95 J-1.5
N13800 Y127.421 Z-1 J1.5
N13805 Y124.421 Z-1.05 J-1.5
N13810 Y127.421 Z-1.1 J1.5
N13815 Y124.421 Z-1.15 J-1.5
N13820 Y127.421 Z-1.2 J1.5
N13825 Y124.421 Z-1.25 J-1.5
N13830 Y127.421 Z-1.3 J1.5
N13835 Y124.421 Z-1.35 J-1.5
N13840 Y127.421 Z-1.4 J1.5
N13845 Y124.421 Z-1.45 J-1.5
N13850 Y127.421 Z-1.5 J1.5
N13855 Y124.421 Z-1.55 J-1.5
N13860 Y127.421 Z-1.6 J1.5
N13865 Y124.421 Z-1.65 J-1.5
N13870 Y127.421 Z-1.7 J1.5
N13875 Y124.421 Z-1.75 J-1.5
N13880 Y127.421 Z-1.8 J1.5
N13885 Y124.421 Z-1.85 J-1.5
N13890 Y127.421 Z-1.9 J1.5
N13895 Y124.421 Z-1.95 J-1.5
N13900 Y127.421 Z-2 J1.5
N13905 Y124.421 Z-2.05 J-1.5
N13910 Y127.421 Z-2.1 J1.5
N13915 Y124.421 Z-2.15 J-1.5
N13920 Y127.421 Z-2.2 J1.5
N13925 Y124.421 J-1.5
N13930 Y127.421 J1.5
N13935 X36.048 Y127.121 J-0.3
N13940 G1 Y126.971
N13945 G19 G2 Y126.671 Z-1.9 K0.3
N13950 G0 Z2.3
N13955 X63.518
N13960 G1 Z0.6 F50
N13965 G3 Y126.971 Z0.3 J0.3
N13970 G1 Y127.121
N13975 G17 G3 X63.218 Y127.421 I-0.3
N13980 Y124.421 Z0.25 J-1.5 F800
N13985 Y127.421 Z0.2 J1.5
N13990 Y124.421 Z0.15 J-1.5
N13995 Y127.421 Z0.1 J1.5
N14000 Y124.421 Z0.05 J-1.5
N14005 Y127.421 Z0 J1.5
N14010 Y124.421 Z-0.05 J-1.5
N14015 Y127.421 Z-0.1 J1.5
N14020 Y124.421 Z-0.15 J-1.5
N14025 Y127.421 Z-0.2 J1.5
N14030 Y124.421 Z-0.25 J-1.5
N14035 Y127.421 Z-0.3 J1.5
N14040 Y124.421 Z-0.35 J-1.5
N14045 Y127.421 Z-0.4 J1.5
N14050 Y124.421 Z-0.45 J-1.5
N14055 Y127.421 Z-0.5 J1.5
N14060 Y124.421 Z-0.55 J-1.5
N14065 Y127.421 Z-0.6 J1.5
N14070 Y124.421 Z-0.65 J-1.5
N14075 Y127.421 Z-0.7 J1.5
N14080 Y124.421 Z-0.75 J-1.5
N14085 Y127.421 Z-0.8 J1.5
N14090 Y124.421 Z-0.85 J-1.5
N14095 Y127.421 Z-0.9 J1.5
N14100 Y124.421 Z-0.95 J-1.5
N14105 Y127.421 Z-1 J1.5
N14110 Y124.421 Z-1.05 J-1.5
N14115 Y127.421 Z-1.1 J1.5
N14120 Y124.421 Z-1.15 J-1.5
N14125 Y127.421 Z-1.2 J1.5
N14130 Y124.421 Z-1.25 J-1.5
N14135 Y127.421 Z-1.3 J1.5
N14140 Y124.421 Z-1.35 J-1.5
N14145 Y127.421 Z-1.4 J1.5
N14150 Y124.421 Z-1.45 J-1.5
N14155 Y127.421 Z-1.5 J1.5
N14160 Y124.421 Z-1.55 J-1.5
N14165 Y127.421 Z-1.6 J1.5
N14170 Y124.421 Z-1.65 J-1.5
N14175 Y127.421 Z-1.7 J1.5
N14180 Y124.421 Z-1.75 J-1.5
N14185 Y127.421 Z-1.8 J1.5
N14190 Y124.421 Z-1.85 J-1.5
N14195 Y127.421 Z-1.9 J1.5
N14200 Y124.421 Z-1.95 J-1.5
N14205 Y127.421 Z-2 J1.5
N14210 Y124.421 Z-2.05 J-1.5
N14215 Y127.421 Z-2.1 J1.5
N14220 Y124.421 Z-2.15 J-1.5
N14225 Y127.421 Z-2.2 J1.5
N14230 Y124.421 J-1.5
N14235 Y127.421 J1.5
N14240 X62.918 Y127.121 J-0.3
N14245 G1 Y126.971
N14250 G19 G2 Y126.671 Z-1.9 K0.3
N14255 G0 Z2.3
N14260 X41.3 Y50.901
N14265 G1 Z0.6 F50
N14270 G3 Y51.201 Z0.3 J0.3
N14275 G1 Y51.351
N14280 G17 G3 X41 Y51.651 I-0.3
N14285 Y48.651 Z0.25 J-1.5 F800
N14290 Y51.651 Z0.2 J1.5
N14295 Y48.651 Z0.15 J-1.5
N14300 Y51.651 Z0.1 J1.5
N14305 Y48.651 Z0.05 J-1.5
N14310 Y51.651 Z0 J1.5
N14315 Y48.651 Z-0.05 J-1.5
N14320 Y51.651 Z-0.1 J1.5
N14325 Y48.651 Z-0.15 J-1.5
N14330 Y51.651 Z-0.2 J1.5
N14335 Y48.651 Z-0.25 J-1.5
N14340 Y51.651 Z-0.3 J1.5
N14345 Y48.651 Z-0.35 J-1.5
N14350 Y51.651 Z-0.4 J1.5
N14355 Y48.651 Z-0.45 J-1.5
N14360 Y51.651 Z-0.5 J1.5
N14365 Y48.651 Z-0.55 J-1.5
N14370 Y51.651 Z-0.6 J1.5
N14375 Y48.651 Z-0.65 J-1.5
N14380 Y51.651 Z-0.7 J1.5
N14385 Y48.651 Z-0.75 J-1.5
N14390 Y51.651 Z-0.8 J1.5
N14395 Y48.651 Z-0.85 J-1.5
N14400 Y51.651 Z-0.9 J1.5
N14405 Y48.651 Z-0.95 J-1.5
N14410 Y51.651 Z-1 J1.5
N14415 Y48.651 Z-1.05 J-1.5
N14420 Y51.651 Z-1.1 J1.5
N14425 Y48.651 Z-1.15 J-1.5
N14430 Y51.651 Z-1.2 J1.5
N14435 Y48.651 Z-1.25 J-1.5
N14440 Y51.651 Z-1.3 J1.5
N14445 Y48.651 Z-1.35 J-1.5
N14450 Y51.651 Z-1.4 J1.5
N14455 Y48.651 Z-1.45 J-1.5
N14460 Y51.651 Z-1.5 J1.5
N14465 Y48.651 Z-1.55 J-1.5
N14470 Y51.651 Z-1.6 J1.5
N14475 Y48.651 Z-1.65 J-1.5
N14480 Y51.651 Z-1.7 J1.5
N14485 Y48.651 Z-1.75 J-1.5
N14490 Y51.651 Z-1.8 J1.5
N14495 Y48.651 Z-1.85 J-1.5
N14500 Y51.651 Z-1.9 J1.5
N14505 Y48.651 Z-1.95 J-1.5
N14510 Y51.651 Z-2 J1.5
N14515 Y48.651 Z-2.05 J-1.5
N14520 Y51.651 Z-2.1 J1.5
N14525 Y48.651 Z-2.15 J-1.5
N14530 Y51.651 Z-2.2 J1.5
N14535 Y48.651 J-1.5
N14540 Y51.651 J1.5
N14545 X40.7 Y51.351 J-0.3
N14550 G1 Y51.201
N14555 G19 G2 Y50.901 Z-1.9 K0.3
N14560 G0 Z2.3
N14565 X53.8 Y29.25
N14570 G1 Z0.6 F50
N14575 G3 Y29.55 Z0.3 J0.3
N14580 G1 Y29.7
N14585 G17 G3 X53.5 Y30 I-0.3
N14590 Y27 Z0.25 J-1.5 F800
N14595 Y30 Z0.2 J1.5
N14600 Y27 Z0.15 J-1.5
N14605 Y30 Z0.1 J1.5
N14610 Y27 Z0.05 J-1.5
N14615 Y30 Z0 J1.5
N14620 Y27 Z-0.05 J-1.5
N14625 Y30 Z-0.1 J1.5
N14630 Y27 Z-0.15 J-1.5
N14635 Y30 Z-0.2 J1.5
N14640 Y27 Z-0.25 J-1.5
N14645 Y30 Z-0.3 J1.5
N14650 Y27 Z-0.35 J-1.5
N14655 Y30 Z-0.4 J1.5
N14660 Y27 Z-0.45 J-1.5
N14665 Y30 Z-0.5 J1.5
N14670 Y27 Z-0.55 J-1.5
N14675 Y30 Z-0.6 J1.5
N14680 Y27 Z-0.65 J-1.5
N14685 Y30 Z-0.7 J1.5
N14690 Y27 Z-0.75 J-1.5
N14695 Y30 Z-0.8 J1.5
N14700 Y27 Z-0.85 J-1.5
N14705 Y30 Z-0.9 J1.5
N14710 Y27 Z-0.95 J-1.5
N14715 Y30 Z-1 J1.5
N14720 Y27 Z-1.05 J-1.5
N14725 Y30 Z-1.1 J1.5
N14730 Y27 Z-1.15 J-1.5
N14735 Y30 Z-1.2 J1.5
N14740 Y27 Z-1.25 J-1.5
N14745 Y30 Z-1.3 J1.5
N14750 Y27 Z-1.35 J-1.5
N14755 Y30 Z-1.4 J1.5
N14760 Y27 Z-1.45 J-1.5
N14765 Y30 Z-1.5 J1.5
N14770 Y27 Z-1.55 J-1.5
N14775 Y30 Z-1.6 J1.5
N14780 Y27 Z-1.65 J-1.5
N14785 Y30 Z-1.7 J1.5
N14790 Y27 Z-1.75 J-1.5
N14795 Y30 Z-1.8 J1.5
N14800 Y27 Z-1.85 J-1.5
N14805 Y30 Z-1.9 J1.5
N14810 Y27 Z-1.95 J-1.5
N14815 Y30 Z-2 J1.5
N14820 Y27 Z-2.05 J-1.5
N14825 Y30 Z-2.1 J1.5
N14830 Y27 Z-2.15 J-1.5
N14835 Y30 Z-2.2 J1.5
N14840 Y27 J-1.5
N14845 Y30 J1.5
N14850 X53.2 Y29.7 J-0.3
N14855 G1 Y29.55
N14860 G19 G2 Y29.25 Z-1.9 K0.3
N14865 G0 Z2.3
N14870 X38.644 Y28.337
N14875 G1 Z0.6 F50
N14880 G2 Y28.037 Z0.3 J-0.3
N14885 G1 Y27.887
N14890 G17 G3 X38.944 Y27.587 I0.3
N14895 Y30.587 Z0.25 J1.5 F800
N14900 Y27.587 Z0.2 J-1.5
N14905 Y30.587 Z0.15 J1.5
N14910 Y27.587 Z0.1 J-1.5
N14915 Y30.587 Z0.05 J1.5
N14920 Y27.587 Z0 J-1.5
N14925 Y30.587 Z-0.05 J1.5
N14930 Y27.587 Z-0.1 J-1.5
N14935 Y30.587 Z-0.15 J1.5
N14940 Y27.587 Z-0.2 J-1.5
N14945 Y30.587 Z-0.25 J1.5
N14950 Y27.587 Z-0.3 J-1.5
N14955 Y30.587 Z-0.35 J1.5
N14960 Y27.587 Z-0.4 J-1.5
N14965 Y30.587 Z-0.45 J1.5
N14970 Y27.587 Z-0.5 J-1.5
N14975 Y30.587 Z-0.55 J1.5
N14980 Y27.587 Z-0.6 J-1.5
N14985 Y30.587 Z-0.65 J1.5
N14990 Y27.587 Z-0.7 J-1.5
N14995 Y30.587 Z-0.75 J1.5
N15000 Y27.587 Z-0.8 J-1.5
N15005 Y30.587 Z-0.85 J1.5
N15010 Y27.587 Z-0.9 J-1.5
N15015 Y30.587 Z-0.95 J1.5
N15020 Y27.587 Z-1 J-1.5
N15025 Y30.587 Z-1.05 J1.5
N15030 Y27.587 Z-1.1 J-1.5
N15035 Y30.587 Z-1.15 J1.5
N15040 Y27.587 Z-1.2 J-1.5
N15045 Y30.587 Z-1.25 J1.5
N15050 Y27.587 Z-1.3 J-1.5
N15055 Y30.587 Z-1.35 J1.5
N15060 Y27.587 Z-1.4 J-1.5
N15065 Y30.587 Z-1.45 J1.5
N15070 Y27.587 Z-1.5 J-1.5
N15075 Y30.587 Z-1.55 J1.5
N15080 Y27.587 Z-1.6 J-1.5
N15085 Y30.587 Z-1.65 J1.5
N15090 Y27.587 Z-1.7 J-1.5
N15095 Y30.587 Z-1.75 J1.5
N15100 Y27.587 Z-1.8 J-1.5
N15105 Y30.587 Z-1.85 J1.5
N15110 Y27.587 Z-1.9 J-1.5
N15115 Y30.587 Z-1.95 J1.5
N15120 Y27.587 Z-2 J-1.5
N15125 Y30.587 Z-2.05 J1.5
N15130 Y27.587 Z-2.1 J-1.5
N15135 Y30.587 Z-2.15 J1.5
N15140 Y27.587 Z-2.2 J-1.5
N15145 Y30.587 Z-2.25 J1.5
N15150 Y27.587 Z-2.3 J-1.5
N15155 Y30.587 Z-2.35 J1.5
N15160 Y27.587 Z-2.4 J-1.5
N15165 Y30.587 Z-2.45 J1.5
N15170 Y27.587 Z-2.5 J-1.5
N15175 Y30.587 Z-2.55 J1.5
N15180 Y27.587 Z-2.6 J-1.5
N15185 Y30.587 Z-2.65 J1.5
N15190 Y27.587 Z-2.7 J-1.5
N15195 Y30.587 Z-2.75 J1.5
N15200 Y27.587 Z-2.8 J-1.5
N15205 Y30.587 Z-2.85 J1.5
N15210 Y27.587 Z-2.9 J-1.5
N15215 Y30.587 Z-2.95 J1.5
N15220 Y27.587 Z-3 J-1.5
N15225 Y30.587 Z-3.05 J1.5
N15230 Y27.587 Z-3.1 J-1.5
N15235 Y30.587 Z-3.15 J1.5
N15240 Y27.587 Z-3.2 J-1.5
N15245 Y30.587 J1.5
N15250 Y27.587 J-1.5
N15255 X39.244 Y27.887 J0.3
N15260 G1 Y28.037
N15265 G19 G3 Y28.337 Z-2.9 K0.3
N15270 G0 Z2.3
N15275 X24.818 Y37.019
N15280 G1 Z0.6 F50
N15285 G2 Y36.719 Z0.3 J-0.3
N15290 G1 Y36.569
N15295 G17 G3 X25.118 Y36.269 I0.3
N15300 Y39.269 Z0.25 J1.5 F800
N15305 Y36.269 Z0.2 J-1.5
N15310 Y39.269 Z0.15 J1.5
N15315 Y36.269 Z0.1 J-1.5
N15320 Y39.269 Z0.05 J1.5
N15325 Y36.269 Z0 J-1.5
N15330 Y39.269 Z-0.05 J1.5
N15335 Y36.269 Z-0.1 J-1.5
N15340 Y39.269 Z-0.15 J1.5
N15345 Y36.269 Z-0.2 J-1.5
N15350 Y39.269 Z-0.25 J1.5
N15355 Y36.269 Z-0.3 J-1.5
N15360 Y39.269 Z-0.35 J1.5
N15365 Y36.269 Z-0.4 J-1.5
N15370 Y39.269 Z-0.45 J1.5
N15375 Y36.269 Z-0.5 J-1.5
N15380 Y39.269 Z-0.55 J1.5
N15385 Y36.269 Z-0.6 J-1.5
N15390 Y39.269 Z-0.65 J1.5
N15395 Y36.269 Z-0.7 J-1.5
N15400 Y39.269 Z-0.75 J1.5
N15405 Y36.269 Z-0.8 J-1.5
N15410 Y39.269 Z-0.85 J1.5
N15415 Y36.269 Z-0.9 J-1.5
N15420 Y39.269 Z-0.95 J1.5
N15425 Y36.269 Z-1 J-1.5
N15430 Y39.269 Z-1.05 J1.5
N15435 Y36.269 Z-1.1 J-1.5
N15440 Y39.269 Z-1.15 J1.5
N15445 Y36.269 Z-1.2 J-1.5
N15450 Y39.269 Z-1.25 J1.5
N15455 Y36.269 Z-1.3 J-1.5
N15460 Y39.269 Z-1.35 J1.5
N15465 Y36.269 Z-1.4 J-1.5
N15470 Y39.269 Z-1.45 J1.5
N15475 Y36.269 Z-1.5 J-1.5
N15480 Y39.269 Z-1.55 J1.5
N15485 Y36.269 Z-1.6 J-1.5
N15490 Y39.269 Z-1.65 J1.5
N15495 Y36.269 Z-1.7 J-1.5
N15500 Y39.269 Z-1.75 J1.5
N15505 Y36.269 Z-1.8 J-1.5
N15510 Y39.269 Z-1.85 J1.5
N15515 Y36.269 Z-1.9 J-1.5
N15520 Y39.269 Z-1.95 J1.5
N15525 Y36.269 Z-2 J-1.5
N15530 Y39.269 Z-2.05 J1.5
N15535 Y36.269 Z-2.1 J-1.5
N15540 Y39.269 Z-2.15 J1.5
N15545 Y36.269 Z-2.2 J-1.5
N15550 Y39.269 Z-2.25 J1.5
N15555 Y36.269 Z-2.3 J-1.5
N15560 Y39.269 Z-2.35 J1.5
N15565 Y36.269 Z-2.4 J-1.5
N15570 Y39.269 Z-2.45 J1.5
N15575 Y36.269 Z-2.5 J-1.5
N15580 Y39.269 Z-2.55 J1.5
N15585 Y36.269 Z-2.6 J-1.5
N15590 Y39.269 Z-2.65 J1.5
N15595 Y36.269 Z-2.7 J-1.5
N15600 Y39.269 Z-2.75 J1.5
N15605 Y36.269 Z-2.8 J-1.5
N15610 Y39.269 Z-2.85 J1.5
N15615 Y36.269 Z-2.9 J-1.5
N15620 Y39.269 Z-2.95 J1.5
N15625 Y36.269 Z-3 J-1.5
N15630 Y39.269 Z-3.05 J1.5
N15635 Y36.269 Z-3.1 J-1.5
N15640 Y39.269 Z-3.15 J1.5
N15645 Y36.269 Z-3.2 J-1.5
N15650 Y39.269 J1.5
N15655 Y36.269 J-1.5
N15660 X25.418 Y36.569 J0.3
N15665 G1 Y36.719
N15670 G19 G3 Y37.019 Z-2.9 K0.3
N15675 G0 Z2.3
N15680 X16.3 Y50.901
N15685 G1 Z0.6 F50
N15690 G3 Y51.201 Z0.3 J0.3
N15695 G1 Y51.351
N15700 G17 G3 X16 Y51.651 I-0.3
N15705 Y48.651 Z0.25 J-1.5 F800
N15710 Y51.651 Z0.2 J1.5
N15715 Y48.651 Z0.15 J-1.5
N15720 Y51.651 Z0.1 J1.5
N15725 Y48.651 Z0.05 J-1.5
N15730 Y51.651 Z0 J1.5
N15735 Y48.651 Z-0.05 J-1.5
N15740 Y51.651 Z-0.1 J1.5
N15745 Y48.651 Z-0.15 J-1.5
N15750 Y51.651 Z-0.2 J1.5
N15755 Y48.651 Z-0.25 J-1.5
N15760 Y51.651 Z-0.3 J1.5
N15765 Y48.651 Z-0.35 J-1.5
N15770 Y51.651 Z-0.4 J1.5
N15775 Y48.651 Z-0.45 J-1.5
N15780 Y51.651 Z-0.5 J1.5
N15785 Y48.651 Z-0.55 J-1.5
N15790 Y51.651 Z-0.6 J1.5
N15795 Y48.651 Z-0.65 J-1.5
N15800 Y51.651 Z-0.7 J1.5
N15805 Y48.651 Z-0.75 J-1.5
N15810 Y51.651 Z-0.8 J1.5
N15815 Y48.651 Z-0.85 J-1.5
N15820 Y51.651 Z-0.9 J1.5
N15825 Y48.651 Z-0.95 J-1.5
N15830 Y51.651 Z-1 J1.5
N15835 Y48.651 Z-1.05 J-1.5
N15840 Y51.651 Z-1.1 J1.5
N15845 Y48.651 Z-1.15 J-1.5
N15850 Y51.651 Z-1.2 J1.5
N15855 Y48.651 Z-1.25 J-1.5
N15860 Y51.651 Z-1.3 J1.5
N15865 Y48.651 Z-1.35 J-1.5
N15870 Y51.651 Z-1.4 J1.5
N15875 Y48.651 Z-1.45 J-1.5
N15880 Y51.651 Z-1.5 J1.5
N15885 Y48.651 Z-1.55 J-1.5
N15890 Y51.651 Z-1.6 J1.5
N15895 Y48.651 Z-1.65 J-1.5
N15900 Y51.651 Z-1.7 J1.5
N15905 Y48.651 Z-1.75 J-1.5
N15910 Y51.651 Z-1.8 J1.5
N15915 Y48.651 Z-1.85 J-1.5
N15920 Y51.651 Z-1.9 J1.5
N15925 Y48.651 Z-1.95 J-1.5
N15930 Y51.651 Z-2 J1.5
N15935 Y48.651 Z-2.05 J-1.5
N15940 Y51.651 Z-2.1 J1.5
N15945 Y48.651 Z-2.15 J-1.5
N15950 Y51.651 Z-2.2 J1.5
N15955 Y48.651 J-1.5
N15960 Y51.651 J1.5
N15965 X15.7 Y51.351 J-0.3
N15970 G1 Y51.201
N15975 G19 G2 Y50.901 Z-1.9 K0.3
N15980 G0 Z2.3
N15985 X9.287 Y62.5
N15990 G1 Z0.6 F50
N15995 G2 Y62.2 Z0.3 J-0.3
N16000 G1 Y62.05
N16005 G17 G3 X9.587 Y61.75 I0.3
N16010 Y64.75 Z0.25 J1.5 F800
N16015 Y61.75 Z0.2 J-1.5
N16020 Y64.75 Z0.15 J1.5
N16025 Y61.75 Z0.1 J-1.5
N16030 Y64.75 Z0.05 J1.5
N16035 Y61.75 Z0 J-1.5
N16040 Y64.75 Z-0.05 J1.5
N16045 Y61.75 Z-0.1 J-1.5
N16050 Y64.75 Z-0.15 J1.5
N16055 Y61.75 Z-0.2 J-1.5
N16060 Y64.75 Z-0.25 J1.5
N16065 Y61.75 Z-0.3 J-1.5
N16070 Y64.75 Z-0.35 J1.5
N16075 Y61.75 Z-0.4 J-1.5
N16080 Y64.75 Z-0.45 J1.5
N16085 Y61.75 Z-0.5 J-1.5
N16090 Y64.75 Z-0.55 J1.5
N16095 Y61.75 Z-0.6 J-1.5
N16100 Y64.75 Z-0.65 J1.5
N16105 Y61.75 Z-0.7 J-1.5
N16110 Y64.75 Z-0.75 J1.5
N16115 Y61.75 Z-0.8 J-1.5
N16120 Y64.75 Z-0.85 J1.5
N16125 Y61.75 Z-0.9 J-1.5
N16130 Y64.75 Z-0.95 J1.5
N16135 Y61.75 Z-1 J-1.5
N16140 Y64.75 Z-1.05 J1.5
N16145 Y61.75 Z-1.1 J-1.5
N16150 Y64.75 Z-1.15 J1.5
N16155 Y61.75 Z-1.2 J-1.5
N16160 Y64.75 Z-1.25 J1.5
N16165 Y61.75 Z-1.3 J-1.5
N16170 Y64.75 Z-1.35 J1.5
N16175 Y61.75 Z-1.4 J-1.5
N16180 Y64.75 Z-1.45 J1.5
N16185 Y61.75 Z-1.5 J-1.5
N16190 Y64.75 Z-1.55 J1.5
N16195 Y61.75 Z-1.6 J-1.5
N16200 Y64.75 Z-1.65 J1.5
N16205 Y61.75 Z-1.7 J-1.5
N16210 Y64.75 Z-1.75 J1.5
N16215 Y61.75 Z-1.8 J-1.5
N16220 Y64.75 Z-1.85 J1.5
N16225 Y61.75 Z-1.9 J-1.5
N16230 Y64.75 Z-1.95 J1.5
N16235 Y61.75 Z-2 J-1.5
N16240 Y64.75 Z-2.05 J1.5
N16245 Y61.75 Z-2.1 J-1.5
N16250 Y64.75 Z-2.15 J1.5
N16255 Y61.75 Z-2.2 J-1.5
N16260 Y64.75 Z-2.25 J1.5
N16265 Y61.75 Z-2.3 J-1.5
N16270 Y64.75 Z-2.35 J1.5
N16275 Y61.75 Z-2.4 J-1.5
N16280 Y64.75 Z-2.45 J1.5
N16285 Y61.75 Z-2.5 J-1.5
N16290 Y64.75 Z-2.55 J1.5
N16295 Y61.75 Z-2.6 J-1.5
N16300 Y64.75 Z-2.65 J1.5
N16305 Y61.75 Z-2.7 J-1.5
N16310 Y64.75 Z-2.75 J1.5
N16315 Y61.75 Z-2.8 J-1.5
N16320 Y64.75 Z-2.85 J1.5
N16325 Y61.75 Z-2.9 J-1.5
N16330 Y64.75 Z-2.95 J1.5
N16335 Y61.75 Z-3 J-1.5
N16340 Y64.75 Z-3.05 J1.5
N16345 Y61.75 Z-3.1 J-1.5
N16350 Y64.75 Z-3.15 J1.5
N16355 Y61.75 Z-3.2 J-1.5
N16360 Y64.75 J1.5
N16365 Y61.75 J-1.5
N16370 X9.887 Y62.05 J0.3
N16375 G1 Y62.2
N16380 G19 G3 Y62.5 Z-2.9 K0.3
N16385 G0 Z2.3
N16390 X3.8 Y29.25
N16395 G1 Z0.6 F50
N16400 G3 Y29.55 Z0.3 J0.3
N16405 G1 Y29.7
N16410 G17 G3 X3.5 Y30 I-0.3
N16415 Y27 Z0.25 J-1.5 F800
N16420 Y30 Z0.2 J1.5
N16425 Y27 Z0.15 J-1.5
N16430 Y30 Z0.1 J1.5
N16435 Y27 Z0.05 J-1.5
N16440 Y30 Z0 J1.5
N16445 Y27 Z-0.05 J-1.5
N16450 Y30 Z-0.1 J1.5
N16455 Y27 Z-0.15 J-1.5
N16460 Y30 Z-0.2 J1.5
N16465 Y27 Z-0.25 J-1.5
N16470 Y30 Z-0.3 J1.5
N16475 Y27 Z-0.35 J-1.5
N16480 Y30 Z-0.4 J1.5
N16485 Y27 Z-0.45 J-1.5
N16490 Y30 Z-0.5 J1.5
N16495 Y27 Z-0.55 J-1.5
N16500 Y30 Z-0.6 J1.5
N16505 Y27 Z-0.65 J-1.5
N16510 Y30 Z-0.7 J1.5
N16515 Y27 Z-0.75 J-1.5
N16520 Y30 Z-0.8 J1.5
N16525 Y27 Z-0.85 J-1.5
N16530 Y30 Z-0.9 J1.5
N16535 Y27 Z-0.95 J-1.5
N16540 Y30 Z-1 J1.5
N16545 Y27 Z-1.05 J-1.5
N16550 Y30 Z-1.1 J1.5
N16555 Y27 Z-1.15 J-1.5
N16560 Y30 Z-1.2 J1.5
N16565 Y27 Z-1.25 J-1.5
N16570 Y30 Z-1.3 J1.5
N16575 Y27 Z-1.35 J-1.5
N16580 Y30 Z-1.4 J1.5
N16585 Y27 Z-1.45 J-1.5
N16590 Y30 Z-1.5 J1.5
N16595 Y27 Z-1.55 J-1.5
N16600 Y30 Z-1.6 J1.5
N16605 Y27 Z-1.65 J-1.5
N16610 Y30 Z-1.7 J1.5
N16615 Y27 Z-1.75 J-1.5
N16620 Y30 Z-1.8 J1.5
N16625 Y27 Z-1.85 J-1.5
N16630 Y30 Z-1.9 J1.5
N16635 Y27 Z-1.95 J-1.5
N16640 Y30 Z-2 J1.5
N16645 Y27 Z-2.05 J-1.5
N16650 Y30 Z-2.1 J1.5
N16655 Y27 Z-2.15 J-1.5
N16660 Y30 Z-2.2 J1.5
N16665 Y27 J-1.5
N16670 Y30 J1.5
N16675 X3.2 Y29.7 J-0.3
N16680 G1 Y29.55
N16685 G19 G2 Y29.25 Z-1.9 K0.3
N16690 G0 Z2.3
N16695 X16.3 Y7.599
N16700 G1 Z0.6 F50
N16705 G3 Y7.899 Z0.3 J0.3
N16710 G1 Y8.049
N16715 G17 G3 X16 Y8.349 I-0.3
N16720 Y5.349 Z0.25 J-1.5 F800
N16725 Y8.349 Z0.2 J1.5
N16730 Y5.349 Z0.15 J-1.5
N16735 Y8.349 Z0.1 J1.5
N16740 Y5.349 Z0.05 J-1.5
N16745 Y8.349 Z0 J1.5
N16750 Y5.349 Z-0.05 J-1.5
N16755 Y8.349 Z-0.1 J1.5
N16760 Y5.349 Z-0.15 J-1.5
N16765 Y8.349 Z-0.2 J1.5
N16770 Y5.349 Z-0.25 J-1.5
N16775 Y8.349 Z-0.3 J1.5
N16780 Y5.349 Z-0.35 J-1.5
N16785 Y8.349 Z-0.4 J1.5
N16790 Y5.349 Z-0.45 J-1.5
N16795 Y8.349 Z-0.5 J1.5
N16800 Y5.349 Z-0.55 J-1.5
N16805 Y8.349 Z-0.6 J1.5
N16810 Y5.349 Z-0.65 J-1.5
N16815 Y8.349 Z-0.7 J1.5
N16820 Y5.349 Z-0.75 J-1.5
N16825 Y8.349 Z-0.8 J1.5
N16830 Y5.349 Z-0.85 J-1.5
N16835 Y8.349 Z-0.9 J1.5
N16840 Y5.349 Z-0.95 J-1.5
N16845 Y8.349 Z-1 J1.5
N16850 Y5.349 Z-1.05 J-1.5
N16855 Y8.349 Z-1.1 J1.5
N16860 Y5.349 Z-1.15 J-1.5
N16865 Y8.349 Z-1.2 J1.5
N16870 Y5.349 Z-1.25 J-1.5
N16875 Y8.349 Z-1.3 J1.5
N16880 Y5.349 Z-1.35 J-1.5
N16885 Y8.349 Z-1.4 J1.5
N16890 Y5.349 Z-1.45 J-1.5
N16895 Y8.349 Z-1.5 J1.5
N16900 Y5.349 Z-1.55 J-1.5
N16905 Y8.349 Z-1.6 J1.5
N16910 Y5.349 Z-1.65 J-1.5
N16915 Y8.349 Z-1.7 J1.5
N16920 Y5.349 Z-1.75 J-1.5
N16925 Y8.349 Z-1.8 J1.5
N16930 Y5.349 Z-1.85 J-1.5
N16935 Y8.349 Z-1.9 J1.5
N16940 Y5.349 Z-1.95 J-1.5
N16945 Y8.349 Z-2 J1.5
N16950 Y5.349 Z-2.05 J-1.5
N16955 Y8.349 Z-2.1 J1.5
N16960 Y5.349 Z-2.15 J-1.5
N16965 Y8.349 Z-2.2 J1.5
N16970 Y5.349 J-1.5
N16975 Y8.349 J1.5
N16980 X15.7 Y8.049 J-0.3
N16985 G1 Y7.899
N16990 G19 G2 Y7.599 Z-1.9 K0.3
N16995 G0 Z2.3
N17000 X23.711 Y19.343
N17005 G1 Z0.6 F50
N17010 G2 Y19.043 Z0.3 J-0.3
N17015 G1 Y18.893
N17020 G17 G3 X24.011 Y18.593 I0.3
N17025 Y21.593 Z0.25 J1.5 F800
N17030 Y18.593 Z0.2 J-1.5
N17035 Y21.593 Z0.15 J1.5
N17040 Y18.593 Z0.1 J-1.5
N17045 Y21.593 Z0.05 J1.5
N17050 Y18.593 Z0 J-1.5
N17055 Y21.593 Z-0.05 J1.5
N17060 Y18.593 Z-0.1 J-1.5
N17065 Y21.593 Z-0.15 J1.5
N17070 Y18.593 Z-0.2 J-1.5
N17075 Y21.593 Z-0.25 J1.5
N17080 Y18.593 Z-0.3 J-1.5
N17085 Y21.593 Z-0.35 J1.5
N17090 Y18.593 Z-0.4 J-1.5
N17095 Y21.593 Z-0.45 J1.5
N17100 Y18.593 Z-0.5 J-1.5
N17105 Y21.593 Z-0.55 J1.5
N17110 Y18.593 Z-0.6 J-1.5
N17115 Y21.593 Z-0.65 J1.5
N17120 Y18.593 Z-0.7 J-1.5
N17125 Y21.593 Z-0.75 J1.5
N17130 Y18.593 Z-0.8 J-1.5
N17135 Y21.593 Z-0.85 J1.5
N17140 Y18.593 Z-0.9 J-1.5
N17145 Y21.593 Z-0.95 J1.5
N17150 Y18.593 Z-1 J-1.5
N17155 Y21.593 Z-1.05 J1.5
N17160 Y18.593 Z-1.1 J-1.5
N17165 Y21.593 Z-1.15 J1.5
N17170 Y18.593 Z-1.2 J-1.5
N17175 Y21.593 Z-1.25 J1.5
N17180 Y18.593 Z-1.3 J-1.5
N17185 Y21.593 Z-1.35 J1.5
N17190 Y18.593 Z-1.4 J-1.5
N17195 Y21.593 Z-1.45 J1.5
N17200 Y18.593 Z-1.5 J-1.5
N17205 Y21.593 Z-1.55 J1.5
N17210 Y18.593 Z-1.6 J-1.5
N17215 Y21.593 Z-1.65 J1.5
N17220 Y18.593 Z-1.7 J-1.5
N17225 Y21.593 Z-1.75 J1.5
N17230 Y18.593 Z-1.8 J-1.5
N17235 Y21.593 Z-1.85 J1.5
N17240 Y18.593 Z-1.9 J-1.5
N17245 Y21.593 Z-1.95 J1.5
N17250 Y18.593 Z-2 J-1.5
N17255 Y21.593 Z-2.05 J1.5
N17260 Y18.593 Z-2.1 J-1.5
N17265 Y21.593 Z-2.15 J1.5
N17270 Y18.593 Z-2.2 J-1.5
N17275 Y21.593 Z-2.25 J1.5
N17280 Y18.593 Z-2.3 J-1.5
N17285 Y21.593 Z-2.35 J1.5
N17290 Y18.593 Z-2.4 J-1.5
N17295 Y21.593 Z-2.45 J1.5
N17300 Y18.593 Z-2.5 J-1.5
N17305 Y21.593 Z-2.55 J1.5
N17310 Y18.593 Z-2.6 J-1.5
N17315 Y21.593 Z-2.65 J1.5
N17320 Y18.593 Z-2.7 J-1.5
N17325 Y21.593 Z-2.75 J1.5
N17330 Y18.593 Z-2.8 J-1.5
N17335 Y21.593 Z-2.85 J1.5
N17340 Y18.593 Z-2.9 J-1.5
N17345 Y21.593 Z-2.95 J1.5
N17350 Y18.593 Z-3 J-1.5
N17355 Y21.593 Z-3.05 J1.5
N17360 Y18.593 Z-3.1 J-1.5
N17365 Y21.593 Z-3.15 J1.5
N17370 Y18.593 Z-3.2 J-1.5
N17375 Y21.593 J1.5
N17380 Y18.593 J-1.5
N17385 X24.311 Y18.893 J0.3
N17390 G1 Y19.043
N17395 G19 G3 Y19.343 Z-2.9 K0.3
N17400 G0 Z2.3
N17405 X41.3 Y7.599
N17410 G1 Z0.6 F50
N17415 G3 Y7.899 Z0.3 J0.3
N17420 G1 Y8.049
N17425 G17 G3 X41 Y8.349 I-0.3
N17430 Y5.349 Z0.25 J-1.5 F800
N17435 Y8.349 Z0.2 J1.5
N17440 Y5.349 Z0.15 J-1.5
N17445 Y8.349 Z0.1 J1.5
N17450 Y5.349 Z0.05 J-1.5
N17455 Y8.349 Z0 J1.5
N17460 Y5.349 Z-0.05 J-1.5
N17465 Y8.349 Z-0.1 J1.5
N17470 Y5.349 Z-0.15 J-1.5
N17475 Y8.349 Z-0.2 J1.5
N17480 Y5.349 Z-0.25 J-1.5
N17485 Y8.349 Z-0.3 J1.5
N17490 Y5.349 Z-0.35 J-1.5
N17495 Y8.349 Z-0.4 J1.5
N17500 Y5.349 Z-0.45 J-1.5
N17505 Y8.349 Z-0.5 J1.5
N17510 Y5.349 Z-0.55 J-1.5
N17515 Y8.349 Z-0.6 J1.5
N17520 Y5.349 Z-0.65 J-1.5
N17525 Y8.349 Z-0.7 J1.5
N17530 Y5.349 Z-0.75 J-1.5
N17535 Y8.349 Z-0.8 J1.5
N17540 Y5.349 Z-0.85 J-1.5
N17545 Y8.349 Z-0.9 J1.5
N17550 Y5.349 Z-0.95 J-1.5
N17555 Y8.349 Z-1 J1.5
N17560 Y5.349 Z-1.05 J-1.5
N17565 Y8.349 Z-1.1 J1.5
N17570 Y5.349 Z-1.15 J-1.5
N17575 Y8.349 Z-1.2 J1.5
N17580 Y5.349 Z-1.25 J-1.5
N17585 Y8.349 Z-1.3 J1.5
N17590 Y5.349 Z-1.35 J-1.5
N17595 Y8.349 Z-1.4 J1.5
N17600 Y5.349 Z-1.45 J-1.5
N17605 Y8.349 Z-1.5 J1.5
N17610 Y5.349 Z-1.55 J-1.5
N17615 Y8.349 Z-1.6 J1.5
N17620 Y5.349 Z-1.65 J-1.5
N17625 Y8.349 Z-1.7 J1.5
N17630 Y5.349 Z-1.75 J-1.5
N17635 Y8.349 Z-1.8 J1.5
N17640 Y5.349 Z-1.85 J-1.5
N17645 Y8.349 Z-1.9 J1.5
N17650 Y5.349 Z-1.95 J-1.5
N17655 Y8.349 Z-2 J1.5
N17660 Y5.349 Z-2.05 J-1.5
N17665 Y8.349 Z-2.1 J1.5
N17670 Y5.349 Z-2.15 J-1.5
N17675 Y8.349 Z-2.2 J1.5
N17680 Y5.349 J-1.5
N17685 Y8.349 J1.5
N17690 X40.7 Y8.049 J-0.3
N17695 G1 Y7.899
N17700 G19 G2 Y7.599 Z-1.9 K0.3
N17705 G0 Z2.3
N17710 G17

(??2)
N17715 G0 X53.5 Y28.5
N17720 Z2.3
N17725 Z0
N17730 G1 Z-1.7 F50
N17735 X53.475 Y28.475
N17740 X53.482 Y28.457
N17745 X53.5 Y28.45
N17750 X53.527 Y28.458 Z-1.709 F800
N17755 X53.545 Y28.479 Z-1.718
N17760 X53.55 Y28.506 Z-1.727
N17765 X53.539 Y28.532 Z-1.736
N17770 X53.516 Y28.547 Z-1.745
N17775 X53.488 Y28.549 Z-1.754
N17780 X53.464 Y28.535 Z-1.763
N17785 X53.451 Y28.51 Z-1.772
N17790 X53.453 Y28.482 Z-1.781
N17795 X53.47 Y28.46 Z-1.79
N17800 X53.496 Y28.45 Z-1.799
N17805 X53.523 Y28.456 Z-1.808
N17810 X53.543 Y28.475 Z-1.817
N17815 X53.55 Y28.502 Z-1.826
N17820 X53.541 Y28.529 Z-1.835
N17825 X53.519 Y28.546 Z-1.844
N17830 X53.492 Y28.549 Z-1.853
N17835 X53.467 Y28.537 Z-1.862
N17840 X53.452 Y28.513 Z-1.871
N17845 Y28.486 Z-1.88
N17850 X53.467 Y28.462 Z-1.889
N17855 X53.493 Y28.451 Z-1.898
N17860 X53.52 Y28.454 Z-1.907
N17865 X53.541 Y28.472 Z-1.916
N17870 X53.55 Y28.499 Z-1.925
N17875 X53.543 Y28.526 Z-1.934
N17880 X53.523 Y28.545 Z-1.943
N17885 X53.495 Y28.55 Z-1.951
N17890 X53.469 Y28.54 Z-1.96
N17895 X53.453 Y28.517 Z-1.969
N17900 X53.451 Y28.489 Z-1.978
N17905 X53.464 Y28.465 Z-1.987
N17910 X53.489 Y28.451 Z-1.996
N17915 X53.517 Y28.453 Z-2.005
N17920 X53.539 Y28.469 Z-2.014
N17925 X53.55 Y28.495 Z-2.023
N17930 X53.545 Y28.522 Z-2.032
N17935 X53.526 Y28.543 Z-2.041
N17940 X53.499 Y28.55 Z-2.05
N17945 X53.472 Y28.542 Z-2.059
N17950 X53.454 Y28.521 Z-2.068
N17955 X53.45 Y28.493 Z-2.077
N17960 X53.462 Y28.468 Z-2.086
N17965 X53.485 Y28.452 Z-2.095
N17970 X53.513 Z-2.104
N17975 X53.537 Y28.466 Z-2.113
N17980 X53.549 Y28.491 Z-2.122
N17985 X53.546 Y28.519 Z-2.131
N17990 X53.529 Y28.541 Z-2.14
N17995 X53.503 Y28.55 Z-2.149
N18000 X53.476 Y28.544 Z-2.158
N18005 X53.456 Y28.524 Z-2.167
N18010 X53.45 Y28.497 Z-2.176
N18015 X53.46 Y28.471 Z-2.185
N18020 X53.482 Y28.453 Z-2.194
N18025 X53.509 Y28.451 Z-2.203
N18030 X53.534 Y28.464 Z-2.212
N18035 X53.548 Y28.487 Z-2.221
N18040 Y28.515 Z-2.23
N18045 X53.532 Y28.538 Z-2.239
N18050 X53.507 Y28.55 Z-2.248
N18055 X53.479 Y28.545 Z-2.257
N18060 X53.458 Y28.527 Z-2.266
N18065 X53.45 Y28.5 Z-2.275
N18070 X53.458 Y28.474 Z-2.284
N18075 X53.478 Y28.455 Z-2.293
N18080 X53.506 Y28.45 Z-2.302
N18085 X53.531 Y28.461 Z-2.311
N18090 X53.547 Y28.484 Z-2.32
N18095 X53.549 Y28.512 Z-2.329
N18100 X53.535 Y28.536 Z-2.338
N18105 X53.51 Y28.549 Z-2.347
N18110 X53.483 Y28.547 Z-2.356
N18115 X53.46 Y28.53 Z-2.365
N18120 X53.45 Y28.504 Z-2.374
N18125 X53.456 Y28.477 Z-2.383
N18130 X53.475 Y28.457 Z-2.392
N18135 X53.502 Y28.45 Z-2.401
N18140 X53.528 Y28.459 Z-2.41
N18145 X53.546 Y28.48 Z-2.419
N18150 X53.549 Y28.508 Z-2.428
N18155 X53.537 Y28.533 Z-2.437
N18160 X53.514 Y28.548 Z-2.446
N18165 X53.486 Z-2.454
N18170 X53.463 Y28.533 Z-2.463
N18175 X53.451 Y28.508 Z-2.472
N18180 X53.454 Y28.48 Z-2.481
N18185 X53.472 Y28.459 Z-2.49
N18190 X53.498 Y28.45 Z-2.499
N18195 X53.525 Y28.457 Z-2.508
N18200 X53.544 Y28.477 Z-2.517
N18205 X53.55 Y28.504 Z-2.526
N18210 X53.54 Y28.53 Z-2.535
N18215 X53.517 Y28.547 Z-2.544
N18220 X53.49 Y28.549 Z-2.553
N18225 X53.465 Y28.536 Z-2.562
N18230 X53.451 Y28.512 Z-2.571
N18235 X53.453 Y28.484 Z-2.58
N18240 X53.469 Y28.461 Z-2.589
N18245 X53.494 Y28.45 Z-2.598
N18250 X53.522 Y28.455 Z-2.607
N18255 X53.542 Y28.474 Z-2.616
N18260 X53.55 Y28.5 Z-2.625
N18265 X53.542 Y28.527 Z-2.634
N18270 X53.521 Y28.545 Z-2.643
N18275 X53.493 Y28.55 Z-2.652
N18280 X53.468 Y28.538 Z-2.661
N18285 X53.452 Y28.515 Z-2.67
N18290 Y28.487 Z-2.679
N18295 X53.466 Y28.464 Z-2.688
N18300 X53.491 Y28.451 Z-2.697
N18305 X53.518 Y28.453 Z-2.706
N18310 X53.54 Y28.471 Z-2.715
N18315 X53.55 Y28.497 Z-2.724
N18320 X53.544 Y28.524 Z-2.733
N18325 X53.524 Y28.544 Z-2.742
N18330 X53.497 Y28.55 Z-2.751
N18335 X53.471 Y28.541 Z-2.76
N18340 X53.454 Y28.519 Z-2.769
N18345 X53.451 Y28.491 Z-2.778
N18350 X53.463 Y28.466 Z-2.787
N18355 X53.487 Y28.452 Z-2.796
N18360 X53.515 Z-2.805
N18365 X53.538 Y28.468 Z-2.814
N18370 X53.55 Y28.493 Z-2.823
N18375 X53.546 Y28.521 Z-2.832
N18380 X53.528 Y28.542 Z-2.841
N18385 X53.501 Y28.55 Z-2.85
N18390 X53.474 Y28.543 Z-2.859
N18395 X53.455 Y28.522 Z-2.868
N18400 X53.45 Y28.495 Z-2.877
N18405 X53.461 Y28.469 Z-2.886
N18410 X53.483 Y28.453 Z-2.895
N18415 X53.511 Y28.451 Z-2.904
N18420 X53.536 Y28.465 Z-2.913
N18425 X53.549 Y28.489 Z-2.922
N18430 X53.547 Y28.517 Z-2.931
N18435 X53.531 Y28.54 Z-2.94
N18440 X53.505 Y28.55 Z-2.949
N18445 X53.477 Y28.545 Z-2.957
N18450 X53.457 Y28.526 Z-2.966
N18455 X53.45 Y28.499 Z-2.975
N18460 X53.459 Y28.472 Z-2.984
N18465 X53.48 Y28.454 Z-2.993
N18470 X53.507 Y28.451 Z-3.002
N18475 X53.533 Y28.462 Z-3.011
N18480 X53.548 Y28.486 Z-3.02
N18485 Y28.513 Z-3.029
N18490 X53.533 Y28.537 Z-3.038
N18495 X53.508 Y28.549 Z-3.047
N18500 X53.481 Y28.546 Z-3.056
N18505 X53.459 Y28.529 Z-3.065
N18510 X53.45 Y28.502 Z-3.074
N18515 X53.457 Y28.475 Z-3.083
N18520 X53.477 Y28.456 Z-3.092
N18525 X53.504 Y28.45 Z-3.101
N18530 X53.53 Y28.46 Z-3.11
N18535 X53.547 Y28.482 Z-3.119
N18540 X53.549 Y28.51 Z-3.128
N18545 X53.536 Y28.535 Z-3.137
N18550 X53.512 Y28.549 Z-3.146
N18555 X53.484 Y28.547 Z-3.155
N18560 X53.461 Y28.532 Z-3.164
N18565 X53.45 Y28.506 Z-3.173
N18570 X53.455 Y28.479 Z-3.182
N18575 X53.473 Y28.458 Z-3.191
N18580 X53.5 Y28.45 Z-3.2
N18585 G3 Y28.55 J0.05
N18590 Y28.45 J-0.05
N18595 G1 X53.518 Y28.457
N18600 X53.525 Y28.475
N18605 X53.5 Y28.5
N18610 G0 Z2.3
N18615 X41 Y6.849
N18620 Z0
N18625 G1 Z-1.7 F50
N18630 X40.975 Y6.824
N18635 X40.982 Y6.807
N18640 X41 Y6.799
N18645 X41.027 Y6.807 Z-1.709 F800
N18650 X41.045 Y6.828 Z-1.718
N18655 X41.05 Y6.855 Z-1.727
N18660 X41.039 Y6.881 Z-1.736
N18665 X41.016 Y6.897 Z-1.745
N18670 X40.988 Y6.898 Z-1.754
N18675 X40.964 Y6.884 Z-1.763
N18680 X40.951 Y6.859 Z-1.772
N18685 X40.953 Y6.831 Z-1.781
N18690 X40.97 Y6.809 Z-1.79
N18695 X40.996 Y6.8 Z-1.799
N18700 X41.023 Y6.805 Z-1.808
N18705 X41.043 Y6.825 Z-1.817
N18710 X41.05 Y6.852 Z-1.826
N18715 X41.041 Y6.878 Z-1.835
N18720 X41.019 Y6.896 Z-1.844
N18725 X40.992 Y6.899 Z-1.853
N18730 X40.967 Y6.887 Z-1.862
N18735 X40.952 Y6.863 Z-1.871
N18740 Y6.835 Z-1.88
N18745 X40.967 Y6.812 Z-1.889
N18750 X40.993 Y6.8 Z-1.898
N18755 X41.02 Y6.804 Z-1.907
N18760 X41.041 Y6.821 Z-1.916
N18765 X41.05 Y6.848 Z-1.925
N18770 X41.043 Y6.875 Z-1.934
N18775 X41.023 Y6.894 Z-1.943
N18780 X40.995 Y6.899 Z-1.951
N18785 X40.969 Y6.889 Z-1.96
N18790 X40.953 Y6.866 Z-1.969
N18795 X40.951 Y6.839 Z-1.978
N18800 X40.964 Y6.814 Z-1.987
N18805 X40.989 Y6.801 Z-1.996
N18810 X41.017 Y6.802 Z-2.005
N18815 X41.039 Y6.818 Z-2.014
N18820 X41.05 Y6.844 Z-2.023
N18825 X41.045 Y6.872 Z-2.032
N18830 X41.026 Y6.892 Z-2.041
N18835 X40.999 Y6.899 Z-2.05
N18840 X40.972 Y6.891 Z-2.059
N18845 X40.954 Y6.87 Z-2.068
N18850 X40.95 Y6.842 Z-2.077
N18855 X40.962 Y6.817 Z-2.086
N18860 X40.985 Y6.802 Z-2.095
N18865 X41.013 Y6.801 Z-2.104
N18870 X41.037 Y6.816 Z-2.113
N18875 X41.049 Y6.84 Z-2.122
N18880 X41.046 Y6.868 Z-2.131
N18885 X41.029 Y6.89 Z-2.14
N18890 X41.003 Y6.899 Z-2.149
N18895 X40.976 Y6.893 Z-2.158
N18900 X40.956 Y6.873 Z-2.167
N18905 X40.95 Y6.846 Z-2.176
N18910 X40.96 Y6.82 Z-2.185
N18915 X40.982 Y6.803 Z-2.194
N18920 X41.009 Y6.8 Z-2.203
N18925 X41.034 Y6.813 Z-2.212
N18930 X41.048 Y6.837 Z-2.221
N18935 Y6.865 Z-2.23
N18940 X41.032 Y6.888 Z-2.239
N18945 X41.007 Y6.899 Z-2.248
N18950 X40.979 Y6.895 Z-2.257
N18955 X40.958 Y6.877 Z-2.266
N18960 X40.95 Y6.85 Z-2.275
N18965 X40.958 Y6.823 Z-2.284
N18970 X40.978 Y6.804 Z-2.293
N18975 X41.006 Y6.8 Z-2.302
N18980 X41.031 Y6.81 Z-2.311
N18985 X41.047 Y6.833 Z-2.32
N18990 X41.049 Y6.861 Z-2.329
N18995 X41.035 Y6.885 Z-2.338
N19000 X41.01 Y6.898 Z-2.347
N19005 X40.983 Y6.896 Z-2.356
N19010 X40.96 Y6.88 Z-2.365
N19015 X40.95 Y6.854 Z-2.374
N19020 X40.956 Y6.826 Z-2.383
N19025 X40.975 Y6.806 Z-2.392
N19030 X41.002 Y6.799 Z-2.401
N19035 X41.028 Y6.808 Z-2.41
N19040 X41.046 Y6.83 Z-2.419
N19045 X41.049 Y6.857 Z-2.428
N19050 X41.037 Y6.882 Z-2.437
N19055 X41.014 Y6.897 Z-2.446
N19060 X40.986 Z-2.454
N19065 X40.963 Y6.882 Z-2.463
N19070 X40.951 Y6.857 Z-2.472
N19075 X40.954 Y6.83 Z-2.481
N19080 X40.972 Y6.808 Z-2.49
N19085 X40.998 Y6.799 Z-2.499
N19090 X41.025 Y6.806 Z-2.508
N19095 X41.044 Y6.826 Z-2.517
N19100 X41.05 Y6.854 Z-2.526
N19105 X41.04 Y6.88 Z-2.535
N19110 X41.017 Y6.896 Z-2.544
N19115 X40.99 Y6.898 Z-2.553
N19120 X40.965 Y6.885 Z-2.562
N19125 X40.951 Y6.861 Z-2.571
N19130 X40.953 Y6.833 Z-2.58
N19135 X40.969 Y6.81 Z-2.589
N19140 X40.994 Y6.8 Z-2.598
N19145 X41.022 Y6.804 Z-2.607
N19150 X41.042 Y6.823 Z-2.616
N19155 X41.05 Y6.85 Z-2.625
N19160 X41.042 Y6.877 Z-2.634
N19165 X41.021 Y6.895 Z-2.643
N19170 X40.993 Y6.899 Z-2.652
N19175 X40.968 Y6.888 Z-2.661
N19180 X40.952 Y6.865 Z-2.67
N19185 Y6.837 Z-2.679
N19190 X40.966 Y6.813 Z-2.688
N19195 X40.991 Y6.8 Z-2.697
N19200 X41.018 Y6.803 Z-2.706
N19205 X41.04 Y6.82 Z-2.715
N19210 X41.05 Y6.846 Z-2.724
N19215 X41.044 Y6.873 Z-2.733
N19220 X41.024 Y6.893 Z-2.742
N19225 X40.997 Y6.899 Z-2.751
N19230 X40.971 Y6.89 Z-2.76
N19235 X40.954 Y6.868 Z-2.769
N19240 X40.951 Y6.84 Z-2.778
N19245 X40.963 Y6.816 Z-2.787
N19250 X40.987 Y6.801 Z-2.796
N19255 X41.015 Y6.802 Z-2.805
N19260 X41.038 Y6.817 Z-2.814
N19265 X41.05 Y6.842 Z-2.823
N19270 X41.046 Y6.87 Z-2.832
N19275 X41.028 Y6.891 Z-2.841
N19280 X41.001 Y6.899 Z-2.85
N19285 X40.974 Y6.892 Z-2.859
N19290 X40.955 Y6.872 Z-2.868
N19295 X40.95 Y6.844 Z-2.877
N19300 X40.961 Y6.818 Z-2.886
N19305 X40.983 Y6.802 Z-2.895
N19310 X41.011 Y6.801 Z-2.904
N19315 X41.036 Y6.814 Z-2.913
N19320 X41.049 Y6.839 Z-2.922
N19325 X41.047 Y6.866 Z-2.931
N19330 X41.031 Y6.889 Z-2.94
N19335 X41.005 Y6.899 Z-2.949
N19340 X40.977 Y6.894 Z-2.957
N19345 X40.957 Y6.875 Z-2.966
N19350 X40.95 Y6.848 Z-2.975
N19355 X40.959 Y6.821 Z-2.984
N19360 X40.98 Y6.804 Z-2.993
N19365 X41.007 Y6.8 Z-3.002
N19370 X41.033 Y6.812 Z-3.011
N19375 X41.048 Y6.835 Z-3.02
N19380 Y6.863 Z-3.029
N19385 X41.033 Y6.887 Z-3.038
N19390 X41.008 Y6.899 Z-3.047
N19395 X40.981 Y6.896 Z-3.056
N19400 X40.959 Y6.878 Z-3.065
N19405 X40.95 Y6.852 Z-3.074
N19410 X40.957 Y6.825 Z-3.083
N19415 X40.977 Y6.805 Z-3.092
N19420 X41.004 Y6.8 Z-3.101
N19425 X41.03 Y6.809 Z-3.11
N19430 X41.047 Y6.831 Z-3.119
N19435 X41.049 Y6.859 Z-3.128
N19440 X41.036 Y6.884 Z-3.137
N19445 X41.012 Y6.898 Z-3.146
N19450 X40.984 Y6.897 Z-3.155
N19455 X40.961 Y6.881 Z-3.164
N19460 X40.95 Y6.855 Z-3.173
N19465 X40.955 Y6.828 Z-3.182
N19470 X40.973 Y6.807 Z-3.191
