%
(1001)
(T3 D=3 CR=0 - ZMIN=-2.2 - flat end mill)
N10 G90 G94
N15 G17
N20 G21
N25 G28

(2D ??4)
N30 T3 M6
N35 S20000 M3
N40 G54
N45 M8
N50 G0 X239.948 Y156.096
N55 G43 Z2.3
N60 G1 Z0.5 F100
N65 X239.95 Y156.103 Z0.433 F50
N70 X239.954 Y156.125 Z0.37
N75 X239.961 Y156.16 Z0.313
N80 X239.971 Y156.206 Z0.265
N85 X239.982 Y156.262 Z0.23
N90 X239.995 Y156.324 Z0.208
N95 X240.009 Y156.39 Z0.2
N100 X240.069 Y156.683
N105 G3 X239.835 Y157.038 I-0.294 J0.06
N110 G2 X239.157 Y157.37 I0.301 J1.469 F800
N115 G1 X183.667 Y205.155
N120 X182.656 Y206.026
N125 G2 X182.311 Y206.457 I0.979 J1.137 F200
N130 X181.834 Y206.733 I0.502 J1.413 F800
N135 G1 X156.745 Y228.338
N140 G2 X160.559 Y321.533 I38.826 J45.086
N145 G1 X187.329 Y341.017
N150 G2 X187.827 Y341.254 I0.883 J-1.213 F200
N155 X188.205 Y341.653 I1.261 J-0.813 F800
N160 G1 X189.284 Y342.439
N165 X248.493 Y385.531
N170 G2 X249.437 Y385.817 I0.883 J-1.213
N175 G1 X264.425 Y385.204
N180 G2 X265.863 Y383.644 I-0.061 J-1.499
N185 G1 X265.004 Y362.661
N190 G2 X263.444 Y361.223 I-1.499 J0.061
N195 G1 X261.246 Y361.313
N200 X260.646 Y361.338 F200
N205 X260.446 Y356.442 F800
N210 X260.421 Y355.843 F200
N215 X263.219 Y355.729 F800
N220 G2 X264.657 Y354.169 I-0.061 J-1.499
N225 G1 X263.205 Y318.698
N230 G2 X262.991 Y317.986 I-1.499 J0.061
N235 G3 X259.125 Y223.505 I84.406 J-50.774
N240 G2 X259.28 Y222.778 I-1.344 J-0.666
N245 G1 X257.829 Y187.308
N250 G2 X256.269 Y185.87 I-1.499 J0.061
N255 G1 X254.07 Y185.96
N260 X253.471 Y185.985 F200
N265 X253.27 Y181.089 F800
N270 X253.246 Y180.489 F200
N275 X256.043 Y180.375 F800
N280 G2 X257.481 Y178.815 I-0.061 J-1.499
N285 G1 X256.623 Y157.833
N290 G2 X255.063 Y156.395 I-1.499 J0.061
N295 G1 X240.075 Y157.008
N300 X239.954 Y157.018
N305 X239.835 Y157.038
N310 G3 X239.481 Y156.804 I-0.06 J-0.294
N315 G1 X239.421 Y156.51
N320 X239.407 Y156.445 Z0.208
N325 X239.395 Y156.382 Z0.23
N330 X239.383 Y156.327 Z0.265
N335 X239.374 Y156.28 Z0.313
N340 X239.366 Y156.245 Z0.37
N345 X239.362 Y156.223 Z0.433
N350 X239.361 Y156.216 Z0.5
N355 G0 Z2.3
N360 X239.948 Y156.096
N365 G1 Z0.4 F100
N370 X239.95 Y156.103 Z0.333 F50
N375 X239.954 Y156.125 Z0.27
N380 X239.961 Y156.16 Z0.213
N385 X239.971 Y156.206 Z0.165
N390 X239.982 Y156.262 Z0.13
N395 X239.995 Y156.324 Z0.108
N400 X240.009 Y156.39 Z0.1
N405 X240.069 Y156.683
N410 G3 X239.835 Y157.038 I-0.294 J0.06
N415 G2 X239.157 Y157.37 I0.301 J1.469 F800
N420 G1 X183.667 Y205.155
N425 X182.656 Y206.026
N430 G2 X182.311 Y206.457 I0.979 J1.137 F200
N435 X181.834 Y206.733 I0.502 J1.413 F800
N440 G1 X156.745 Y228.338
N445 G2 X160.559 Y321.533 I38.826 J45.086
N450 G1 X187.329 Y341.017
N455 G2 X187.827 Y341.254 I0.883 J-1.213 F200
N460 X188.205 Y341.653 I1.261 J-0.813 F800
N465 G1 X189.284 Y342.439
N470 X248.493 Y385.531
N475 G2 X249.437 Y385.817 I0.883 J-1.213
N480 G1 X264.425 Y385.204
N485 G2 X265.863 Y383.644 I-0.061 J-1.499
N490 G1 X265.004 Y362.661
N495 G2 X263.444 Y361.223 I-1.499 J0.061
N500 G1 X261.246 Y361.313
N505 X260.646 Y361.338 F200
N510 X260.446 Y356.442 F800
N515 X260.421 Y355.843 F200
N520 X263.219 Y355.729 F800
N525 G2 X264.657 Y354.169 I-0.061 J-1.499
N530 G1 X263.205 Y318.698
N535 G2 X262.991 Y317.986 I-1.499 J0.061
N540 G3 X259.125 Y223.505 I84.406 J-50.774
N545 G2 X259.28 Y222.778 I-1.344 J-0.666
N550 G1 X257.829 Y187.308
N555 G2 X256.269 Y185.87 I-1.499 J0.061
N560 G1 X254.07 Y185.96
N565 X253.471 Y185.985 F200
N570 X253.27 Y181.089 F800
N575 X253.246 Y180.489 F200
N580 X256.043 Y180.375 F800
N585 G2 X257.481 Y178.815 I-0.061 J-1.499
N590 G1 X256.623 Y157.833
N595 G2 X255.063 Y156.395 I-1.499 J0.061
N600 G1 X240.075 Y157.008
N605 X239.954 Y157.018
N610 X239.835 Y157.038
N615 G3 X239.481 Y156.804 I-0.06 J-0.294
N620 G1 X239.421 Y156.51
N625 X239.407 Y156.445 Z0.108
N630 X239.395 Y156.382 Z0.13
N635 X239.383 Y156.327 Z0.165
N640 X239.374 Y156.28 Z0.213
N645 X239.366 Y156.245 Z0.27
N650 X239.362 Y156.223 Z0.333
N655 X239.361 Y156.216 Z0.4
N660 G0 Z2.3
N665 X239.948 Y156.096
N670 G1 Z0.3 F100
N675 X239.95 Y156.103 Z0.233 F50
N680 X239.954 Y156.125 Z0.17
N685 X239.961 Y156.16 Z0.113
N690 X239.971 Y156.206 Z0.065
N695 X239.982 Y156.262 Z0.03
N700 X239.995 Y156.324 Z0.008
N705 X240.009 Y156.39 Z0
N710 X240.069 Y156.683
N715 G3 X239.835 Y157.038 I-0.294 J0.06
N720 G2 X239.157 Y157.37 I0.301 J1.469 F800
N725 G1 X183.667 Y205.155
N730 X182.656 Y206.026
N735 G2 X182.311 Y206.457 I0.979 J1.137 F200
N740 X181.834 Y206.733 I0.502 J1.413 F800
N745 G1 X156.745 Y228.338
N750 G2 X160.559 Y321.533 I38.826 J45.086
N755 G1 X187.329 Y341.017
N760 G2 X187.827 Y341.254 I0.883 J-1.213 F200
N765 X188.205 Y341.653 I1.261 J-0.813 F800
N770 G1 X189.284 Y342.439
N775 X248.493 Y385.531
N780 G2 X249.437 Y385.817 I0.883 J-1.213
N785 G1 X264.425 Y385.204
N790 G2 X265.863 Y383.644 I-0.061 J-1.499
N795 G1 X265.004 Y362.661
N800 G2 X263.444 Y361.223 I-1.499 J0.061
N805 G1 X261.246 Y361.313
N810 X260.646 Y361.338 F200
N815 X260.446 Y356.442 F800
N820 X260.421 Y355.843 F200
N825 X263.219 Y355.729 F800
N830 G2 X264.657 Y354.169 I-0.061 J-1.499
N835 G1 X263.205 Y318.698
N840 G2 X262.991 Y317.986 I-1.499 J0.061
N845 G3 X259.125 Y223.505 I84.406 J-50.774
N850 G2 X259.28 Y222.778 I-1.344 J-0.666
N855 G1 X257.829 Y187.308
N860 G2 X256.269 Y185.87 I-1.499 J0.061
N865 G1 X254.07 Y185.96
N870 X253.471 Y185.985 F200
N875 X253.27 Y181.089 F800
N880 X253.246 Y180.489 F200
N885 X256.043 Y180.375 F800
N890 G2 X257.481 Y178.815 I-0.061 J-1.499
N895 G1 X256.623 Y157.833
N900 G2 X255.063 Y156.395 I-1.499 J0.061
N905 G1 X240.075 Y157.008
N910 X239.954 Y157.018
N915 X239.835 Y157.038
N920 G3 X239.481 Y156.804 I-0.06 J-0.294
N925 G1 X239.421 Y156.51
N930 X239.407 Y156.445 Z0.008
N935 X239.395 Y156.382 Z0.03
N940 X239.383 Y156.327 Z0.065
N945 X239.374 Y156.28 Z0.113
N950 X239.366 Y156.245 Z0.17
N955 X239.362 Y156.223 Z0.233
N960 X239.361 Y156.216 Z0.3
N965 G0 Z2.3
N970 X239.948 Y156.096
N975 G1 Z0.2 F100
N980 X239.95 Y156.103 Z0.133 F50
N985 X239.954 Y156.125 Z0.07
N990 X239.961 Y156.16 Z0.013
N995 X239.971 Y156.206 Z-0.035
N1000 X239.982 Y156.262 Z-0.07
N1005 X239.995 Y156.324 Z-0.092
N1010 X240.009 Y156.39 Z-0.1
N1015 X240.069 Y156.683
N1020 G3 X239.835 Y157.038 I-0.294 J0.06
N1025 G2 X239.157 Y157.37 I0.301 J1.469 F800
N1030 G1 X183.667 Y205.155
N1035 X182.656 Y206.026
N1040 G2 X182.311 Y206.457 I0.979 J1.137 F200
N1045 X181.834 Y206.733 I0.502 J1.413 F800
N1050 G1 X156.745 Y228.338
N1055 G2 X160.559 Y321.533 I38.826 J45.086
N1060 G1 X187.329 Y341.017
N1065 G2 X187.827 Y341.254 I0.883 J-1.213 F200
N1070 X188.205 Y341.653 I1.261 J-0.813 F800
N1075 G1 X189.284 Y342.439
N1080 X248.493 Y385.531
N1085 G2 X249.437 Y385.817 I0.883 J-1.213
N1090 G1 X264.425 Y385.204
N1095 G2 X265.863 Y383.644 I-0.061 J-1.499
N1100 G1 X265.004 Y362.661
N1105 G2 X263.444 Y361.223 I-1.499 J0.061
N1110 G1 X261.246 Y361.313
N1115 X260.646 Y361.338 F200
N1120 X260.446 Y356.442 F800
N1125 X260.421 Y355.843 F200
N1130 X263.219 Y355.729 F800
N1135 G2 X264.657 Y354.169 I-0.061 J-1.499
N1140 G1 X263.205 Y318.698
N1145 G2 X262.991 Y317.986 I-1.499 J0.061
N1150 G3 X259.125 Y223.505 I84.406 J-50.774
N1155 G2 X259.28 Y222.778 I-1.344 J-0.666
N1160 G1 X257.829 Y187.308
N1165 G2 X256.269 Y185.87 I-1.499 J0.061
N1170 G1 X254.07 Y185.96
N1175 X253.471 Y185.985 F200
N1180 X253.27 Y181.089 F800
N1185 X253.246 Y180.489 F200
N1190 X256.043 Y180.375 F800
N1195 G2 X257.481 Y178.815 I-0.061 J-1.499
N1200 G1 X256.623 Y157.833
N1205 G2 X255.063 Y156.395 I-1.499 J0.061
N1210 G1 X240.075 Y157.008
N1215 X239.954 Y157.018
N1220 X239.835 Y157.038
N1225 G3 X239.481 Y156.804 I-0.06 J-0.294
N1230 G1 X239.421 Y156.51
N1235 X239.407 Y156.445 Z-0.092
N1240 X239.395 Y156.382 Z-0.07
N1245 X239.383 Y156.327 Z-0.035
N1250 X239.374 Y156.28 Z0.013
N1255 X239.366 Y156.245 Z0.07
N1260 X239.362 Y156.223 Z0.133
N1265 X239.361 Y156.216 Z0.2
N1270 G0 Z2.3
N1275 X239.948 Y156.096
N1280 G1 Z0.1 F100
N1285 X239.95 Y156.103 Z0.033 F50
N1290 X239.954 Y156.125 Z-0.03
N1295 X239.961 Y156.16 Z-0.087
N1300 X239.971 Y156.206 Z-0.135
N1305 X239.982 Y156.262 Z-0.17
N1310 X239.995 Y156.324 Z-0.192
N1315 X240.009 Y156.39 Z-0.2
N1320 X240.069 Y156.683
N1325 G3 X239.835 Y157.038 I-0.294 J0.06
N1330 G2 X239.157 Y157.37 I0.301 J1.469 F800
N1335 G1 X183.667 Y205.155
N1340 X182.656 Y206.026
N1345 G2 X182.311 Y206.457 I0.979 J1.137 F200
N1350 X181.834 Y206.733 I0.502 J1.413 F800
N1355 G1 X156.745 Y228.338
N1360 G2 X160.559 Y321.533 I38.826 J45.086
N1365 G1 X187.329 Y341.017
N1370 G2 X187.827 Y341.254 I0.883 J-1.213 F200
N1375 X188.205 Y341.653 I1.261 J-0.813 F800
N1380 G1 X189.284 Y342.439
N1385 X248.493 Y385.531
N1390 G2 X249.437 Y385.817 I0.883 J-1.213
N1395 G1 X264.425 Y385.204
N1400 G2 X265.863 Y383.644 I-0.061 J-1.499
N1405 G1 X265.004 Y362.661
N1410 G2 X263.444 Y361.223 I-1.499 J0.061
N1415 G1 X261.246 Y361.313
N1420 X260.646 Y361.338 F200
N1425 X260.446 Y356.442 F800
N1430 X260.421 Y355.843 F200
N1435 X263.219 Y355.729 F800
N1440 G2 X264.657 Y354.169 I-0.061 J-1.499
N1445 G1 X263.205 Y318.698
N1450 G2 X262.991 Y317.986 I-1.499 J0.061
N1455 G3 X259.125 Y223.505 I84.406 J-50.774
N1460 G2 X259.28 Y222.778 I-1.344 J-0.666
N1465 G1 X257.829 Y187.308
N1470 G2 X256.269 Y185.87 I-1.499 J0.061
N1475 G1 X254.07 Y185.96
N1480 X253.471 Y185.985 F200
N1485 X253.27 Y181.089 F800
N1490 X253.246 Y180.489 F200
N1495 X256.043 Y180.375 F800
N1500 G2 X257.481 Y178.815 I-0.061 J-1.499
N1505 G1 X256.623 Y157.833
N1510 G2 X255.063 Y156.395 I-1.499 J0.061
N1515 G1 X240.075 Y157.008
N1520 X239.954 Y157.018
N1525 X239.835 Y157.038
N1530 G3 X239.481 Y156.804 I-0.06 J-0.294
N1535 G1 X239.421 Y156.51
N1540 X239.407 Y156.445 Z-0.192
N1545 X239.395 Y156.382 Z-0.17
N1550 X239.383 Y156.327 Z-0.135
N1555 X239.374 Y156.28 Z-0.087
N1560 X239.366 Y156.245 Z-0.03
N1565 X239.362 Y156.223 Z0.033
N1570 X239.361 Y156.216 Z0.1
N1575 G0 Z2.3
N1580 X239.948 Y156.096
N1585 G1 Z0 F100
N1590 X239.95 Y156.103 Z-0.067 F50
N1595 X239.954 Y156.125 Z-0.13
N1600 X239.961 Y156.16 Z-0.187
N1605 X239.971 Y156.206 Z-0.235
N1610 X239.982 Y156.262 Z-0.27
N1615 X239.995 Y156.324 Z-0.292
N1620 X240.009 Y156.39 Z-0.3
N1625 X240.069 Y156.683
N1630 G3 X239.835 Y157.038 I-0.294 J0.06
N1635 G2 X239.157 Y157.37 I0.301 J1.469 F800
N1640 G1 X183.667 Y205.155
N1645 X182.656 Y206.026
N1650 G2 X182.311 Y206.457 I0.979 J1.137 F200
N1655 X181.834 Y206.733 I0.502 J1.413 F800
N1660 G1 X156.745 Y228.338
N1665 G2 X160.559 Y321.533 I38.826 J45.086
N1670 G1 X187.329 Y341.017
N1675 G2 X187.827 Y341.254 I0.883 J-1.213 F200
N1680 X188.205 Y341.653 I1.261 J-0.813 F800
N1685 G1 X189.284 Y342.439
N1690 X248.493 Y385.531
N1695 G2 X249.437 Y385.817 I0.883 J-1.213
N1700 G1 X264.425 Y385.204
N1705 G2 X265.863 Y383.644 I-0.061 J-1.499
N1710 G1 X265.004 Y362.661
N1715 G2 X263.444 Y361.223 I-1.499 J0.061
N1720 G1 X261.246 Y361.313
N1725 X260.646 Y361.338 F200
N1730 X260.446 Y356.442 F800
N1735 X260.421 Y355.843 F200
N1740 X263.219 Y355.729 F800
N1745 G2 X264.657 Y354.169 I-0.061 J-1.499
N1750 G1 X263.205 Y318.698
N1755 G2 X262.991 Y317.986 I-1.499 J0.061
N1760 G3 X259.125 Y223.505 I84.406 J-50.774
N1765 G2 X259.28 Y222.778 I-1.344 J-0.666
N1770 G1 X257.829 Y187.308
N1775 G2 X256.269 Y185.87 I-1.499 J0.061
N1780 G1 X254.07 Y185.96
N1785 X253.471 Y185.985 F200
N1790 X253.27 Y181.089 F800
N1795 X253.246 Y180.489 F200
N1800 X256.043 Y180.375 F800
N1805 G2 X257.481 Y178.815 I-0.061 J-1.499
N1810 G1 X256.623 Y157.833
N1815 G2 X255.063 Y156.395 I-1.499 J0.061
N1820 G1 X240.075 Y157.008
N1825 X239.954 Y157.018
N1830 X239.835 Y157.038
N1835 G3 X239.481 Y156.804 I-0.06 J-0.294
N1840 G1 X239.421 Y156.51
N1845 X239.407 Y156.445 Z-0.292
N1850 X239.395 Y156.382 Z-0.27
N1855 X239.383 Y156.327 Z-0.235
N1860 X239.374 Y156.28 Z-0.187
N1865 X239.366 Y156.245 Z-0.13
N1870 X239.362 Y156.223 Z-0.067
N1875 X239.361 Y156.216 Z0
N1880 G0 Z2.3
N1885 X239.948 Y156.096
N1890 G1 Z-0.1 F100
N1895 X239.95 Y156.103 Z-0.167 F50
N1900 X239.954 Y156.125 Z-0.23
N1905 X239.961 Y156.16 Z-0.287
N1910 X239.971 Y156.206 Z-0.335
N1915 X239.982 Y156.262 Z-0.37
N1920 X239.995 Y156.324 Z-0.392
N1925 X240.009 Y156.39 Z-0.4
N1930 X240.069 Y156.683
N1935 G3 X239.835 Y157.038 I-0.294 J0.06
N1940 G2 X239.157 Y157.37 I0.301 J1.469 F800
N1945 G1 X183.667 Y205.155
N1950 X182.656 Y206.026
N1955 G2 X182.311 Y206.457 I0.979 J1.137 F200
N1960 X181.834 Y206.733 I0.502 J1.413 F800
N1965 G1 X156.745 Y228.338
N1970 G2 X160.559 Y321.533 I38.826 J45.086
N1975 G1 X187.329 Y341.017
N1980 G2 X187.827 Y341.254 I0.883 J-1.213 F200
N1985 X188.205 Y341.653 I1.261 J-0.813 F800
N1990 G1 X189.284 Y342.439
N1995 X248.493 Y385.531
N2000 G2 X249.437 Y385.817 I0.883 J-1.213
N2005 G1 X264.425 Y385.204
N2010 G2 X265.863 Y383.644 I-0.061 J-1.499
N2015 G1 X265.004 Y362.661
N2020 G2 X263.444 Y361.223 I-1.499 J0.061
N2025 G1 X261.246 Y361.313
N2030 X260.646 Y361.338 F200
N2035 X260.446 Y356.442 F800
N2040 X260.421 Y355.843 F200
N2045 X263.219 Y355.729 F800
N2050 G2 X264.657 Y354.169 I-0.061 J-1.499
N2055 G1 X263.205 Y318.698
N2060 G2 X262.991 Y317.986 I-1.499 J0.061
N2065 G3 X259.125 Y223.505 I84.406 J-50.774
N2070 G2 X259.28 Y222.778 I-1.344 J-0.666
N2075 G1 X257.829 Y187.308
N2080 G2 X256.269 Y185.87 I-1.499 J0.061
N2085 G1 X254.07 Y185.96
N2090 X253.471 Y185.985 F200
N2095 X253.27 Y181.089 F800
N2100 X253.246 Y180.489 F200
N2105 X256.043 Y180.375 F800
N2110 G2 X257.481 Y178.815 I-0.061 J-1.499
N2115 G1 X256.623 Y157.833
N2120 G2 X255.063 Y156.395 I-1.499 J0.061
N2125 G1 X240.075 Y157.008
N2130 X239.954 Y157.018
N2135 X239.835 Y157.038
N2140 G3 X239.481 Y156.804 I-0.06 J-0.294
N2145 G1 X239.421 Y156.51
N2150 X239.407 Y156.445 Z-0.392
N2155 X239.395 Y156.382 Z-0.37
N2160 X239.383 Y156.327 Z-0.335
N2165 X239.374 Y156.28 Z-0.287
N2170 X239.366 Y156.245 Z-0.23
N2175 X239.362 Y156.223 Z-0.167
N2180 X239.361 Y156.216 Z-0.1
N2185 G0 Z2.3
N2190 X239.948 Y156.096
N2195 G1 Z-0.2 F100
N2200 X239.95 Y156.103 Z-0.267 F50
N2205 X239.954 Y156.125 Z-0.33
N2210 X239.961 Y156.16 Z-0.387
N2215 X239.971 Y156.206 Z-0.435
N2220 X239.982 Y156.262 Z-0.47
N2225 X239.995 Y156.324 Z-0.492
N2230 X240.009 Y156.39 Z-0.5
N2235 X240.069 Y156.683
N2240 G3 X239.835 Y157.038 I-0.294 J0.06
N2245 G2 X239.157 Y157.37 I0.301 J1.469 F800
N2250 G1 X183.667 Y205.155
N2255 X182.656 Y206.026
N2260 G2 X182.311 Y206.457 I0.979 J1.137 F200
N2265 X181.834 Y206.733 I0.502 J1.413 F800
N2270 G1 X156.745 Y228.338
N2275 G2 X160.559 Y321.533 I38.826 J45.086
N2280 G1 X187.329 Y341.017
N2285 G2 X187.827 Y341.254 I0.883 J-1.213 F200
N2290 X188.205 Y341.653 I1.261 J-0.813 F800
N2295 G1 X189.284 Y342.439
N2300 X248.493 Y385.531
N2305 G2 X249.437 Y385.817 I0.883 J-1.213
N2310 G1 X264.425 Y385.204
N2315 G2 X265.863 Y383.644 I-0.061 J-1.499
N2320 G1 X265.004 Y362.661
N2325 G2 X263.444 Y361.223 I-1.499 J0.061
N2330 G1 X261.246 Y361.313
N2335 X260.646 Y361.338 F200
N2340 X260.446 Y356.442 F800
N2345 X260.421 Y355.843 F200
N2350 X263.219 Y355.729 F800
N2355 G2 X264.657 Y354.169 I-0.061 J-1.499
N2360 G1 X263.205 Y318.698
N2365 G2 X262.991 Y317.986 I-1.499 J0.061
N2370 G3 X259.125 Y223.505 I84.406 J-50.774
N2375 G2 X259.28 Y222.778 I-1.344 J-0.666
N2380 G1 X257.829 Y187.308
N2385 G2 X256.269 Y185.87 I-1.499 J0.061
N2390 G1 X254.07 Y185.96
N2395 X253.471 Y185.985 F200
N2400 X253.27 Y181.089 F800
N2405 X253.246 Y180.489 F200
N2410 X256.043 Y180.375 F800
N2415 G2 X257.481 Y178.815 I-0.061 J-1.499
N2420 G1 X256.623 Y157.833
N2425 G2 X255.063 Y156.395 I-1.499 J0.061
N2430 G1 X240.075 Y157.008
N2435 X239.954 Y157.018
N2440 X239.835 Y157.038
N2445 G3 X239.481 Y156.804 I-0.06 J-0.294
N2450 G1 X239.421 Y156.51
N2455 X239.407 Y156.445 Z-0.492
N2460 X239.395 Y156.382 Z-0.47
N2465 X239.383 Y156.327 Z-0.435
N2470 X239.374 Y156.28 Z-0.387
N2475 X239.366 Y156.245 Z-0.33
N2480 X239.362 Y156.223 Z-0.267
N2485 X239.361 Y156.216 Z-0.2
N2490 G0 Z2.3
N2495 X239.948 Y156.096
N2500 G1 Z-0.3 F100
N2505 X239.95 Y156.103 Z-0.367 F50
N2510 X239.954 Y156.125 Z-0.43
N2515 X239.961 Y156.16 Z-0.487
N2520 X239.971 Y156.206 Z-0.535
N2525 X239.982 Y156.262 Z-0.57
N2530 X239.995 Y156.324 Z-0.592
N2535 X240.009 Y156.39 Z-0.6
N2540 X240.069 Y156.683
N2545 G3 X239.835 Y157.038 I-0.294 J0.06
N2550 G2 X239.157 Y157.37 I0.301 J1.469 F800
N2555 G1 X183.667 Y205.155
N2560 X182.656 Y206.026
N2565 G2 X182.311 Y206.457 I0.979 J1.137 F200
N2570 X181.834 Y206.733 I0.502 J1.413 F800
N2575 G1 X156.745 Y228.338
N2580 G2 X160.559 Y321.533 I38.826 J45.086
N2585 G1 X187.329 Y341.017
N2590 G2 X187.827 Y341.254 I0.883 J-1.213 F200
N2595 X188.205 Y341.653 I1.261 J-0.813 F800
N2600 G1 X189.284 Y342.439
N2605 X248.493 Y385.531
N2610 G2 X249.437 Y385.817 I0.883 J-1.213
N2615 G1 X264.425 Y385.204
N2620 G2 X265.863 Y383.644 I-0.061 J-1.499
N2625 G1 X265.004 Y362.661
N2630 G2 X263.444 Y361.223 I-1.499 J0.061
N2635 G1 X261.246 Y361.313
N2640 X260.646 Y361.338 F200
N2645 X260.446 Y356.442 F800
N2650 X260.421 Y355.843 F200
N2655 X263.219 Y355.729 F800
N2660 G2 X264.657 Y354.169 I-0.061 J-1.499
N2665 G1 X263.205 Y318.698
N2670 G2 X262.991 Y317.986 I-1.499 J0.061
N2675 G3 X259.125 Y223.505 I84.406 J-50.774
N2680 G2 X259.28 Y222.778 I-1.344 J-0.666
N2685 G1 X257.829 Y187.308
N2690 G2 X256.269 Y185.87 I-1.499 J0.061
N2695 G1 X254.07 Y185.96
N2700 X253.471 Y185.985 F200
N2705 X253.27 Y181.089 F800
N2710 X253.246 Y180.489 F200
N2715 X256.043 Y180.375 F800
N2720 G2 X257.481 Y178.815 I-0.061 J-1.499
N2725 G1 X256.623 Y157.833
N2730 G2 X255.063 Y156.395 I-1.499 J0.061
N2735 G1 X240.075 Y157.008
N2740 X239.954 Y157.018
N2745 X239.835 Y157.038
N2750 G3 X239.481 Y156.804 I-0.06 J-0.294
N2755 G1 X239.421 Y156.51
N2760 X239.407 Y156.445 Z-0.592
N2765 X239.395 Y156.382 Z-0.57
N2770 X239.383 Y156.327 Z-0.535
N2775 X239.374 Y156.28 Z-0.487
N2780 X239.366 Y156.245 Z-0.43
N2785 X239.362 Y156.223 Z-0.367
N2790 X239.361 Y156.216 Z-0.3
N2795 G0 Z2.3
N2800 X239.948 Y156.096
N2805 G1 Z-0.4 F100
N2810 X239.95 Y156.103 Z-0.467 F50
N2815 X239.954 Y156.125 Z-0.53
N2820 X239.961 Y156.16 Z-0.587
N2825 X239.971 Y156.206 Z-0.635
N2830 X239.982 Y156.262 Z-0.67
N2835 X239.995 Y156.324 Z-0.692
N2840 X240.009 Y156.39 Z-0.7
N2845 X240.069 Y156.683
N2850 G3 X239.835 Y157.038 I-0.294 J0.06
N2855 G2 X239.157 Y157.37 I0.301 J1.469 F800
N2860 G1 X183.667 Y205.155
N2865 X182.656 Y206.026
N2870 G2 X182.311 Y206.457 I0.979 J1.137 F200
N2875 X181.834 Y206.733 I0.502 J1.413 F800
N2880 G1 X156.745 Y228.338
N2885 G2 X160.559 Y321.533 I38.826 J45.086
N2890 G1 X187.329 Y341.017
N2895 G2 X187.827 Y341.254 I0.883 J-1.213 F200
N2900 X188.205 Y341.653 I1.261 J-0.813 F800
N2905 G1 X189.284 Y342.439
N2910 X248.493 Y385.531
N2915 G2 X249.437 Y385.817 I0.883 J-1.213
N2920 G1 X264.425 Y385.204
N2925 G2 X265.863 Y383.644 I-0.061 J-1.499
N2930 G1 X265.004 Y362.661
N2935 G2 X263.444 Y361.223 I-1.499 J0.061
N2940 G1 X261.246 Y361.313
N2945 X260.646 Y361.338 F200
N2950 X260.446 Y356.442 F800
N2955 X260.421 Y355.843 F200
N2960 X263.219 Y355.729 F800
N2965 G2 X264.657 Y354.169 I-0.061 J-1.499
N2970 G1 X263.205 Y318.698
N2975 G2 X262.991 Y317.986 I-1.499 J0.061
N2980 G3 X259.125 Y223.505 I84.406 J-50.774
N2985 G2 X259.28 Y222.778 I-1.344 J-0.666
N2990 G1 X257.829 Y187.308
N2995 G2 X256.269 Y185.87 I-1.499 J0.061
N3000 G1 X254.07 Y185.96
N3005 X253.471 Y185.985 F200
N3010 X253.27 Y181.089 F800
N3015 X253.246 Y180.489 F200
N3020 X256.043 Y180.375 F800
N3025 G2 X257.481 Y178.815 I-0.061 J-1.499
N3030 G1 X256.623 Y157.833
N3035 G2 X255.063 Y156.395 I-1.499 J0.061
N3040 G1 X240.075 Y157.008
N3045 X239.954 Y157.018
N3050 X239.835 Y157.038
N3055 G3 X239.481 Y156.804 I-0.06 J-0.294
N3060 G1 X239.421 Y156.51
N3065 X239.407 Y156.445 Z-0.692
N3070 X239.395 Y156.382 Z-0.67
N3075 X239.383 Y156.327 Z-0.635
N3080 X239.374 Y156.28 Z-0.587
N3085 X239.366 Y156.245 Z-0.53
N3090 X239.362 Y156.223 Z-0.467
N3095 X239.361 Y156.216 Z-0.4
N3100 G0 Z2.3
N3105 X239.948 Y156.096
N3110 G1 Z-0.5 F100
N3115 X239.95 Y156.103 Z-0.567 F50
N3120 X239.954 Y156.125 Z-0.63
N3125 X239.961 Y156.16 Z-0.687
N3130 X239.971 Y156.206 Z-0.735
N3135 X239.982 Y156.262 Z-0.77
N3140 X239.995 Y156.324 Z-0.792
N3145 X240.009 Y156.39 Z-0.8
N3150 X240.069 Y156.683
N3155 G3 X239.835 Y157.038 I-0.294 J0.06
N3160 G2 X239.157 Y157.37 I0.301 J1.469 F800
N3165 G1 X183.667 Y205.155
N3170 X182.656 Y206.026
N3175 G2 X182.311 Y206.457 I0.979 J1.137 F200
N3180 X181.834 Y206.733 I0.502 J1.413 F800
N3185 G1 X156.745 Y228.338
N3190 G2 X160.559 Y321.533 I38.826 J45.086
N3195 G1 X187.329 Y341.017
N3200 G2 X187.827 Y341.254 I0.883 J-1.213 F200
N3205 X188.205 Y341.653 I1.261 J-0.813 F800
N3210 G1 X189.284 Y342.439
N3215 X248.493 Y385.531
N3220 G2 X249.437 Y385.817 I0.883 J-1.213
N3225 G1 X264.425 Y385.204
N3230 G2 X265.863 Y383.644 I-0.061 J-1.499
N3235 G1 X265.004 Y362.661
N3240 G2 X263.444 Y361.223 I-1.499 J0.061
N3245 G1 X261.246 Y361.313
N3250 X260.646 Y361.338 F200
N3255 X260.446 Y356.442 F800
N3260 X260.421 Y355.843 F200
N3265 X263.219 Y355.729 F800
N3270 G2 X264.657 Y354.169 I-0.061 J-1.499
N3275 G1 X263.205 Y318.698
N3280 G2 X262.991 Y317.986 I-1.499 J0.061
N3285 G3 X259.125 Y223.505 I84.406 J-50.774
N3290 G2 X259.28 Y222.778 I-1.344 J-0.666
N3295 G1 X257.829 Y187.308
N3300 G2 X256.269 Y185.87 I-1.499 J0.061
N3305 G1 X254.07 Y185.96
N3310 X253.471 Y185.985 F200
N3315 X253.27 Y181.089 F800
N3320 X253.246 Y180.489 F200
N3325 X256.043 Y180.375 F800
N3330 G2 X257.481 Y178.815 I-0.061 J-1.499
N3335 G1 X256.623 Y157.833
N3340 G2 X255.063 Y156.395 I-1.499 J0.061
N3345 G1 X240.075 Y157.008
N3350 X239.954 Y157.018
N3355 X239.835 Y157.038
N3360 G3 X239.481 Y156.804 I-0.06 J-0.294
N3365 G1 X239.421 Y156.51
N3370 X239.407 Y156.445 Z-0.792
N3375 X239.395 Y156.382 Z-0.77
N3380 X239.383 Y156.327 Z-0.735
N3385 X239.374 Y156.28 Z-0.687
N3390 X239.366 Y156.245 Z-0.63
N3395 X239.362 Y156.223 Z-0.567
N3400 X239.361 Y156.216 Z-0.5
N3405 G0 Z2.3
N3410 X239.948 Y156.096
N3415 G1 Z-0.6 F100
N3420 X239.95 Y156.103 Z-0.667 F50
N3425 X239.954 Y156.125 Z-0.73
N3430 X239.961 Y156.16 Z-0.787
N3435 X239.971 Y156.206 Z-0.835
N3440 X239.982 Y156.262 Z-0.87
N3445 X239.995 Y156.324 Z-0.892
N3450 X240.009 Y156.39 Z-0.9
N3455 X240.069 Y156.683
N3460 G3 X239.835 Y157.038 I-0.294 J0.06
N3465 G2 X239.157 Y157.37 I0.301 J1.469 F800
N3470 G1 X183.667 Y205.155
N3475 X182.656 Y206.026
N3480 G2 X182.311 Y206.457 I0.979 J1.137 F200
N3485 X181.834 Y206.733 I0.502 J1.413 F800
N3490 G1 X156.745 Y228.338
N3495 G2 X160.559 Y321.533 I38.826 J45.086
N3500 G1 X187.329 Y341.017
N3505 G2 X187.827 Y341.254 I0.883 J-1.213 F200
N3510 X188.205 Y341.653 I1.261 J-0.813 F800
N3515 G1 X189.284 Y342.439
N3520 X248.493 Y385.531
N3525 G2 X249.437 Y385.817 I0.883 J-1.213
N3530 G1 X264.425 Y385.204
N3535 G2 X265.863 Y383.644 I-0.061 J-1.499
N3540 G1 X265.004 Y362.661
N3545 G2 X263.444 Y361.223 I-1.499 J0.061
N3550 G1 X261.246 Y361.313
N3555 X260.646 Y361.338 F200
N3560 X260.446 Y356.442 F800
N3565 X260.421 Y355.843 F200
N3570 X263.219 Y355.729 F800
N3575 G2 X264.657 Y354.169 I-0.061 J-1.499
N3580 G1 X263.205 Y318.698
N3585 G2 X262.991 Y317.986 I-1.499 J0.061
N3590 G3 X259.125 Y223.505 I84.406 J-50.774
N3595 G2 X259.28 Y222.778 I-1.344 J-0.666
N3600 G1 X257.829 Y187.308
N3605 G2 X256.269 Y185.87 I-1.499 J0.061
N3610 G1 X254.07 Y185.96
N3615 X253.471 Y185.985 F200
N3620 X253.27 Y181.089 F800
N3625 X253.246 Y180.489 F200
N3630 X256.043 Y180.375 F800
N3635 G2 X257.481 Y178.815 I-0.061 J-1.499
N3640 G1 X256.623 Y157.833
N3645 G2 X255.063 Y156.395 I-1.499 J0.061
N3650 G1 X240.075 Y157.008
N3655 X239.954 Y157.018
N3660 X239.835 Y157.038
N3665 G3 X239.481 Y156.804 I-0.06 J-0.294
N3670 G1 X239.421 Y156.51
N3675 X239.407 Y156.445 Z-0.892
N3680 X239.395 Y156.382 Z-0.87
N3685 X239.383 Y156.327 Z-0.835
N3690 X239.374 Y156.28 Z-0.787
N3695 X239.366 Y156.245 Z-0.73
N3700 X239.362 Y156.223 Z-0.667
N3705 X239.361 Y156.216 Z-0.6
N3710 G0 Z2.3
N3715 X239.948 Y156.096
N3720 G1 Z-0.7 F100
N3725 X239.95 Y156.103 Z-0.767 F50
N3730 X239.954 Y156.125 Z-0.83
N3735 X239.961 Y156.16 Z-0.887
N3740 X239.971 Y156.206 Z-0.935
N3745 X239.982 Y156.262 Z-0.97
N3750 X239.995 Y156.324 Z-0.992
N3755 X240.009 Y156.39 Z-1
N3760 X240.069 Y156.683
N3765 G3 X239.835 Y157.038 I-0.294 J0.06
N3770 G2 X239.157 Y157.37 I0.301 J1.469 F800
N3775 G1 X183.667 Y205.155
N3780 X182.656 Y206.026
N3785 G2 X182.311 Y206.457 I0.979 J1.137 F200
N3790 X181.834 Y206.733 I0.502 J1.413 F800
N3795 G1 X156.745 Y228.338
N3800 G2 X160.559 Y321.533 I38.826 J45.086
N3805 G1 X187.329 Y341.017
N3810 G2 X187.827 Y341.254 I0.883 J-1.213 F200
N3815 X188.205 Y341.653 I1.261 J-0.813 F800
N3820 G1 X189.284 Y342.439
N3825 X248.493 Y385.531
N3830 G2 X249.437 Y385.817 I0.883 J-1.213
N3835 G1 X264.425 Y385.204
N3840 G2 X265.863 Y383.644 I-0.061 J-1.499
N3845 G1 X265.004 Y362.661
N3850 G2 X263.444 Y361.223 I-1.499 J0.061
N3855 G1 X261.246 Y361.313
N3860 X260.646 Y361.338 F200
N3865 X260.446 Y356.442 F800
N3870 X260.421 Y355.843 F200
N3875 X263.219 Y355.729 F800
N3880 G2 X264.657 Y354.169 I-0.061 J-1.499
N3885 G1 X263.205 Y318.698
N3890 G2 X262.991 Y317.986 I-1.499 J0.061
N3895 G3 X259.125 Y223.505 I84.406 J-50.774
N3900 G2 X259.28 Y222.778 I-1.344 J-0.666
N3905 G1 X257.829 Y187.308
N3910 G2 X256.269 Y185.87 I-1.499 J0.061
N3915 G1 X254.07 Y185.96
N3920 X253.471 Y185.985 F200
N3925 X253.27 Y181.089 F800
N3930 X253.246 Y180.489 F200
N3935 X256.043 Y180.375 F800
N3940 G2 X257.481 Y178.815 I-0.061 J-1.499
N3945 G1 X256.623 Y157.833
N3950 G2 X255.063 Y156.395 I-1.499 J0.061
N3955 G1 X240.075 Y157.008
N3960 X239.954 Y157.018
N3965 X239.835 Y157.038
N3970 G3 X239.481 Y156.804 I-0.06 J-0.294
N3975 G1 X239.421 Y156.51
N3980 X239.407 Y156.445 Z-0.992
N3985 X239.395 Y156.382 Z-0.97
N3990 X239.383 Y156.327 Z-0.935
N3995 X239.374 Y156.28 Z-0.887
N4000 X239.366 Y156.245 Z-0.83
N4005 X239.362 Y156.223 Z-0.767
N4010 X239.361 Y156.216 Z-0.7
N4015 G0 Z2.3
N4020 X239.948 Y156.096
N4025 G1 Z-0.8 F100
N4030 X239.95 Y156.103 Z-0.867 F50
N4035 X239.954 Y156.125 Z-0.93
N4040 X239.961 Y156.16 Z-0.987
N4045 X239.971 Y156.206 Z-1.035
N4050 X239.982 Y156.262 Z-1.07
N4055 X239.995 Y156.324 Z-1.092
N4060 X240.009 Y156.39 Z-1.1
N4065 X240.069 Y156.683
N4070 G3 X239.835 Y157.038 I-0.294 J0.06
N4075 G2 X239.157 Y157.37 I0.301 J1.469 F800
N4080 G1 X183.667 Y205.155
N4085 X182.656 Y206.026
N4090 G2 X182.311 Y206.457 I0.979 J1.137 F200
N4095 X181.834 Y206.733 I0.502 J1.413 F800
N4100 G1 X156.745 Y228.338
N4105 G2 X160.559 Y321.533 I38.826 J45.086
N4110 G1 X187.329 Y341.017
N4115 G2 X187.827 Y341.254 I0.883 J-1.213 F200
N4120 X188.205 Y341.653 I1.261 J-0.813 F800
N4125 G1 X189.284 Y342.439
N4130 X248.493 Y385.531
N4135 G2 X249.437 Y385.817 I0.883 J-1.213
N4140 G1 X264.425 Y385.204
N4145 G2 X265.863 Y383.644 I-0.061 J-1.499
N4150 G1 X265.004 Y362.661
N4155 G2 X263.444 Y361.223 I-1.499 J0.061
N4160 G1 X261.246 Y361.313
N4165 X260.646 Y361.338 F200
N4170 X260.446 Y356.442 F800
N4175 X260.421 Y355.843 F200
N4180 X263.219 Y355.729 F800
N4185 G2 X264.657 Y354.169 I-0.061 J-1.499
N4190 G1 X263.205 Y318.698
N4195 G2 X262.991 Y317.986 I-1.499 J0.061
N4200 G3 X259.125 Y223.505 I84.406 J-50.774
N4205 G2 X259.28 Y222.778 I-1.344 J-0.666
N4210 G1 X257.829 Y187.308
N4215 G2 X256.269 Y185.87 I-1.499 J0.061
N4220 G1 X254.07 Y185.96
N4225 X253.471 Y185.985 F200
N4230 X253.27 Y181.089 F800
N4235 X253.246 Y180.489 F200
N4240 X256.043 Y180.375 F800
N4245 G2 X257.481 Y178.815 I-0.061 J-1.499
N4250 G1 X256.623 Y157.833
N4255 G2 X255.063 Y156.395 I-1.499 J0.061
N4260 G1 X240.075 Y157.008
N4265 X239.954 Y157.018
N4270 X239.835 Y157.038
N4275 G3 X239.481 Y156.804 I-0.06 J-0.294
N4280 G1 X239.421 Y156.51
N4285 X239.407 Y156.445 Z-1.092
N4290 X239.395 Y156.382 Z-1.07
N4295 X239.383 Y156.327 Z-1.035
N4300 X239.374 Y156.28 Z-0.987
N4305 X239.366 Y156.245 Z-0.93
N4310 X239.362 Y156.223 Z-0.867
N4315 X239.361 Y156.216 Z-0.8
N4320 G0 Z2.3
N4325 X239.948 Y156.096
N4330 G1 Z-0.9 F100
N4335 X239.95 Y156.103 Z-0.967 F50
N4340 X239.954 Y156.125 Z-1.03
N4345 X239.961 Y156.16 Z-1.087
N4350 X239.971 Y156.206 Z-1.135
N4355 X239.982 Y156.262 Z-1.17
N4360 X239.995 Y156.324 Z-1.192
N4365 X240.009 Y156.39 Z-1.2
N4370 X240.069 Y156.683
N4375 G3 X239.835 Y157.038 I-0.294 J0.06
N4380 G2 X239.157 Y157.37 I0.301 J1.469 F800
N4385 G1 X183.667 Y205.155
N4390 X182.656 Y206.026
N4395 G2 X182.311 Y206.457 I0.979 J1.137 F200
N4400 X181.834 Y206.733 I0.502 J1.413 F800
N4405 G1 X156.745 Y228.338
N4410 G2 X160.559 Y321.533 I38.826 J45.086
N4415 G1 X187.329 Y341.017
N4420 G2 X187.827 Y341.254 I0.883 J-1.213 F200
N4425 X188.205 Y341.653 I1.261 J-0.813 F800
N4430 G1 X189.284 Y342.439
N4435 X248.493 Y385.531
N4440 G2 X249.437 Y385.817 I0.883 J-1.213
N4445 G1 X264.425 Y385.204
N4450 G2 X265.863 Y383.644 I-0.061 J-1.499
N4455 G1 X265.004 Y362.661
N4460 G2 X263.444 Y361.223 I-1.499 J0.061
N4465 G1 X261.246 Y361.313
N4470 X260.646 Y361.338 F200
N4475 X260.446 Y356.442 F800
N4480 X260.421 Y355.843 F200
N4485 X263.219 Y355.729 F800
N4490 G2 X264.657 Y354.169 I-0.061 J-1.499
N4495 G1 X263.205 Y318.698
N4500 G2 X262.991 Y317.986 I-1.499 J0.061
N4505 G3 X259.125 Y223.505 I84.406 J-50.774
N4510 G2 X259.28 Y222.778 I-1.344 J-0.666
N4515 G1 X257.829 Y187.308
N4520 G2 X256.269 Y185.87 I-1.499 J0.061
N4525 G1 X254.07 Y185.96
N4530 X253.471 Y185.985 F200
N4535 X253.27 Y181.089 F800
N4540 X253.246 Y180.489 F200
N4545 X256.043 Y180.375 F800
N4550 G2 X257.481 Y178.815 I-0.061 J-1.499
N4555 G1 X256.623 Y157.833
N4560 G2 X255.063 Y156.395 I-1.499 J0.061
N4565 G1 X240.075 Y157.008
N4570 X239.954 Y157.018
N4575 X239.835 Y157.038
N4580 G3 X239.481 Y156.804 I-0.06 J-0.294
N4585 G1 X239.421 Y156.51
N4590 X239.407 Y156.445 Z-1.192
N4595 X239.395 Y156.382 Z-1.17
N4600 X239.383 Y156.327 Z-1.135
N4605 X239.374 Y156.28 Z-1.087
N4610 X239.366 Y156.245 Z-1.03
N4615 X239.362 Y156.223 Z-0.967
N4620 X239.361 Y156.216 Z-0.9
N4625 G0 Z2.3
N4630 X239.948 Y156.096
N4635 G1 Z-1 F100
N4640 X239.95 Y156.103 Z-1.067 F50
N4645 X239.954 Y156.125 Z-1.13
N4650 X239.961 Y156.16 Z-1.187
N4655 X239.971 Y156.206 Z-1.235
N4660 X239.982 Y156.262 Z-1.27
N4665 X239.995 Y156.324 Z-1.292
N4670 X240.009 Y156.39 Z-1.3
N4675 X240.069 Y156.683
N4680 G3 X239.835 Y157.038 I-0.294 J0.06
N4685 G2 X239.157 Y157.37 I0.301 J1.469 F800
N4690 G1 X183.667 Y205.155
N4695 X182.656 Y206.026
N4700 G2 X182.311 Y206.457 I0.979 J1.137 F200
N4705 X181.834 Y206.733 I0.502 J1.413 F800
N4710 G1 X156.745 Y228.338
N4715 G2 X160.559 Y321.533 I38.826 J45.086
N4720 G1 X187.329 Y341.017
N4725 G2 X187.827 Y341.254 I0.883 J-1.213 F200
N4730 X188.205 Y341.653 I1.261 J-0.813 F800
N4735 G1 X189.284 Y342.439
N4740 X248.493 Y385.531
N4745 G2 X249.437 Y385.817 I0.883 J-1.213
N4750 G1 X264.425 Y385.204
N4755 G2 X265.863 Y383.644 I-0.061 J-1.499
N4760 G1 X265.004 Y362.661
N4765 G2 X263.444 Y361.223 I-1.499 J0.061
N4770 G1 X261.246 Y361.313
N4775 X260.646 Y361.338 F200
N4780 X260.446 Y356.442 F800
N4785 X260.421 Y355.843 F200
N4790 X263.219 Y355.729 F800
N4795 G2 X264.657 Y354.169 I-0.061 J-1.499
N4800 G1 X263.205 Y318.698
N4805 G2 X262.991 Y317.986 I-1.499 J0.061
N4810 G3 X259.125 Y223.505 I84.406 J-50.774
N4815 G2 X259.28 Y222.778 I-1.344 J-0.666
N4820 G1 X257.829 Y187.308
N4825 G2 X256.269 Y185.87 I-1.499 J0.061
N4830 G1 X254.07 Y185.96
N4835 X253.471 Y185.985 F200
N4840 X253.27 Y181.089 F800
N4845 X253.246 Y180.489 F200
N4850 X256.043 Y180.375 F800
N4855 G2 X257.481 Y178.815 I-0.061 J-1.499
N4860 G1 X256.623 Y157.833
N4865 G2 X255.063 Y156.395 I-1.499 J0.061
N4870 G1 X240.075 Y157.008
N4875 X239.954 Y157.018
N4880 X239.835 Y157.038
N4885 G3 X239.481 Y156.804 I-0.06 J-0.294
N4890 G1 X239.421 Y156.51
N4895 X239.407 Y156.445 Z-1.292
N4900 X239.395 Y156.382 Z-1.27
N4905 X239.383 Y156.327 Z-1.235
N4910 X239.374 Y156.28 Z-1.187
N4915 X239.366 Y156.245 Z-1.13
N4920 X239.362 Y156.223 Z-1.067
N4925 X239.361 Y156.216 Z-1
N4930 G0 Z2.3
N4935 X239.948 Y156.096
N4940 G1 Z-1.1 F100
N4945 X239.95 Y156.103 Z-1.167 F50
N4950 X239.954 Y156.125 Z-1.23
N4955 X239.961 Y156.16 Z-1.287
N4960 X239.971 Y156.206 Z-1.335
N4965 X239.982 Y156.262 Z-1.37
N4970 X239.995 Y156.324 Z-1.392
N4975 X240.009 Y156.39 Z-1.4
N4980 X240.069 Y156.683
N4985 G3 X239.835 Y157.038 I-0.294 J0.06
N4990 G2 X239.157 Y157.37 I0.301 J1.469 F800
N4995 G1 X183.667 Y205.155
N5000 X182.656 Y206.026
N5005 G2 X182.311 Y206.457 I0.979 J1.137 F200
N5010 X181.834 Y206.733 I0.502 J1.413 F800
N5015 G1 X156.745 Y228.338
N5020 G2 X160.559 Y321.533 I38.826 J45.086
N5025 G1 X187.329 Y341.017
N5030 G2 X187.827 Y341.254 I0.883 J-1.213 F200
N5035 X188.205 Y341.653 I1.261 J-0.813 F800
N5040 G1 X189.284 Y342.439
N5045 X248.493 Y385.531
N5050 G2 X249.437 Y385.817 I0.883 J-1.213
N5055 G1 X264.425 Y385.204
N5060 G2 X265.863 Y383.644 I-0.061 J-1.499
N5065 G1 X265.004 Y362.661
N5070 G2 X263.444 Y361.223 I-1.499 J0.061
N5075 G1 X261.246 Y361.313
N5080 X260.646 Y361.338 F200
N5085 X260.446 Y356.442 F800
N5090 X260.421 Y355.843 F200
N5095 X263.219 Y355.729 F800
N5100 G2 X264.657 Y354.169 I-0.061 J-1.499
N5105 G1 X263.205 Y318.698
N5110 G2 X262.991 Y317.986 I-1.499 J0.061
N5115 G3 X259.125 Y223.505 I84.406 J-50.774
N5120 G2 X259.28 Y222.778 I-1.344 J-0.666
N5125 G1 X257.829 Y187.308
N5130 G2 X256.269 Y185.87 I-1.499 J0.061
N5135 G1 X254.07 Y185.96
N5140 X253.471 Y185.985 F200
N5145 X253.27 Y181.089 F800
N5150 X253.246 Y180.489 F200
N5155 X256.043 Y180.375 F800
N5160 G2 X257.481 Y178.815 I-0.061 J-1.499
N5165 G1 X256.623 Y157.833
N5170 G2 X255.063 Y156.395 I-1.499 J0.061
N5175 G1 X240.075 Y157.008
N5180 X239.954 Y157.018
N5185 X239.835 Y157.038
N5190 G3 X239.481 Y156.804 I-0.06 J-0.294
N5195 G1 X239.421 Y156.51
N5200 X239.407 Y156.445 Z-1.392
N5205 X239.395 Y156.382 Z-1.37
N5210 X239.383 Y156.327 Z-1.335
N5215 X239.374 Y156.28 Z-1.287
N5220 X239.366 Y156.245 Z-1.23
N5225 X239.362 Y156.223 Z-1.167
N5230 X239.361 Y156.216 Z-1.1
N5235 G0 Z2.3
N5240 X239.948 Y156.096
N5245 G1 Z-1.2 F100
N5250 X239.95 Y156.103 Z-1.267 F50
N5255 X239.954 Y156.125 Z-1.33
N5260 X239.961 Y156.16 Z-1.387
N5265 X239.971 Y156.206 Z-1.435
N5270 X239.982 Y156.262 Z-1.47
N5275 X239.995 Y156.324 Z-1.492
N5280 X240.009 Y156.39 Z-1.5
N5285 X240.069 Y156.683
N5290 G3 X239.835 Y157.038 I-0.294 J0.06
N5295 G2 X239.157 Y157.37 I0.301 J1.469 F800
N5300 G1 X183.667 Y205.155
N5305 X182.656 Y206.026
N5310 G2 X182.311 Y206.457 I0.979 J1.137 F200
N5315 X181.834 Y206.733 I0.502 J1.413 F800
N5320 G1 X156.745 Y228.338
N5325 G2 X160.559 Y321.533 I38.826 J45.086
N5330 G1 X187.329 Y341.017
N5335 G2 X187.827 Y341.254 I0.883 J-1.213 F200
N5340 X188.205 Y341.653 I1.261 J-0.813 F800
N5345 G1 X189.284 Y342.439
N5350 X248.493 Y385.531
N5355 G2 X249.437 Y385.817 I0.883 J-1.213
N5360 G1 X264.425 Y385.204
N5365 G2 X265.863 Y383.644 I-0.061 J-1.499
N5370 G1 X265.004 Y362.661
N5375 G2 X263.444 Y361.223 I-1.499 J0.061
N5380 G1 X261.246 Y361.313
N5385 X260.646 Y361.338 F200
N5390 X260.446 Y356.442 F800
N5395 X260.421 Y355.843 F200
N5400 X263.219 Y355.729 F800
N5405 G2 X264.657 Y354.169 I-0.061 J-1.499
N5410 G1 X263.205 Y318.698
N5415 G2 X262.991 Y317.986 I-1.499 J0.061
N5420 G3 X259.125 Y223.505 I84.406 J-50.774
N5425 G2 X259.28 Y222.778 I-1.344 J-0.666
N5430 G1 X257.829 Y187.308
N5435 G2 X256.269 Y185.87 I-1.499 J0.061
N5440 G1 X254.07 Y185.96
N5445 X253.471 Y185.985 F200
N5450 X253.27 Y181.089 F800
N5455 X253.246 Y180.489 F200
N5460 X256.043 Y180.375 F800
N5465 G2 X257.481 Y178.815 I-0.061 J-1.499
N5470 G1 X256.623 Y157.833
N5475 G2 X255.063 Y156.395 I-1.499 J0.061
N5480 G1 X240.075 Y157.008
N5485 X239.954 Y157.018
N5490 X239.835 Y157.038
N5495 G3 X239.481 Y156.804 I-0.06 J-0.294
N5500 G1 X239.421 Y156.51
N5505 X239.407 Y156.445 Z-1.492
N5510 X239.395 Y156.382 Z-1.47
N5515 X239.383 Y156.327 Z-1.435
N5520 X239.374 Y156.28 Z-1.387
N5525 X239.366 Y156.245 Z-1.33
N5530 X239.362 Y156.223 Z-1.267
N5535 X239.361 Y156.216 Z-1.2
N5540 G0 Z2.3
N5545 X239.948 Y156.096
N5550 G1 Z-1.3 F100
N5555 X239.95 Y156.103 Z-1.367 F50
N5560 X239.954 Y156.125 Z-1.43
N5565 X239.961 Y156.16 Z-1.487
N5570 X239.971 Y156.206 Z-1.535
N5575 X239.982 Y156.262 Z-1.57
N5580 X239.995 Y156.324 Z-1.592
N5585 X240.009 Y156.39 Z-1.6
N5590 X240.069 Y156.683
N5595 G3 X239.835 Y157.038 I-0.294 J0.06
N5600 G2 X239.157 Y157.37 I0.301 J1.469 F800
N5605 G1 X183.667 Y205.155
N5610 X182.656 Y206.026
N5615 G2 X182.311 Y206.457 I0.979 J1.137 F200
N5620 X181.834 Y206.733 I0.502 J1.413 F800
N5625 G1 X156.745 Y228.338
N5630 G2 X160.559 Y321.533 I38.826 J45.086
N5635 G1 X187.329 Y341.017
N5640 G2 X187.827 Y341.254 I0.883 J-1.213 F200
N5645 X188.205 Y341.653 I1.261 J-0.813 F800
N5650 G1 X189.284 Y342.439
N5655 X248.493 Y385.531
N5660 G2 X249.437 Y385.817 I0.883 J-1.213
N5665 G1 X264.425 Y385.204
N5670 G2 X265.863 Y383.644 I-0.061 J-1.499
N5675 G1 X265.004 Y362.661
N5680 G2 X263.444 Y361.223 I-1.499 J0.061
N5685 G1 X261.246 Y361.313
N5690 X260.646 Y361.338 F200
N5695 X260.446 Y356.442 F800
N5700 X260.421 Y355.843 F200
N5705 X263.219 Y355.729 F800
N5710 G2 X264.657 Y354.169 I-0.061 J-1.499
N5715 G1 X263.205 Y318.698
N5720 G2 X262.991 Y317.986 I-1.499 J0.061
N5725 G3 X259.125 Y223.505 I84.406 J-50.774
N5730 G2 X259.28 Y222.778 I-1.344 J-0.666
N5735 G1 X257.829 Y187.308
N5740 G2 X256.269 Y185.87 I-1.499 J0.061
N5745 G1 X254.07 Y185.96
N5750 X253.471 Y185.985 F200
N5755 X253.27 Y181.089 F800
N5760 X253.246 Y180.489 F200
N5765 X256.043 Y180.375 F800
N5770 G2 X257.481 Y178.815 I-0.061 J-1.499
N5775 G1 X256.623 Y157.833
N5780 G2 X255.063 Y156.395 I-1.499 J0.061
N5785 G1 X240.075 Y157.008
N5790 X239.954 Y157.018
N5795 X239.835 Y157.038
N5800 G3 X239.481 Y156.804 I-0.06 J-0.294
N5805 G1 X239.421 Y156.51
N5810 X239.407 Y156.445 Z-1.592
N5815 X239.395 Y156.382 Z-1.57
N5820 X239.383 Y156.327 Z-1.535
N5825 X239.374 Y156.28 Z-1.487
N5830 X239.366 Y156.245 Z-1.43
N5835 X239.362 Y156.223 Z-1.367
N5840 X239.361 Y156.216 Z-1.3
N5845 G0 Z2.3
N5850 X239.948 Y156.096
N5855 G1 Z-1.4 F100
N5860 X239.95 Y156.103 Z-1.467 F50
N5865 X239.954 Y156.125 Z-1.53
N5870 X239.961 Y156.16 Z-1.587
N5875 X239.971 Y156.206 Z-1.635
N5880 X239.982 Y156.262 Z-1.67
N5885 X239.995 Y156.324 Z-1.692
N5890 X240.009 Y156.39 Z-1.7
N5895 X240.069 Y156.683
N5900 G3 X239.835 Y157.038 I-0.294 J0.06
N5905 G2 X239.157 Y157.37 I0.301 J1.469 F800
N5910 G1 X183.667 Y205.155
N5915 X182.656 Y206.026
N5920 G2 X182.311 Y206.457 I0.979 J1.137 F200
N5925 X181.834 Y206.733 I0.502 J1.413 F800
N5930 G1 X156.745 Y228.338
N5935 G2 X160.559 Y321.533 I38.826 J45.086
N5940 G1 X187.329 Y341.017
N5945 G2 X187.827 Y341.254 I0.883 J-1.213 F200
N5950 X188.205 Y341.653 I1.261 J-0.813 F800
N5955 G1 X189.284 Y342.439
N5960 X248.493 Y385.531
N5965 G2 X249.437 Y385.817 I0.883 J-1.213
N5970 G1 X264.425 Y385.204
N5975 G2 X265.863 Y383.644 I-0.061 J-1.499
N5980 G1 X265.004 Y362.661
N5985 G2 X263.444 Y361.223 I-1.499 J0.061
N5990 G1 X261.246 Y361.313
N5995 X260.646 Y361.338 F200
N6000 X260.446 Y356.442 F800
N6005 X260.421 Y355.843 F200
N6010 X263.219 Y355.729 F800
N6015 G2 X264.657 Y354.169 I-0.061 J-1.499
N6020 G1 X263.205 Y318.698
N6025 G2 X262.991 Y317.986 I-1.499 J0.061
N6030 G3 X259.125 Y223.505 I84.406 J-50.774
N6035 G2 X259.28 Y222.778 I-1.344 J-0.666
N6040 G1 X257.829 Y187.308
N6045 G2 X256.269 Y185.87 I-1.499 J0.061
N6050 G1 X254.07 Y185.96
N6055 X253.471 Y185.985 F200
N6060 X253.27 Y181.089 F800
N6065 X253.246 Y180.489 F200
N6070 X256.043 Y180.375 F800
N6075 G2 X257.481 Y178.815 I-0.061 J-1.499
N6080 G1 X256.623 Y157.833
N6085 G2 X255.063 Y156.395 I-1.499 J0.061
N6090 G1 X240.075 Y157.008
N6095 X239.954 Y157.018
N6100 X239.835 Y157.038
N6105 G3 X239.481 Y156.804 I-0.06 J-0.294
N6110 G1 X239.421 Y156.51
N6115 X239.407 Y156.445 Z-1.692
N6120 X239.395 Y156.382 Z-1.67
N6125 X239.383 Y156.327 Z-1.635
N6130 X239.374 Y156.28 Z-1.587
N6135 X239.366 Y156.245 Z-1.53
N6140 X239.362 Y156.223 Z-1.467
N6145 X239.361 Y156.216 Z-1.4
N6150 G0 Z2.3
N6155 X239.948 Y156.096
N6160 G1 Z-1.5 F100
N6165 X239.95 Y156.103 Z-1.567 F50
N6170 X239.954 Y156.125 Z-1.63
N6175 X239.961 Y156.16 Z-1.687
N6180 X239.971 Y156.206 Z-1.735
N6185 X239.982 Y156.262 Z-1.77
N6190 X239.995 Y156.324 Z-1.792
N6195 X240.009 Y156.39 Z-1.8
N6200 X240.069 Y156.683
N6205 G3 X239.835 Y157.038 I-0.294 J0.06
N6210 G2 X239.157 Y157.37 I0.301 J1.469 F800
N6215 G1 X213.155 Y179.762
N6220 X212.701 Y180.153 F200
N6225 X212.549 Y180.284 Z-1.7 F800
N6230 X210.276 Y182.241
N6235 X210.124 Y182.372 Z-1.8 F100
N6240 X183.667 Y205.155 F800
N6245 X182.656 Y206.026
N6250 G2 X182.311 Y206.457 I0.979 J1.137 F200
N6255 X181.834 Y206.733 I0.502 J1.413 F800
N6260 G1 X156.745 Y228.338
N6265 G2 X141.947 Y247.644 I38.826 J45.086
N6270 X141.689 Y248.186 I53.624 J25.781 F200
N6275 G1 X141.605 Y248.367 Z-1.7 F800
N6280 G2 X140.41 Y251.119 I53.966 J25.057
N6285 G1 X140.336 Y251.305 Z-1.8 F100
N6290 G2 X142.063 Y299.446 I55.235 J22.12 F800
N6295 X142.328 Y299.984 I53.508 J-26.021 F200
N6300 G1 X142.418 Y300.163 Z-1.7 F800
N6305 G2 X143.833 Y302.808 I53.153 J-26.738
N6310 G1 X143.932 Y302.982 Z-1.8 F100
N6315 G2 X160.559 Y321.533 I51.639 J-29.557 F800
N6320 G1 X187.329 Y341.017
N6325 G2 X187.827 Y341.254 I0.883 J-1.213 F200
N6330 X188.205 Y341.653 I1.261 J-0.813 F800
N6335 G1 X189.284 Y342.439
N6340 X217.029 Y362.632
N6345 X217.514 Y362.985 F200
N6350 X217.676 Y363.103 Z-1.7 F800
N6355 X220.102 Y364.868
N6360 X220.263 Y364.986 Z-1.8 F100
N6365 X248.493 Y385.531 F800
N6370 G2 X249.437 Y385.817 I0.883 J-1.213
N6375 G1 X264.425 Y385.204
N6380 G2 X265.863 Y383.644 I-0.061 J-1.499
N6385 G1 X265.004 Y362.661
N6390 G2 X263.444 Y361.223 I-1.499 J0.061
N6395 G1 X261.246 Y361.313
N6400 X260.646 Y361.338 F200
N6405 X260.446 Y356.442 F800
N6410 X260.421 Y355.843 F200
N6415 X263.219 Y355.729 F800
N6420 G2 X264.657 Y354.169 I-0.061 J-1.499
N6425 G1 X263.205 Y318.698
N6430 G2 X262.991 Y317.986 I-1.499 J0.061
N6435 G3 X253.731 Y297.69 I84.406 J-50.774
N6440 X253.547 Y297.119 I93.666 J-30.477 F200
N6445 G1 X253.486 Y296.928 Z-1.7 F800
N6450 G3 X252.625 Y294.054 I93.911 J-29.716
N6455 G1 X252.57 Y293.862 Z-1.8 F100
N6460 G3 X250.597 Y248.989 I94.826 J-26.65 F800
N6465 X250.71 Y248.4 I96.8 J18.223 F200
N6470 G1 X250.749 Y248.203 Z-1.7 F800
N6475 G3 X251.372 Y245.269 I96.648 J19.009
N6480 G1 X251.417 Y245.074 Z-1.8 F100
N6485 G3 X259.125 Y223.505 I95.98 J22.138 F800
N6490 G2 X259.28 Y222.778 I-1.344 J-0.666
N6495 G1 X257.829 Y187.308
N6500 G2 X256.269 Y185.87 I-1.499 J0.061
N6505 G1 X254.07 Y185.96
N6510 X253.471 Y185.985 F200
N6515 X253.27 Y181.089 F800
N6520 X253.246 Y180.489 F200
N6525 X256.043 Y180.375 F800
N6530 G2 X257.481 Y178.815 I-0.061 J-1.499
N6535 G1 X256.623 Y157.833
N6540 G2 X255.063 Y156.395 I-1.499 J0.061
N6545 G1 X240.075 Y157.008
N6550 X239.954 Y157.018
N6555 X239.835 Y157.038
N6560 G3 X239.481 Y156.804 I-0.06 J-0.294
N6565 G1 X239.421 Y156.51
N6570 X239.407 Y156.445 Z-1.792
N6575 X239.395 Y156.382 Z-1.77
N6580 X239.383 Y156.327 Z-1.735
N6585 X239.374 Y156.28 Z-1.687
N6590 X239.366 Y156.245 Z-1.63
N6595 X239.362 Y156.223 Z-1.567
N6600 X239.361 Y156.216 Z-1.5
N6605 G0 Z2.3
N6610 X239.948 Y156.096
N6615 G1 Z-1.6 F100
N6620 X239.95 Y156.103 Z-1.667 F50
N6625 X239.954 Y156.125 Z-1.73
N6630 X239.961 Y156.16 Z-1.787
N6635 X239.971 Y156.206 Z-1.835
N6640 X239.982 Y156.262 Z-1.87
N6645 X239.995 Y156.324 Z-1.892
N6650 X240.009 Y156.39 Z-1.9
N6655 X240.069 Y156.683
N6660 G3 X239.835 Y157.038 I-0.294 J0.06
N6665 G2 X239.157 Y157.37 I0.301 J1.469 F800
N6670 G1 X213.307 Y179.631
N6675 X212.852 Y180.023 F200
N6680 X212.549 Y180.284 Z-1.7 F800
N6685 X210.276 Y182.241
N6690 X209.973 Y182.502 Z-1.9 F100
N6695 X183.667 Y205.155 F800
N6700 X182.656 Y206.026
N6705 G2 X182.311 Y206.457 I0.979 J1.137 F200
N6710 X181.834 Y206.733 I0.502 J1.413 F800
N6715 G1 X156.745 Y228.338
N6720 G2 X141.775 Y248.005 I38.826 J45.086
N6725 X141.605 Y248.367 Z-1.7 I53.796 J25.42
N6730 X140.41 Y251.119 I53.966 J25.057
N6735 X140.262 Y251.491 Z-1.9 I55.161 J22.305 F100
N6740 X142.239 Y299.805 I55.309 J21.934 F800
N6745 X142.418 Y300.163 Z-1.7 I53.332 J-26.38
N6750 X143.833 Y302.808 I53.153 J-26.738
N6755 X144.032 Y303.155 Z-1.9 I51.738 J-29.384 F100
N6760 X160.559 Y321.533 I51.539 J-29.731 F800
N6765 G1 X187.329 Y341.017
N6770 G2 X187.827 Y341.254 I0.883 J-1.213 F200
N6775 X188.205 Y341.653 I1.261 J-0.813 F800
N6780 G1 X189.284 Y342.439
N6785 X216.868 Y362.514
N6790 X217.353 Y362.867 F200
N6795 X217.676 Y363.103 Z-1.7 F800
N6800 X220.102 Y364.868
N6805 X220.425 Y365.103 Z-1.9 F100
N6810 X248.493 Y385.531 F800
N6815 G2 X249.437 Y385.817 I0.883 J-1.213
N6820 G1 X264.425 Y385.204
N6825 G2 X265.863 Y383.644 I-0.061 J-1.499
N6830 G1 X265.004 Y362.661
N6835 G2 X263.444 Y361.223 I-1.499 J0.061
N6840 G1 X261.246 Y361.313
N6845 X260.646 Y361.338 F200
N6850 X260.446 Y356.442 F800
N6855 X260.421 Y355.843 F200
N6860 X263.219 Y355.729 F800
N6865 G2 X264.657 Y354.169 I-0.061 J-1.499
N6870 G1 X263.205 Y318.698
N6875 G2 X262.991 Y317.986 I-1.499 J0.061
N6880 G3 X253.608 Y297.309 I84.406 J-50.774
N6885 X253.486 Y296.928 Z-1.7 I93.789 J-30.097
N6890 X252.625 Y294.054 I93.911 J-29.716
N6895 X252.517 Y293.669 Z-1.9 I94.772 J-26.842 F100
N6900 X250.672 Y248.596 I94.88 J-26.457 F800
N6905 X250.749 Y248.203 Z-1.7 I96.725 J18.616
N6910 X251.372 Y245.269 I96.648 J19.009
N6915 X251.462 Y244.879 Z-1.9 I96.025 J21.943 F100
N6920 X259.125 Y223.505 I95.935 J22.333 F800
N6925 G2 X259.28 Y222.778 I-1.344 J-0.666
N6930 G1 X257.829 Y187.308
N6935 G2 X256.269 Y185.87 I-1.499 J0.061
N6940 G1 X254.07 Y185.96
N6945 X253.471 Y185.985 F200
N6950 X253.27 Y181.089 F800
N6955 X253.246 Y180.489 F200
N6960 X256.043 Y180.375 F800
N6965 G2 X257.481 Y178.815 I-0.061 J-1.499
N6970 G1 X256.623 Y157.833
N6975 G2 X255.063 Y156.395 I-1.499 J0.061
N6980 G1 X240.075 Y157.008
N6985 X239.954 Y157.018
N6990 X239.835 Y157.038
N6995 G3 X239.481 Y156.804 I-0.06 J-0.294
N7000 G1 X239.421 Y156.51
N7005 X239.407 Y156.445 Z-1.892
N7010 X239.395 Y156.382 Z-1.87
N7015 X239.383 Y156.327 Z-1.835
N7020 X239.374 Y156.28 Z-1.787
N7025 X239.366 Y156.245 Z-1.73
N7030 X239.362 Y156.223 Z-1.667
N7035 X239.361 Y156.216 Z-1.6
N7040 G0 Z2.3
N7045 X239.948 Y156.096
N7050 G1 Z-1.7 F100
N7055 X239.95 Y156.103 Z-1.767 F50
N7060 X239.954 Y156.125 Z-1.83
N7065 X239.961 Y156.16 Z-1.887
N7070 X239.971 Y156.206 Z-1.935
N7075 X239.982 Y156.262 Z-1.97
N7080 X239.995 Y156.324 Z-1.992
N7085 X240.009 Y156.39 Z-2
N7090 X240.069 Y156.683
N7095 G3 X239.835 Y157.038 I-0.294 J0.06
N7100 G2 X239.157 Y157.37 I0.301 J1.469 F800
N7105 G1 X213.458 Y179.501
N7110 X213.004 Y179.892 F200
N7115 X212.549 Y180.284 Z-1.7 F800
N7120 X210.276 Y182.241
N7125 X209.821 Y182.633 Z-2 F100
N7130 X183.667 Y205.155 F800
N7135 X182.656 Y206.026
N7140 G2 X182.311 Y206.457 I0.979 J1.137 F200
N7145 X181.834 Y206.733 I0.502 J1.413 F800
N7150 G1 X156.745 Y228.338
N7155 G2 X141.86 Y247.824 I38.826 J45.086
N7160 X141.605 Y248.367 Z-1.7 I53.711 J25.6
N7165 X140.41 Y251.119 I53.966 J25.057
N7170 X140.188 Y251.677 Z-2 I55.161 J22.305 F100
N7175 X142.151 Y299.625 I55.383 J21.748 F800
N7180 X142.418 Y300.163 Z-1.7 I53.42 J-26.201
N7185 X143.833 Y302.808 I53.153 J-26.738
N7190 X144.132 Y303.329 Z-2 I51.738 J-29.384 F100
N7195 X160.559 Y321.533 I51.439 J-29.904 F800
N7200 G1 X187.329 Y341.017
N7205 G2 X187.827 Y341.254 I0.883 J-1.213 F200
N7210 X188.205 Y341.653 I1.261 J-0.813 F800
N7215 G1 X189.284 Y342.439
N7220 X216.706 Y362.397
N7225 X217.191 Y362.75 F200
N7230 X217.676 Y363.103 Z-1.7 F800
N7235 X220.102 Y364.868
N7240 X220.587 Y365.221 Z-2 F100
N7245 X248.493 Y385.531 F800
N7250 G2 X249.437 Y385.817 I0.883 J-1.213
N7255 G1 X264.425 Y385.204
N7260 G2 X265.863 Y383.644 I-0.061 J-1.499
N7265 G1 X265.004 Y362.661
N7270 G2 X263.444 Y361.223 I-1.499 J0.061
N7275 G1 X261.246 Y361.313
N7280 X260.646 Y361.338 F200
N7285 X260.446 Y356.442 F800
N7290 X260.421 Y355.843 F200
N7295 X263.219 Y355.729 F800
N7300 G2 X264.657 Y354.169 I-0.061 J-1.499
N7305 G1 X263.205 Y318.698
N7310 G2 X262.991 Y317.986 I-1.499 J0.061
N7315 G3 X253.669 Y297.5 I84.406 J-50.774
N7320 X253.486 Y296.928 Z-1.7 I93.728 J-30.287
N7325 X252.625 Y294.054 I93.911 J-29.716
N7330 X252.463 Y293.476 Z-2 I94.772 J-26.842 F100
N7335 X250.635 Y248.793 I94.934 J-26.264 F800
N7340 X250.749 Y248.203 Z-1.7 I96.762 J18.42
N7345 X251.372 Y245.269 I96.648 J19.009
N7350 X251.508 Y244.684 Z-2 I96.025 J21.943 F100
N7355 X259.125 Y223.505 I95.889 J22.528 F800
N7360 G2 X259.28 Y222.778 I-1.344 J-0.666
N7365 G1 X257.829 Y187.308
N7370 G2 X256.269 Y185.87 I-1.499 J0.061
N7375 G1 X254.07 Y185.96
N7380 X253.471 Y185.985 F200
N7385 X253.27 Y181.089 F800
N7390 X253.246 Y180.489 F200
N7395 X256.043 Y180.375 F800
N7400 G2 X257.481 Y178.815 I-0.061 J-1.499
N7405 G1 X256.623 Y157.833
N7410 G2 X255.063 Y156.395 I-1.499 J0.061
N7415 G1 X240.075 Y157.008
N7420 X239.954 Y157.018
N7425 X239.835 Y157.038
N7430 G3 X239.481 Y156.804 I-0.06 J-0.294
N7435 G1 X239.421 Y156.51
N7440 X239.407 Y156.445 Z-1.992
N7445 X239.395 Y156.382 Z-1.97
N7450 X239.383 Y156.327 Z-1.935
N7455 X239.374 Y156.28 Z-1.887
N7460 X239.366 Y156.245 Z-1.83
N7465 X239.362 Y156.223 Z-1.767
N7470 X239.361 Y156.216 Z-1.7
N7475 G0 Z2.3
N7480 X239.948 Y156.096
N7485 G1 Z-1.8 F100
N7490 X239.95 Y156.103 Z-1.867 F50
N7495 X239.954 Y156.125 Z-1.93
N7500 X239.961 Y156.16 Z-1.987
N7505 X239.971 Y156.206 Z-2.035
N7510 X239.982 Y156.262 Z-2.07
N7515 X239.995 Y156.324 Z-2.092
N7520 X240.009 Y156.39 Z-2.1
N7525 X240.069 Y156.683
N7530 G3 X239.835 Y157.038 I-0.294 J0.06
N7535 G2 X239.157 Y157.37 I0.301 J1.469 F800
N7540 G1 X213.61 Y179.37
N7545 X213.155 Y179.762 F200
N7550 X212.549 Y180.284 Z-1.7 F800
N7555 X210.276 Y182.241
N7560 X209.67 Y182.763 Z-2.1 F100
N7565 X183.667 Y205.155 F800
N7570 X182.656 Y206.026
N7575 G2 X182.311 Y206.457 I0.979 J1.137 F200
N7580 X181.834 Y206.733 I0.502 J1.413 F800
N7585 G1 X156.745 Y228.338
N7590 G2 X141.947 Y247.644 I38.826 J45.086
N7595 X141.605 Y248.367 Z-1.7 I53.624 J25.781
N7600 X140.41 Y251.119 I53.966 J25.057
N7605 X140.115 Y251.863 Z-2.1 I55.161 J22.305 F100
N7610 X142.063 Y299.446 I55.456 J21.561 F800
N7615 X142.418 Y300.163 Z-1.7 I53.508 J-26.021
N7620 X143.833 Y302.808 I53.153 J-26.738
N7625 X144.233 Y303.501 Z-2.1 I51.738 J-29.384 F100
N7630 X160.559 Y321.533 I51.338 J-30.077 F800
N7635 G1 X187.329 Y341.017
N7640 G2 X187.827 Y341.254 I0.883 J-1.213 F200
N7645 X188.205 Y341.653 I1.261 J-0.813 F800
N7650 G1 X189.284 Y342.439
N7655 X216.544 Y362.279
N7660 X217.029 Y362.632 F200
N7665 X217.676 Y363.103 Z-1.7 F800
N7670 X220.102 Y364.868
N7675 X220.749 Y365.339 Z-2.1 F100
N7680 X248.493 Y385.531 F800
N7685 G2 X249.437 Y385.817 I0.883 J-1.213
N7690 G1 X264.425 Y385.204
N7695 G2 X265.863 Y383.644 I-0.061 J-1.499
N7700 G1 X265.004 Y362.661
N7705 G2 X263.444 Y361.223 I-1.499 J0.061
N7710 G1 X261.246 Y361.313
N7715 X260.646 Y361.338 F200
N7720 X260.446 Y356.442 F800
N7725 X260.421 Y355.843 F200
N7730 X263.219 Y355.729 F800
N7735 G2 X264.657 Y354.169 I-0.061 J-1.499
N7740 G1 X263.205 Y318.698
N7745 G2 X262.991 Y317.986 I-1.499 J0.061
N7750 G3 X253.731 Y297.69 I84.406 J-50.774
N7755 X253.486 Y296.928 Z-1.7 I93.666 J-30.478
N7760 X252.625 Y294.054 I93.911 J-29.716
N7765 X252.41 Y293.284 Z-2.1 I94.772 J-26.842 F100
N7770 X250.597 Y248.989 I94.987 J-26.071 F800
N7775 X250.749 Y248.203 Z-1.7 I96.8 J18.223
N7780 X251.372 Y245.269 I96.648 J19.009
N7785 X251.554 Y244.49 Z-2.1 I96.025 J21.943 F100
N7790 X259.125 Y223.505 I95.843 J22.723 F800
N7795 G2 X259.28 Y222.778 I-1.344 J-0.666
N7800 G1 X257.829 Y187.308
N7805 G2 X256.269 Y185.87 I-1.499 J0.061
N7810 G1 X254.07 Y185.96
N7815 X253.471 Y185.985 F200
N7820 X253.27 Y181.089 F800
N7825 X253.246 Y180.489 F200
N7830 X256.043 Y180.375 F800
N7835 G2 X257.481 Y178.815 I-0.061 J-1.499
N7840 G1 X256.623 Y157.833
N7845 G2 X255.063 Y156.395 I-1.499 J0.061
N7850 G1 X240.075 Y157.008
N7855 X239.954 Y157.018
N7860 X239.835 Y157.038
N7865 G3 X239.481 Y156.804 I-0.06 J-0.294
N7870 G1 X239.421 Y156.51
N7875 X239.407 Y156.445 Z-2.092
N7880 X239.395 Y156.382 Z-2.07
N7885 X239.383 Y156.327 Z-2.035
N7890 X239.374 Y156.28 Z-1.987
N7895 X239.366 Y156.245 Z-1.93
N7900 X239.362 Y156.223 Z-1.867
N7905 X239.361 Y156.216 Z-1.8
N7910 G0 Z2.3
N7915 X239.948 Y156.096
N7920 G1 Z-1.9 F100
N7925 X239.95 Y156.103 Z-1.967 F50
N7930 X239.954 Y156.125 Z-2.03
N7935 X239.961 Y156.16 Z-2.087
N7940 X239.971 Y156.206 Z-2.135
N7945 X239.982 Y156.262 Z-2.17
N7950 X239.995 Y156.324 Z-2.192
N7955 X240.009 Y156.39 Z-2.2
N7960 X240.069 Y156.683
N7965 G3 X239.835 Y157.038 I-0.294 J0.06
N7970 G2 X239.157 Y157.37 I0.301 J1.469 F800
N7975 G1 X213.761 Y179.24
N7980 X213.307 Y179.631 F200
N7985 X212.549 Y180.284 Z-1.7 F800
N7990 X210.276 Y182.241
N7995 X209.518 Y182.894 Z-2.2 F100
N8000 X183.667 Y205.155 F800
N8005 X182.656 Y206.026
N8010 G2 X182.311 Y206.457 I0.979 J1.137 F200
N8015 X181.834 Y206.733 I0.502 J1.413 F800
N8020 G1 X156.745 Y228.338
N8025 G2 X142.034 Y247.463 I38.826 J45.086
N8030 X141.605 Y248.367 Z-1.7 I53.537 J25.961
N8035 X140.41 Y251.119 I53.966 J25.057
N8040 X140.043 Y252.05 Z-2.2 I55.161 J22.305 F100
N8045 X141.976 Y299.265 I55.528 J21.374 F800
N8050 X142.418 Y300.163 Z-1.7 I53.595 J-25.841
N8055 X143.833 Y302.808 I53.153 J-26.738
N8060 X144.334 Y303.674 Z-2.2 I51.738 J-29.384 F100
N8065 X160.559 Y321.533 I51.237 J-30.249 F800
N8070 G1 X187.329 Y341.017
N8075 G2 X187.827 Y341.254 I0.883 J-1.213 F200
N8080 X188.205 Y341.653 I1.261 J-0.813 F800
N8085 G1 X189.284 Y342.439
N8090 X216.382 Y362.161
N8095 X216.868 Y362.514 F200
N8100 X217.676 Y363.103 Z-1.7 F800
N8105 X220.102 Y364.868
N8110 X220.91 Y365.456 Z-2.2 F100
N8115 X248.493 Y385.531 F800
N8120 G2 X249.437 Y385.817 I0.883 J-1.213
N8125 G1 X264.425 Y385.204
N8130 G2 X265.863 Y383.644 I-0.061 J-1.499
N8135 G1 X265.004 Y362.661
N8140 G2 X263.444 Y361.223 I-1.499 J0.061
N8145 G1 X261.246 Y361.313
N8150 X260.646 Y361.338 F200
N8155 X260.446 Y356.442 F800
N8160 X260.421 Y355.843 F200
N8165 X263.219 Y355.729 F800
N8170 G2 X264.657 Y354.169 I-0.061 J-1.499
N8175 G1 X263.205 Y318.698
N8180 G2 X262.991 Y317.986 I-1.499 J0.061
N8185 G3 X253.793 Y297.88 I84.406 J-50.774
N8190 X253.486 Y296.928 Z-1.7 I93.604 J-30.668
N8195 X252.625 Y294.054 I93.911 J-29.716
N8200 X252.357 Y293.091 Z-2.2 I94.772 J-26.842 F100
N8205 X250.56 Y249.186 I95.04 J-25.878 F800
N8210 X250.749 Y248.203 Z-1.7 I96.836 J18.026
N8215 X251.372 Y245.269 I96.648 J19.009
N8220 X251.6 Y244.295 Z-2.2 I96.025 J21.943 F100
N8225 X259.125 Y223.505 I95.797 J22.917 F800
N8230 G2 X259.28 Y222.778 I-1.344 J-0.666
N8235 G1 X257.829 Y187.308
N8240 G2 X256.269 Y185.87 I-1.499 J0.061
N8245 G1 X254.07 Y185.96
N8250 X253.471 Y185.985 F200
N8255 X253.27 Y181.089 F800
N8260 X253.246 Y180.489 F200
N8265 X256.043 Y180.375 F800
N8270 G2 X257.481 Y178.815 I-0.061 J-1.499
N8275 G1 X256.623 Y157.833
N8280 G2 X255.063 Y156.395 I-1.499 J0.061
N8285 G1 X240.075 Y157.008
N8290 X239.954 Y157.018
N8295 X239.835 Y157.038
N8300 G3 X239.481 Y156.804 I-0.06 J-0.294
N8305 G1 X239.421 Y156.51
N8310 X239.407 Y156.445 Z-2.192
N8315 X239.395 Y156.382 Z-2.17
N8320 X239.383 Y156.327 Z-2.135
N8325 X239.374 Y156.28 Z-2.087
N8330 X239.366 Y156.245 Z-2.03
N8335 X239.362 Y156.223 Z-1.967
N8340 X239.361 Y156.216 Z-1.9
N8345 G0 Z2.3
N8350 M9
N8355 G28
N8360 M5
N8365 M30
%
