%
(1001)
(T1 D=9.525 CR=0 TAPER=118deg - ZMIN=-0.5 - center drill)
N10 G90 G94
N15 G17
N20 G21
N25 G28

(???1)
N30 T1 M6
N35 S20000 M3
N40 G54
N45 M8
N50 G0 X186.25 Y290
N55 G43 Z2.3
N60 G98 G81 X186.25 Y290 Z-0.5 R2.3 F30
N65 Y280
N70 Y270
N75 Y260
N80 Y250
N85 Y240
N90 Y230
N95 Y220
N100 Y210
N105 Y200
N110 Y190
N115 Y180
N120 Y170
N125 Y160
N130 Y150
N135 Y140
N140 Y130
N145 Y120
N150 Y110
N155 Y100
N160 Y90
N165 Y80
N170 Y70
N175 Y60
N180 Y50
N185 Y40
N190 Y30
N195 Y20
N200 Y10
N205 X166.25
N210 Y20
N215 Y30
N220 Y40
N225 Y50
N230 Y60
N235 Y70
N240 Y80
N245 Y90
N250 Y100
N255 Y110
N260 Y120
N265 Y130
N270 Y140
N275 Y150
N280 Y160
N285 Y170
N290 Y180
N295 Y190
N300 Y200
N305 Y210
N310 Y220
N315 Y230
N320 Y240
N325 Y250
N330 Y260
N335 Y270
N340 Y280
N345 Y290
N350 X146.25
N355 Y280
N360 Y270
N365 Y260
N370 Y250
N375 Y240
N380 Y230
N385 Y220
N390 Y210
N395 Y200
N400 Y190
N405 Y180
N410 Y170
N415 Y160
N420 Y150
N425 Y140
N430 Y130
N435 Y120
N440 Y110
N445 Y100
N450 Y90
N455 Y80
N460 Y70
N465 Y60
N470 Y50
N475 Y40
N480 Y30
N485 Y20
N490 Y10
N495 X126.25
N500 Y20
N505 Y30
N510 Y40
N515 Y50
N520 Y60
N525 Y70
N530 Y80
N535 Y90
N540 Y100
N545 Y110
N550 Y120
N555 Y130
N560 Y140
N565 Y150
N570 Y160
N575 Y170
N580 Y180
N585 Y190
N590 Y200
N595 Y210
N600 Y220
N605 Y230
N610 Y240
N615 Y250
N620 Y260
N625 Y270
N630 Y280
N635 Y290
N640 X106.25
N645 Y280
N650 Y270
N655 Y260
N660 Y250
N665 Y240
N670 Y230
N675 Y220
N680 Y210
N685 Y200
N690 Y190
N695 Y180
N700 Y170
N705 Y160
N710 Y150
N715 Y140
N720 Y130
N725 Y120
N730 Y110
N735 Y100
N740 Y90
N745 Y80
N750 Y70
N755 Y60
N760 Y50
N765 Y40
N770 Y30
N775 Y20
N780 Y10
N785 X86.25
N790 Y20
N795 Y30
N800 Y40
N805 Y50
N810 Y60
N815 Y70
N820 Y80
N825 Y90
N830 Y100
N835 Y110
N840 Y120
N845 Y130
N850 Y140
N855 Y150
N860 Y160
N865 Y170
N870 Y180
N875 Y190
N880 Y200
N885 Y210
N890 Y220
N895 Y230
N900 Y240
N905 Y250
N910 Y260
N915 Y270
N920 Y280
N925 Y290
N930 X66.25
N935 Y280
N940 Y270
N945 Y260
N950 Y250
N955 Y240
N960 Y230
N965 Y220
N970 Y210
N975 Y200
N980 Y190
N985 Y180
N990 Y170
N995 Y160
N1000 Y150
N1005 Y140
N1010 Y130
N1015 Y120
N1020 Y110
N1025 Y100
N1030 Y90
N1035 Y80
N1040 Y70
N1045 Y60
N1050 Y50
N1055 Y40
N1060 Y30
N1065 Y20
N1070 Y10
N1075 X46.25
N1080 Y20
N1085 Y30
N1090 Y40
N1095 Y50
N1100 Y60
N1105 Y70
N1110 Y80
N1115 Y90
N1120 Y100
N1125 Y110
N1130 Y120
N1135 Y130
N1140 Y140
N1145 Y150
N1150 Y160
N1155 Y170
N1160 Y180
N1165 Y190
N1170 Y200
N1175 Y210
N1180 Y220
N1185 Y230
N1190 Y240
N1195 Y250
N1200 Y260
N1205 Y270
N1210 Y280
N1215 Y290
N1220 X26.25
N1225 Y280
N1230 Y270
N1235 Y260
N1240 Y250
N1245 Y240
N1250 Y230
N1255 Y220
N1260 Y210
N1265 Y200
N1270 Y190
N1275 Y180
N1280 Y170
N1285 Y160
N1290 Y150
N1295 Y140
N1300 Y130
N1305 Y120
N1310 Y110
N1315 Y100
N1320 Y90
N1325 Y80
N1330 Y70
N1335 Y60
N1340 Y50
N1345 Y40
N1350 Y30
N1355 Y20
N1360 Y10
N1365 X6.25
N1370 Y20
N1375 Y30
N1380 Y40
N1385 Y50
N1390 Y60
N1395 Y70
N1400 Y80
N1405 Y90
N1410 Y100
N1415 Y110
N1420 Y120
N1425 Y130
N1430 Y140
N1435 Y150
N1440 Y160
N1445 Y170
N1450 Y180
N1455 Y190
N1460 Y200
N1465 Y210
N1470 Y220
N1475 Y230
N1480 Y240
N1485 Y250
N1490 Y260
N1495 Y270
N1500 Y280
N1505 Y290
N1510 G80
N1515 G0 Z2.3
N1520 M9
N1525 G28
N1530 M5
N1535 M30
%
