%
(1001)
(T3 D=3 CR=0 - ZMIN=-1.2 - flat end mill)
N10 G90 G94
N15 G17
N20 G21
N25 G28

(??1)
N30 T3 M6
N35 S20000 M3
N40 G54
N45 M8
N50 G0 X62.25 Y262.5
N55 G43 Z2.3
N60 Z2
N65 G1 Z0.3 F50
N70 X62.3 Y262.55
N75 X62.293 Y262.575
N80 X62.275 Y262.593
N85 X62.25 Y262.6
N90 X62.211 Y262.592 Z0.294 F800
N95 X62.178 Y262.57 Z0.287
N100 X62.157 Y262.536 Z0.281
N105 X62.15 Y262.497 Z0.275
N110 X62.159 Y262.459 Z0.268
N115 X62.182 Y262.427 Z0.262
N120 X62.216 Y262.406 Z0.256
N125 X62.255 Y262.4 Z0.249
N130 X62.294 Y262.41 Z0.243
N135 X62.325 Y262.434 Z0.236
N140 X62.345 Y262.469 Z0.23
N145 X62.35 Y262.508 Z0.224
N150 X62.339 Y262.546 Z0.217
N155 X62.314 Y262.577 Z0.211
N160 X62.279 Y262.596 Z0.205
N165 X62.239 Y262.599 Z0.198
N170 X62.202 Y262.587 Z0.192
N175 X62.171 Y262.562 Z0.186
N180 X62.154 Y262.526 Z0.179
N185 X62.151 Y262.487 Z0.173
N190 X62.164 Y262.449 Z0.167
N195 X62.19 Y262.42 Z0.16
N200 X62.226 Y262.403 Z0.154
N205 X62.266 Y262.401 Z0.147
N210 X62.303 Y262.415 Z0.141
N215 X62.332 Y262.443 Z0.135
N220 X62.348 Y262.479 Z0.128
N225 Y262.519 Z0.122
N230 X62.333 Y262.555 Z0.116
N235 X62.305 Y262.583 Z0.109
N240 X62.269 Y262.598 Z0.103
N245 X62.229 Z0.097
N250 X62.193 Y262.582 Z0.09
N255 X62.165 Y262.553 Z0.084
N260 X62.151 Y262.516 Z0.078
N265 X62.153 Y262.476 Z0.071
N270 X62.17 Y262.44 Z0.065
N275 X62.199 Y262.414 Z0.058
N280 X62.237 Y262.401 Z0.052
N285 X62.276 Y262.404 Z0.046
N290 X62.312 Y262.421 Z0.039
N295 X62.337 Y262.452 Z0.033
N300 X62.349 Y262.489 Z0.027
N305 X62.346 Y262.529 Z0.02
N310 X62.327 Y262.564 Z0.014
N315 X62.296 Y262.589 Z0.008
N320 X62.258 Y262.6 Z0.001
N325 X62.219 Y262.595 Z-0.005
N330 X62.184 Y262.575 Z-0.011
N335 X62.16 Y262.544 Z-0.018
N340 X62.15 Y262.505 Z-0.024
N345 X62.156 Y262.466 Z-0.031
N350 X62.177 Y262.432 Z-0.037
N355 X62.209 Y262.409 Z-0.043
N360 X62.247 Y262.4 Z-0.05
N365 X62.286 Y262.407 Z-0.056
N370 X62.32 Y262.428 Z-0.062
N375 X62.342 Y262.461 Z-0.069
N380 X62.35 Y262.5 Z-0.075
N385 X62.342 Y262.539 Z-0.081
N390 X62.32 Y262.572 Z-0.088
N395 X62.286 Y262.593 Z-0.094
N400 X62.247 Y262.6 Z-0.1
N405 X62.209 Y262.591 Z-0.107
N410 X62.177 Y262.568 Z-0.113
N415 X62.156 Y262.534 Z-0.119
N420 X62.15 Y262.495 Z-0.126
N425 X62.16 Y262.456 Z-0.132
N430 X62.184 Y262.425 Z-0.139
N435 X62.219 Y262.405 Z-0.145
N440 X62.258 Y262.4 Z-0.151
N445 X62.296 Y262.411 Z-0.158
N450 X62.327 Y262.436 Z-0.164
N455 X62.346 Y262.471 Z-0.17
N460 X62.349 Y262.511 Z-0.177
N465 X62.337 Y262.548 Z-0.183
N470 X62.312 Y262.579 Z-0.189
N475 X62.276 Y262.596 Z-0.196
N480 X62.237 Y262.599 Z-0.202
N485 X62.199 Y262.586 Z-0.208
N490 X62.17 Y262.56 Z-0.215
N495 X62.153 Y262.524 Z-0.221
N500 X62.151 Y262.484 Z-0.228
N505 X62.165 Y262.447 Z-0.234
N510 X62.193 Y262.418 Z-0.24
N515 X62.229 Y262.402 Z-0.247
N520 X62.269 Z-0.253
N525 X62.305 Y262.417 Z-0.259
N530 X62.333 Y262.445 Z-0.266
N535 X62.348 Y262.481 Z-0.272
N540 Y262.521 Z-0.278
N545 X62.332 Y262.557 Z-0.285
N550 X62.303 Y262.585 Z-0.291
N555 X62.266 Y262.599 Z-0.297
N560 X62.226 Y262.597 Z-0.304
N565 X62.19 Y262.58 Z-0.31
N570 X62.164 Y262.551 Z-0.317
N575 X62.151 Y262.513 Z-0.323
N580 X62.154 Y262.474 Z-0.329
N585 X62.171 Y262.438 Z-0.336
N590 X62.202 Y262.413 Z-0.342
N595 X62.239 Y262.401 Z-0.348
N600 X62.279 Y262.404 Z-0.355
N605 X62.314 Y262.423 Z-0.361
N610 X62.339 Y262.454 Z-0.367
N615 X62.35 Y262.492 Z-0.374
N620 X62.345 Y262.531 Z-0.38
N625 X62.325 Y262.566 Z-0.386
N630 X62.294 Y262.59 Z-0.393
N635 X62.255 Y262.6 Z-0.399
N640 X62.216 Y262.594 Z-0.406
N645 X62.182 Y262.573 Z-0.412
N650 X62.159 Y262.541 Z-0.418
N655 X62.15 Y262.503 Z-0.425
N660 X62.157 Y262.464 Z-0.431
N665 X62.178 Y262.43 Z-0.437
N670 X62.211 Y262.408 Z-0.444
N675 X62.25 Y262.4 Z-0.45
N680 X62.289 Y262.408 Z-0.456
N685 X62.322 Y262.43 Z-0.463
N690 X62.343 Y262.464 Z-0.469
N695 X62.35 Y262.503 Z-0.475
N700 X62.341 Y262.541 Z-0.482
N705 X62.318 Y262.573 Z-0.488
N710 X62.284 Y262.594 Z-0.494
N715 X62.245 Y262.6 Z-0.501
N720 X62.206 Y262.59 Z-0.507
N725 X62.175 Y262.566 Z-0.514
N730 X62.155 Y262.531 Z-0.52
N735 X62.15 Y262.492 Z-0.526
N740 X62.161 Y262.454 Z-0.533
N745 X62.186 Y262.423 Z-0.539
N750 X62.221 Y262.404 Z-0.545
N755 X62.261 Y262.401 Z-0.552
N760 X62.298 Y262.413 Z-0.558
N765 X62.329 Y262.438 Z-0.564
N770 X62.346 Y262.474 Z-0.571
N775 X62.349 Y262.513 Z-0.577
N780 X62.336 Y262.551 Z-0.583
N785 X62.31 Y262.58 Z-0.59
N790 X62.274 Y262.597 Z-0.596
N795 X62.234 Y262.599 Z-0.603
N800 X62.197 Y262.585 Z-0.609
N805 X62.168 Y262.557 Z-0.615
N810 X62.152 Y262.521 Z-0.622
N815 Y262.481 Z-0.628
N820 X62.167 Y262.445 Z-0.634
N825 X62.195 Y262.417 Z-0.641
N830 X62.231 Y262.402 Z-0.647
N835 X62.271 Z-0.653
N840 X62.307 Y262.418 Z-0.66
N845 X62.335 Y262.447 Z-0.666
N850 X62.349 Y262.484 Z-0.672
N855 X62.347 Y262.524 Z-0.679
N860 X62.33 Y262.56 Z-0.685
N865 X62.301 Y262.586 Z-0.692
N870 X62.263 Y262.599 Z-0.698
N875 X62.224 Y262.596 Z-0.704
N880 X62.188 Y262.579 Z-0.711
N885 X62.163 Y262.548 Z-0.717
N890 X62.151 Y262.511 Z-0.723
N895 X62.154 Y262.471 Z-0.73
N900 X62.173 Y262.436 Z-0.736
N905 X62.204 Y262.411 Z-0.742
N910 X62.242 Y262.4 Z-0.749
N915 X62.281 Y262.405 Z-0.755
N920 X62.316 Y262.425 Z-0.761
N925 X62.34 Y262.456 Z-0.768
N930 X62.35 Y262.495 Z-0.774
N935 X62.344 Y262.534 Z-0.781
N940 X62.323 Y262.568 Z-0.787
N945 X62.291 Y262.591 Z-0.793
N950 X62.253 Y262.6 Z-0.8
N955 X62.214 Y262.593 Z-0.806
N960 X62.18 Y262.572 Z-0.812
N965 X62.158 Y262.539 Z-0.819
N970 X62.15 Y262.5 Z-0.825
N975 X62.158 Y262.461 Z-0.831
N980 X62.18 Y262.428 Z-0.838
N985 X62.214 Y262.407 Z-0.844
N990 X62.253 Y262.4 Z-0.85
N995 X62.291 Y262.409 Z-0.857
N1000 X62.323 Y262.432 Z-0.863
N1005 X62.344 Y262.466 Z-0.869
N1010 X62.35 Y262.505 Z-0.876
N1015 X62.34 Y262.544 Z-0.882
N1020 X62.316 Y262.575 Z-0.889
N1025 X62.281 Y262.595 Z-0.895
N1030 X62.242 Y262.6 Z-0.901
N1035 X62.204 Y262.589 Z-0.908
N1040 X62.173 Y262.564 Z-0.914
N1045 X62.154 Y262.529 Z-0.92
N1050 X62.151 Y262.489 Z-0.927
N1055 X62.163 Y262.452 Z-0.933
N1060 X62.188 Y262.421 Z-0.939
N1065 X62.224 Y262.404 Z-0.946
N1070 X62.263 Y262.401 Z-0.952
N1075 X62.301 Y262.414 Z-0.958
N1080 X62.33 Y262.44 Z-0.965
N1085 X62.347 Y262.476 Z-0.971
N1090 X62.349 Y262.516 Z-0.978
N1095 X62.335 Y262.553 Z-0.984
N1100 X62.307 Y262.582 Z-0.99
N1105 X62.271 Y262.598 Z-0.997
N1110 X62.231 Z-1.003
N1115 X62.195 Y262.583 Z-1.009
N1120 X62.167 Y262.555 Z-1.016
N1125 X62.152 Y262.519 Z-1.022
N1130 Y262.479 Z-1.028
N1135 X62.168 Y262.443 Z-1.035
N1140 X62.197 Y262.415 Z-1.041
N1145 X62.234 Y262.401 Z-1.047
N1150 X62.274 Y262.403 Z-1.054
N1155 X62.31 Y262.42 Z-1.06
N1160 X62.336 Y262.449 Z-1.067
N1165 X62.349 Y262.487 Z-1.073
N1170 X62.346 Y262.526 Z-1.079
N1175 X62.329 Y262.562 Z-1.086
N1180 X62.298 Y262.587 Z-1.092
N1185 X62.261 Y262.599 Z-1.098
N1190 X62.221 Y262.596 Z-1.105
N1195 X62.186 Y262.577 Z-1.111
N1200 X62.161 Y262.546 Z-1.117
N1205 X62.15 Y262.508 Z-1.124
N1210 X62.155 Y262.469 Z-1.13
N1215 X62.175 Y262.434 Z-1.136
N1220 X62.206 Y262.41 Z-1.143
N1225 X62.245 Y262.4 Z-1.149
N1230 X62.284 Y262.406 Z-1.156
N1235 X62.318 Y262.427 Z-1.162
N1240 X62.341 Y262.459 Z-1.168
N1245 X62.35 Y262.497 Z-1.175
N1250 X62.343 Y262.536 Z-1.181
N1255 X62.322 Y262.57 Z-1.187
N1260 X62.289 Y262.592 Z-1.194
N1265 X62.25 Y262.6 Z-1.2
N1270 G3 Y262.4 J-0.1
N1275 Y262.6 J0.1
N1280 G1 X62.225 Y262.593
N1285 X62.207 Y262.575
N1290 X62.2 Y262.55
N1295 X62.25 Y262.5
N1300 G0 Z2.3
N1305 X50.25
N1310 Z2
N1315 G1 Z0.3 F50
N1320 X50.3 Y262.55
N1325 X50.293 Y262.575
N1330 X50.275 Y262.593
N1335 X50.25 Y262.6
N1340 X50.211 Y262.592 Z0.294 F800
N1345 X50.178 Y262.57 Z0.287
N1350 X50.157 Y262.536 Z0.281
N1355 X50.15 Y262.497 Z0.275
N1360 X50.159 Y262.459 Z0.268
N1365 X50.182 Y262.427 Z0.262
N1370 X50.216 Y262.406 Z0.256
N1375 X50.255 Y262.4 Z0.249
N1380 X50.294 Y262.41 Z0.243
N1385 X50.325 Y262.434 Z0.236
N1390 X50.345 Y262.469 Z0.23
N1395 X50.35 Y262.508 Z0.224
N1400 X50.339 Y262.546 Z0.217
N1405 X50.314 Y262.577 Z0.211
N1410 X50.279 Y262.596 Z0.205
N1415 X50.239 Y262.599 Z0.198
N1420 X50.202 Y262.587 Z0.192
N1425 X50.171 Y262.562 Z0.186
N1430 X50.154 Y262.526 Z0.179
N1435 X50.151 Y262.487 Z0.173
N1440 X50.164 Y262.449 Z0.167
N1445 X50.19 Y262.42 Z0.16
N1450 X50.226 Y262.403 Z0.154
N1455 X50.266 Y262.401 Z0.147
N1460 X50.303 Y262.415 Z0.141
N1465 X50.332 Y262.443 Z0.135
N1470 X50.348 Y262.479 Z0.128
N1475 Y262.519 Z0.122
N1480 X50.333 Y262.555 Z0.116
N1485 X50.305 Y262.583 Z0.109
N1490 X50.269 Y262.598 Z0.103
N1495 X50.229 Z0.097
N1500 X50.193 Y262.582 Z0.09
N1505 X50.165 Y262.553 Z0.084
N1510 X50.151 Y262.516 Z0.078
N1515 X50.153 Y262.476 Z0.071
N1520 X50.17 Y262.44 Z0.065
N1525 X50.199 Y262.414 Z0.058
N1530 X50.237 Y262.401 Z0.052
N1535 X50.276 Y262.404 Z0.046
N1540 X50.312 Y262.421 Z0.039
N1545 X50.337 Y262.452 Z0.033
N1550 X50.349 Y262.489 Z0.027
N1555 X50.346 Y262.529 Z0.02
N1560 X50.327 Y262.564 Z0.014
N1565 X50.296 Y262.589 Z0.008
N1570 X50.258 Y262.6 Z0.001
N1575 X50.219 Y262.595 Z-0.005
N1580 X50.184 Y262.575 Z-0.011
N1585 X50.16 Y262.544 Z-0.018
N1590 X50.15 Y262.505 Z-0.024
N1595 X50.156 Y262.466 Z-0.031
N1600 X50.177 Y262.432 Z-0.037
N1605 X50.209 Y262.409 Z-0.043
N1610 X50.247 Y262.4 Z-0.05
N1615 X50.286 Y262.407 Z-0.056
N1620 X50.32 Y262.428 Z-0.062
N1625 X50.342 Y262.461 Z-0.069
N1630 X50.35 Y262.5 Z-0.075
N1635 X50.342 Y262.539 Z-0.081
N1640 X50.32 Y262.572 Z-0.088
N1645 X50.286 Y262.593 Z-0.094
N1650 X50.247 Y262.6 Z-0.1
N1655 X50.209 Y262.591 Z-0.107
N1660 X50.177 Y262.568 Z-0.113
N1665 X50.156 Y262.534 Z-0.119
N1670 X50.15 Y262.495 Z-0.126
N1675 X50.16 Y262.456 Z-0.132
N1680 X50.184 Y262.425 Z-0.139
N1685 X50.219 Y262.405 Z-0.145
N1690 X50.258 Y262.4 Z-0.151
N1695 X50.296 Y262.411 Z-0.158
N1700 X50.327 Y262.436 Z-0.164
N1705 X50.346 Y262.471 Z-0.17
N1710 X50.349 Y262.511 Z-0.177
N1715 X50.337 Y262.548 Z-0.183
N1720 X50.312 Y262.579 Z-0.189
N1725 X50.276 Y262.596 Z-0.196
N1730 X50.237 Y262.599 Z-0.202
N1735 X50.199 Y262.586 Z-0.208
N1740 X50.17 Y262.56 Z-0.215
N1745 X50.153 Y262.524 Z-0.221
N1750 X50.151 Y262.484 Z-0.228
N1755 X50.165 Y262.447 Z-0.234
N1760 X50.193 Y262.418 Z-0.24
N1765 X50.229 Y262.402 Z-0.247
N1770 X50.269 Z-0.253
N1775 X50.305 Y262.417 Z-0.259
N1780 X50.333 Y262.445 Z-0.266
N1785 X50.348 Y262.481 Z-0.272
N1790 Y262.521 Z-0.278
N1795 X50.332 Y262.557 Z-0.285
N1800 X50.303 Y262.585 Z-0.291
N1805 X50.266 Y262.599 Z-0.297
N1810 X50.226 Y262.597 Z-0.304
N1815 X50.19 Y262.58 Z-0.31
N1820 X50.164 Y262.551 Z-0.317
N1825 X50.151 Y262.513 Z-0.323
N1830 X50.154 Y262.474 Z-0.329
N1835 X50.171 Y262.438 Z-0.336
N1840 X50.202 Y262.413 Z-0.342
N1845 X50.239 Y262.401 Z-0.348
N1850 X50.279 Y262.404 Z-0.355
N1855 X50.314 Y262.423 Z-0.361
N1860 X50.339 Y262.454 Z-0.367
N1865 X50.35 Y262.492 Z-0.374
N1870 X50.345 Y262.531 Z-0.38
N1875 X50.325 Y262.566 Z-0.386
N1880 X50.294 Y262.59 Z-0.393
N1885 X50.255 Y262.6 Z-0.399
N1890 X50.216 Y262.594 Z-0.406
N1895 X50.182 Y262.573 Z-0.412
N1900 X50.159 Y262.541 Z-0.418
N1905 X50.15 Y262.503 Z-0.425
N1910 X50.157 Y262.464 Z-0.431
N1915 X50.178 Y262.43 Z-0.437
N1920 X50.211 Y262.408 Z-0.444
N1925 X50.25 Y262.4 Z-0.45
N1930 X50.289 Y262.408 Z-0.456
N1935 X50.322 Y262.43 Z-0.463
N1940 X50.343 Y262.464 Z-0.469
N1945 X50.35 Y262.503 Z-0.475
N1950 X50.341 Y262.541 Z-0.482
N1955 X50.318 Y262.573 Z-0.488
N1960 X50.284 Y262.594 Z-0.494
N1965 X50.245 Y262.6 Z-0.501
N1970 X50.206 Y262.59 Z-0.507
N1975 X50.175 Y262.566 Z-0.514
N1980 X50.155 Y262.531 Z-0.52
N1985 X50.15 Y262.492 Z-0.526
N1990 X50.161 Y262.454 Z-0.533
N1995 X50.186 Y262.423 Z-0.539
N2000 X50.221 Y262.404 Z-0.545
N2005 X50.261 Y262.401 Z-0.552
N2010 X50.298 Y262.413 Z-0.558
N2015 X50.329 Y262.438 Z-0.564
N2020 X50.346 Y262.474 Z-0.571
N2025 X50.349 Y262.513 Z-0.577
N2030 X50.336 Y262.551 Z-0.583
N2035 X50.31 Y262.58 Z-0.59
N2040 X50.274 Y262.597 Z-0.596
N2045 X50.234 Y262.599 Z-0.603
N2050 X50.197 Y262.585 Z-0.609
N2055 X50.168 Y262.557 Z-0.615
N2060 X50.152 Y262.521 Z-0.622
N2065 Y262.481 Z-0.628
N2070 X50.167 Y262.445 Z-0.634
N2075 X50.195 Y262.417 Z-0.641
N2080 X50.231 Y262.402 Z-0.647
N2085 X50.271 Z-0.653
N2090 X50.307 Y262.418 Z-0.66
N2095 X50.335 Y262.447 Z-0.666
N2100 X50.349 Y262.484 Z-0.672
N2105 X50.347 Y262.524 Z-0.679
N2110 X50.33 Y262.56 Z-0.685
N2115 X50.301 Y262.586 Z-0.692
N2120 X50.263 Y262.599 Z-0.698
N2125 X50.224 Y262.596 Z-0.704
N2130 X50.188 Y262.579 Z-0.711
N2135 X50.163 Y262.548 Z-0.717
N2140 X50.151 Y262.511 Z-0.723
N2145 X50.154 Y262.471 Z-0.73
N2150 X50.173 Y262.436 Z-0.736
N2155 X50.204 Y262.411 Z-0.742
N2160 X50.242 Y262.4 Z-0.749
N2165 X50.281 Y262.405 Z-0.755
N2170 X50.316 Y262.425 Z-0.761
N2175 X50.34 Y262.456 Z-0.768
N2180 X50.35 Y262.495 Z-0.774
N2185 X50.344 Y262.534 Z-0.781
N2190 X50.323 Y262.568 Z-0.787
N2195 X50.291 Y262.591 Z-0.793
N2200 X50.253 Y262.6 Z-0.8
N2205 X50.214 Y262.593 Z-0.806
N2210 X50.18 Y262.572 Z-0.812
N2215 X50.158 Y262.539 Z-0.819
N2220 X50.15 Y262.5 Z-0.825
N2225 X50.158 Y262.461 Z-0.831
N2230 X50.18 Y262.428 Z-0.838
N2235 X50.214 Y262.407 Z-0.844
N2240 X50.253 Y262.4 Z-0.85
N2245 X50.291 Y262.409 Z-0.857
N2250 X50.323 Y262.432 Z-0.863
N2255 X50.344 Y262.466 Z-0.869
N2260 X50.35 Y262.505 Z-0.876
N2265 X50.34 Y262.544 Z-0.882
N2270 X50.316 Y262.575 Z-0.889
N2275 X50.281 Y262.595 Z-0.895
N2280 X50.242 Y262.6 Z-0.901
N2285 X50.204 Y262.589 Z-0.908
N2290 X50.173 Y262.564 Z-0.914
N2295 X50.154 Y262.529 Z-0.92
N2300 X50.151 Y262.489 Z-0.927
N2305 X50.163 Y262.452 Z-0.933
N2310 X50.188 Y262.421 Z-0.939
N2315 X50.224 Y262.404 Z-0.946
N2320 X50.263 Y262.401 Z-0.952
N2325 X50.301 Y262.414 Z-0.958
N2330 X50.33 Y262.44 Z-0.965
N2335 X50.347 Y262.476 Z-0.971
N2340 X50.349 Y262.516 Z-0.978
N2345 X50.335 Y262.553 Z-0.984
N2350 X50.307 Y262.582 Z-0.99
N2355 X50.271 Y262.598 Z-0.997
N2360 X50.231 Z-1.003
N2365 X50.195 Y262.583 Z-1.009
N2370 X50.167 Y262.555 Z-1.016
N2375 X50.152 Y262.519 Z-1.022
N2380 Y262.479 Z-1.028
N2385 X50.168 Y262.443 Z-1.035
N2390 X50.197 Y262.415 Z-1.041
N2395 X50.234 Y262.401 Z-1.047
N2400 X50.274 Y262.403 Z-1.054
N2405 X50.31 Y262.42 Z-1.06
N2410 X50.336 Y262.449 Z-1.067
N2415 X50.349 Y262.487 Z-1.073
N2420 X50.346 Y262.526 Z-1.079
N2425 X50.329 Y262.562 Z-1.086
N2430 X50.298 Y262.587 Z-1.092
N2435 X50.261 Y262.599 Z-1.098
N2440 X50.221 Y262.596 Z-1.105
N2445 X50.186 Y262.577 Z-1.111
N2450 X50.161 Y262.546 Z-1.117
N2455 X50.15 Y262.508 Z-1.124
N2460 X50.155 Y262.469 Z-1.13
N2465 X50.175 Y262.434 Z-1.136
N2470 X50.206 Y262.41 Z-1.143
N2475 X50.245 Y262.4 Z-1.149
N2480 X50.284 Y262.406 Z-1.156
N2485 X50.318 Y262.427 Z-1.162
N2490 X50.341 Y262.459 Z-1.168
N2495 X50.35 Y262.497 Z-1.175
N2500 X50.343 Y262.536 Z-1.181
N2505 X50.322 Y262.57 Z-1.187
N2510 X50.289 Y262.592 Z-1.194
N2515 X50.25 Y262.6 Z-1.2
N2520 G3 Y262.4 J-0.1
N2525 Y262.6 J0.1
N2530 G1 X50.225 Y262.593
N2535 X50.207 Y262.575
N2540 X50.2 Y262.55
N2545 X50.25 Y262.5
N2550 G0 Z2.3
N2555 X2.25 Y150
N2560 Z2
N2565 G1 Z0.3 F50
N2570 X2.275 Y150.025
N2575 X2.268 Y150.043
N2580 X2.25 Y150.05
N2585 X2.223 Y150.042 Z0.291 F800
N2590 X2.205 Y150.021 Z0.282
N2595 X2.2 Y149.994 Z0.273
N2600 X2.211 Y149.968 Z0.264
N2605 X2.234 Y149.953 Z0.255
N2610 X2.262 Y149.951 Z0.246
N2615 X2.286 Y149.965 Z0.237
N2620 X2.299 Y149.99 Z0.228
N2625 X2.297 Y150.018 Z0.219
N2630 X2.28 Y150.04 Z0.21
N2635 X2.254 Y150.05 Z0.201
N2640 X2.227 Y150.044 Z0.192
N2645 X2.207 Y150.025 Z0.183
N2650 X2.2 Y149.998 Z0.174
N2655 X2.209 Y149.971 Z0.165
N2660 X2.231 Y149.954 Z0.156
N2665 X2.258 Y149.951 Z0.147
N2670 X2.283 Y149.963 Z0.138
N2675 X2.298 Y149.987 Z0.129
N2680 Y150.014 Z0.12
N2685 X2.283 Y150.038 Z0.111
N2690 X2.257 Y150.049 Z0.102
N2695 X2.23 Y150.046 Z0.093
N2700 X2.209 Y150.028 Z0.084
N2705 X2.2 Y150.001 Z0.075
N2710 X2.207 Y149.974 Z0.066
N2715 X2.227 Y149.955 Z0.057
N2720 X2.255 Y149.95 Z0.049
N2725 X2.281 Y149.96 Z0.04
N2730 X2.297 Y149.983 Z0.031
N2735 X2.299 Y150.011 Z0.022
N2740 X2.286 Y150.035 Z0.013
N2745 X2.261 Y150.049 Z0.004
N2750 X2.233 Y150.047 Z-0.005
N2755 X2.211 Y150.031 Z-0.014
N2760 X2.2 Y150.005 Z-0.023
N2765 X2.205 Y149.978 Z-0.032
N2770 X2.224 Y149.957 Z-0.041
N2775 X2.251 Y149.95 Z-0.05
N2780 X2.278 Y149.958 Z-0.059
N2785 X2.296 Y149.979 Z-0.068
N2790 X2.3 Y150.007 Z-0.077
N2795 X2.288 Y150.032 Z-0.086
N2800 X2.265 Y150.048 Z-0.095
N2805 X2.237 Z-0.104
N2810 X2.213 Y150.034 Z-0.113
N2815 X2.201 Y150.009 Z-0.122
N2820 X2.204 Y149.981 Z-0.131
N2825 X2.221 Y149.959 Z-0.14
N2830 X2.247 Y149.95 Z-0.149
N2835 X2.274 Y149.956 Z-0.158
N2840 X2.294 Y149.976 Z-0.167
N2845 X2.3 Y150.003 Z-0.176
N2850 X2.29 Y150.029 Z-0.185
N2855 X2.268 Y150.047 Z-0.194
N2860 X2.241 Y150.049 Z-0.203
N2865 X2.216 Y150.037 Z-0.212
N2870 X2.202 Y150.013 Z-0.221
N2875 Y149.985 Z-0.23
N2880 X2.218 Y149.962 Z-0.239
N2885 X2.243 Y149.95 Z-0.248
N2890 X2.271 Y149.955 Z-0.257
N2895 X2.292 Y149.973 Z-0.266
N2900 X2.3 Y150 Z-0.275
N2905 X2.292 Y150.026 Z-0.284
N2910 X2.272 Y150.045 Z-0.293
N2915 X2.244 Y150.05 Z-0.302
N2920 X2.219 Y150.039 Z-0.311
N2925 X2.203 Y150.016 Z-0.32
N2930 X2.201 Y149.988 Z-0.329
N2935 X2.215 Y149.964 Z-0.338
N2940 X2.24 Y149.951 Z-0.347
N2945 X2.267 Y149.953 Z-0.356
N2950 X2.29 Y149.97 Z-0.365
N2955 X2.3 Y149.996 Z-0.374
N2960 X2.294 Y150.023 Z-0.383
N2965 X2.275 Y150.043 Z-0.392
N2970 X2.248 Y150.05 Z-0.401
N2975 X2.222 Y150.041 Z-0.41
N2980 X2.204 Y150.02 Z-0.419
N2985 X2.201 Y149.992 Z-0.428
N2990 X2.213 Y149.967 Z-0.437
N2995 X2.236 Y149.952 Z-0.446
N3000 X2.264 Z-0.454
N3005 X2.287 Y149.967 Z-0.463
N3010 X2.299 Y149.992 Z-0.472
N3015 X2.296 Y150.02 Z-0.481
N3020 X2.278 Y150.041 Z-0.49
N3025 X2.252 Y150.05 Z-0.499
N3030 X2.225 Y150.043 Z-0.508
N3035 X2.206 Y150.023 Z-0.517
N3040 X2.2 Y149.996 Z-0.526
N3045 X2.21 Y149.97 Z-0.535
N3050 X2.233 Y149.953 Z-0.544
N3055 X2.26 Y149.951 Z-0.553
N3060 X2.285 Y149.964 Z-0.562
N3065 X2.299 Y149.988 Z-0.571
N3070 X2.297 Y150.016 Z-0.58
N3075 X2.281 Y150.039 Z-0.589
N3080 X2.256 Y150.05 Z-0.598
N3085 X2.228 Y150.045 Z-0.607
N3090 X2.208 Y150.026 Z-0.616
N3095 X2.2 Y150 Z-0.625
N3100 X2.208 Y149.973 Z-0.634
N3105 X2.229 Y149.955 Z-0.643
N3110 X2.257 Y149.95 Z-0.652
N3115 X2.282 Y149.962 Z-0.661
N3120 X2.298 Y149.985 Z-0.67
N3125 Y150.013 Z-0.679
N3130 X2.284 Y150.037 Z-0.688
N3135 X2.259 Y150.049 Z-0.697
N3140 X2.232 Y150.047 Z-0.706
N3145 X2.21 Y150.029 Z-0.715
N3150 X2.2 Y150.003 Z-0.724
N3155 X2.206 Y149.976 Z-0.733
N3160 X2.226 Y149.956 Z-0.742
N3165 X2.253 Y149.95 Z-0.751
N3170 X2.279 Y149.959 Z-0.76
N3175 X2.296 Y149.981 Z-0.769
N3180 X2.299 Y150.009 Z-0.778
N3185 X2.287 Y150.034 Z-0.787
N3190 X2.263 Y150.048 Z-0.796
N3195 X2.235 Z-0.805
N3200 X2.212 Y150.032 Z-0.814
N3205 X2.2 Y150.007 Z-0.823
N3210 X2.204 Y149.979 Z-0.832
N3215 X2.222 Y149.958 Z-0.841
N3220 X2.249 Y149.95 Z-0.85
N3225 X2.276 Y149.957 Z-0.859
N3230 X2.295 Y149.978 Z-0.868
N3235 X2.3 Y150.005 Z-0.877
N3240 X2.289 Y150.031 Z-0.886
N3245 X2.267 Y150.047 Z-0.895
N3250 X2.239 Y150.049 Z-0.904
N3255 X2.214 Y150.035 Z-0.913
N3260 X2.201 Y150.011 Z-0.922
N3265 X2.203 Y149.983 Z-0.931
N3270 X2.219 Y149.96 Z-0.94
N3275 X2.245 Y149.95 Z-0.949
N3280 X2.273 Y149.955 Z-0.957
N3285 X2.293 Y149.974 Z-0.966
N3290 X2.3 Y150.001 Z-0.975
N3295 X2.291 Y150.028 Z-0.984
N3300 X2.27 Y150.046 Z-0.993
N3305 X2.243 Y150.049 Z-1.002
N3310 X2.217 Y150.038 Z-1.011
N3315 X2.202 Y150.014 Z-1.02
N3320 Y149.987 Z-1.029
N3325 X2.217 Y149.963 Z-1.038
N3330 X2.242 Y149.951 Z-1.047
N3335 X2.269 Y149.954 Z-1.056
N3340 X2.291 Y149.971 Z-1.065
N3345 X2.3 Y149.998 Z-1.074
N3350 X2.293 Y150.025 Z-1.083
N3355 X2.273 Y150.044 Z-1.092
N3360 X2.246 Y150.05 Z-1.101
N3365 X2.22 Y150.04 Z-1.11
N3370 X2.203 Y150.018 Z-1.119
N3375 X2.201 Y149.99 Z-1.128
N3380 X2.214 Y149.965 Z-1.137
N3385 X2.238 Y149.951 Z-1.146
N3390 X2.266 Y149.953 Z-1.155
N3395 X2.289 Y149.968 Z-1.164
N3400 X2.3 Y149.994 Z-1.173
N3405 X2.295 Y150.021 Z-1.182
N3410 X2.277 Y150.042 Z-1.191
N3415 X2.25 Y150.05 Z-1.2
N3420 G3 Y149.95 J-0.05
N3425 Y150.05 J0.05
N3430 G1 X2.232 Y150.043
N3435 X2.225 Y150.025
N3440 X2.25 Y150
N3445 G0 Z2.3
N3450 Y196.667
N3455 Z2
N3460 G1 Z0.3 F50
N3465 X2.275 Y196.692
N3470 X2.268 Y196.709
N3475 X2.25 Y196.717
N3480 X2.223 Y196.709 Z0.291 F800
N3485 X2.205 Y196.688 Z0.282
N3490 X2.2 Y196.661 Z0.273
N3495 X2.211 Y196.635 Z0.264
N3500 X2.234 Y196.619 Z0.255
N3505 X2.262 Y196.618 Z0.246
N3510 X2.286 Y196.632 Z0.237
N3515 X2.299 Y196.657 Z0.228
N3520 X2.297 Y196.685 Z0.219
N3525 X2.28 Y196.707 Z0.21
N3530 X2.254 Y196.717 Z0.201
N3535 X2.227 Y196.711 Z0.192
N3540 X2.207 Y196.691 Z0.183
N3545 X2.2 Y196.664 Z0.174
N3550 X2.209 Y196.638 Z0.165
N3555 X2.231 Y196.621 Z0.156
N3560 X2.258 Y196.617 Z0.147
N3565 X2.283 Y196.63 Z0.138
N3570 X2.298 Y196.653 Z0.129
N3575 Y196.681 Z0.12
N3580 X2.283 Y196.704 Z0.111
N3585 X2.257 Y196.716 Z0.102
N3590 X2.23 Y196.712 Z0.093
N3595 X2.209 Y196.695 Z0.084
N3600 X2.2 Y196.668 Z0.075
N3605 X2.207 Y196.641 Z0.066
N3610 X2.227 Y196.622 Z0.057
N3615 X2.255 Y196.617 Z0.049
N3620 X2.281 Y196.627 Z0.04
N3625 X2.297 Y196.65 Z0.031
N3630 X2.299 Y196.677 Z0.022
N3635 X2.286 Y196.702 Z0.013
N3640 X2.261 Y196.715 Z0.004
N3645 X2.233 Y196.714 Z-0.005
N3650 X2.211 Y196.698 Z-0.014
N3655 X2.2 Y196.672 Z-0.023
N3660 X2.205 Y196.644 Z-0.032
N3665 X2.224 Y196.624 Z-0.041
N3670 X2.251 Y196.617 Z-0.05
N3675 X2.278 Y196.625 Z-0.059
N3680 X2.296 Y196.646 Z-0.068
N3685 X2.299 Y196.674 Z-0.077
N3690 X2.288 Y196.699 Z-0.086
N3695 X2.265 Y196.714 Z-0.095
N3700 X2.237 Y196.715 Z-0.104
N3705 X2.213 Y196.7 Z-0.113
N3710 X2.201 Y196.676 Z-0.122
N3715 X2.204 Y196.648 Z-0.131
N3720 X2.221 Y196.626 Z-0.14
N3725 X2.247 Y196.617 Z-0.149
N3730 X2.274 Y196.623 Z-0.158
N3735 X2.294 Y196.643 Z-0.167
N3740 X2.3 Y196.67 Z-0.176
N3745 X2.29 Y196.696 Z-0.185
N3750 X2.268 Y196.713 Z-0.194
N3755 X2.241 Y196.716 Z-0.203
N3760 X2.216 Y196.703 Z-0.212
N3765 X2.202 Y196.679 Z-0.221
N3770 Y196.651 Z-0.23
N3775 X2.218 Y196.628 Z-0.239
N3780 X2.243 Y196.617 Z-0.248
N3785 X2.271 Y196.621 Z-0.257
N3790 X2.292 Y196.64 Z-0.266
N3795 X2.3 Y196.666 Z-0.275
N3800 X2.292 Y196.693 Z-0.284
N3805 X2.272 Y196.712 Z-0.293
N3810 X2.244 Y196.716 Z-0.302
N3815 X2.219 Y196.706 Z-0.311
N3820 X2.203 Y196.683 Z-0.32
N3825 X2.201 Y196.655 Z-0.329
N3830 X2.215 Y196.631 Z-0.338
N3835 X2.24 Y196.618 Z-0.347
N3840 X2.267 Y196.62 Z-0.356
N3845 X2.29 Y196.636 Z-0.365
N3850 X2.3 Y196.662 Z-0.374
N3855 X2.294 Y196.69 Z-0.383
N3860 X2.275 Y196.71 Z-0.392
N3865 X2.248 Y196.717 Z-0.401
N3870 X2.222 Y196.708 Z-0.41
N3875 X2.204 Y196.686 Z-0.419
N3880 X2.201 Y196.659 Z-0.428
N3885 X2.213 Y196.634 Z-0.437
N3890 X2.236 Y196.619 Z-0.446
N3895 X2.264 Z-0.454
N3900 X2.287 Y196.634 Z-0.463
N3905 X2.299 Y196.659 Z-0.472
N3910 X2.296 Y196.686 Z-0.481
N3915 X2.278 Y196.708 Z-0.49
N3920 X2.252 Y196.717 Z-0.499
N3925 X2.225 Y196.71 Z-0.508
N3930 X2.206 Y196.69 Z-0.517
N3935 X2.2 Y196.662 Z-0.526
N3940 X2.21 Y196.636 Z-0.535
N3945 X2.233 Y196.62 Z-0.544
N3950 X2.26 Y196.618 Z-0.553
N3955 X2.285 Y196.631 Z-0.562
N3960 X2.299 Y196.655 Z-0.571
N3965 X2.297 Y196.683 Z-0.58
N3970 X2.281 Y196.706 Z-0.589
N3975 X2.256 Y196.716 Z-0.598
N3980 X2.228 Y196.712 Z-0.607
N3985 X2.208 Y196.693 Z-0.616
N3990 X2.2 Y196.666 Z-0.625
N3995 X2.208 Y196.64 Z-0.634
N4000 X2.229 Y196.621 Z-0.643
N4005 X2.257 Y196.617 Z-0.652
N4010 X2.282 Y196.628 Z-0.661
N4015 X2.298 Y196.651 Z-0.67
N4020 Y196.679 Z-0.679
N4025 X2.284 Y196.703 Z-0.688
N4030 X2.259 Y196.716 Z-0.697
N4035 X2.232 Y196.713 Z-0.706
N4040 X2.21 Y196.696 Z-0.715
N4045 X2.2 Y196.67 Z-0.724
N4050 X2.206 Y196.643 Z-0.733
N4055 X2.226 Y196.623 Z-0.742
N4060 X2.253 Y196.617 Z-0.751
N4065 X2.279 Y196.626 Z-0.76
N4070 X2.296 Y196.648 Z-0.769
N4075 X2.299 Y196.676 Z-0.778
N4080 X2.287 Y196.7 Z-0.787
N4085 X2.263 Y196.715 Z-0.796
N4090 X2.235 Y196.714 Z-0.805
N4095 X2.212 Y196.699 Z-0.814
N4100 X2.201 Y196.674 Z-0.823
N4105 X2.204 Y196.646 Z-0.832
N4110 X2.222 Y196.625 Z-0.841
N4115 X2.249 Y196.617 Z-0.85
N4120 X2.276 Y196.624 Z-0.859
N4125 X2.295 Y196.644 Z-0.868
N4130 X2.3 Y196.672 Z-0.877
N4135 X2.289 Y196.698 Z-0.886
N4140 X2.267 Y196.714 Z-0.895
N4145 X2.239 Y196.715 Z-0.904
N4150 X2.214 Y196.702 Z-0.913
N4155 X2.201 Y196.677 Z-0.922
N4160 X2.203 Y196.65 Z-0.931
N4165 X2.219 Y196.627 Z-0.94
N4170 X2.245 Y196.617 Z-0.949
N4175 X2.273 Y196.622 Z-0.957
N4180 X2.293 Y196.641 Z-0.966
N4185 X2.3 Y196.668 Z-0.975
N4190 X2.291 Y196.695 Z-0.984
N4195 X2.27 Y196.712 Z-0.993
N4200 X2.243 Y196.716 Z-1.002
N4205 X2.217 Y196.704 Z-1.011
N4210 X2.202 Y196.681 Z-1.02
N4215 Y196.653 Z-1.029
N4220 X2.217 Y196.63 Z-1.038
N4225 X2.242 Y196.617 Z-1.047
N4230 X2.269 Y196.621 Z-1.056
N4235 X2.291 Y196.638 Z-1.065
N4240 X2.3 Y196.664 Z-1.074
N4245 X2.293 Y196.691 Z-1.083
N4250 X2.273 Y196.711 Z-1.092
N4255 X2.246 Y196.717 Z-1.101
N4260 X2.22 Y196.707 Z-1.11
N4265 X2.203 Y196.685 Z-1.119
N4270 X2.201 Y196.657 Z-1.128
N4275 X2.214 Y196.632 Z-1.137
N4280 X2.238 Y196.618 Z-1.146
N4285 X2.266 Y196.619 Z-1.155
N4290 X2.289 Y196.635 Z-1.164
N4295 X2.3 Y196.661 Z-1.173
N4300 X2.295 Y196.688 Z-1.182
N4305 X2.277 Y196.709 Z-1.191
N4310 X2.25 Y196.717 Z-1.2
N4315 G3 Y196.617 J-0.05
N4320 Y196.717 J0.05
N4325 G1 X2.232 Y196.709
N4330 X2.225 Y196.692
N4335 X2.25 Y196.667
N4340 G0 Z2.3
N4345 Y243.333
N4350 Z2
N4355 G1 Z0.3 F50
N4360 X2.275 Y243.358
N4365 X2.268 Y243.376
N4370 X2.25 Y243.383
N4375 X2.223 Y243.376 Z0.291 F800
N4380 X2.205 Y243.355 Z0.282
N4385 X2.2 Y243.327 Z0.273
N4390 X2.211 Y243.302 Z0.264
N4395 X2.234 Y243.286 Z0.255
N4400 X2.262 Y243.285 Z0.246
N4405 X2.286 Y243.299 Z0.237
N4410 X2.299 Y243.324 Z0.228
N4415 X2.297 Y243.351 Z0.219
N4420 X2.28 Y243.373 Z0.21
N4425 X2.254 Y243.383 Z0.201
N4430 X2.227 Y243.377 Z0.192
N4435 X2.207 Y243.358 Z0.183
N4440 X2.2 Y243.331 Z0.174
N4445 X2.209 Y243.305 Z0.165
N4450 X2.231 Y243.287 Z0.156
N4455 X2.258 Y243.284 Z0.147
N4460 X2.283 Y243.296 Z0.138
N4465 X2.298 Y243.32 Z0.129
N4470 Y243.348 Z0.12
N4475 X2.283 Y243.371 Z0.111
N4480 X2.257 Y243.383 Z0.102
N4485 X2.23 Y243.379 Z0.093
N4490 X2.209 Y243.361 Z0.084
N4495 X2.2 Y243.335 Z0.075
N4500 X2.207 Y243.308 Z0.066
N4505 X2.227 Y243.289 Z0.057
N4510 X2.255 Y243.284 Z0.049
N4515 X2.281 Y243.294 Z0.04
N4520 X2.297 Y243.316 Z0.031
N4525 X2.299 Y243.344 Z0.022
N4530 X2.286 Y243.369 Z0.013
N4535 X2.261 Y243.382 Z0.004
N4540 X2.233 Y243.38 Z-0.005
N4545 X2.211 Y243.364 Z-0.014
N4550 X2.2 Y243.338 Z-0.023
N4555 X2.205 Y243.311 Z-0.032
N4560 X2.224 Y243.291 Z-0.041
N4565 X2.251 Y243.283 Z-0.05
N4570 X2.278 Y243.292 Z-0.059
N4575 X2.296 Y243.313 Z-0.068
N4580 X2.3 Y243.34 Z-0.077
N4585 X2.288 Y243.366 Z-0.086
N4590 X2.265 Y243.381 Z-0.095
N4595 X2.237 Y243.382 Z-0.104
N4600 X2.213 Y243.367 Z-0.113
N4605 X2.201 Y243.342 Z-0.122
N4610 X2.204 Y243.315 Z-0.131
N4615 X2.221 Y243.293 Z-0.14
N4620 X2.247 Y243.283 Z-0.149
N4625 X2.274 Y243.29 Z-0.158
N4630 X2.294 Y243.309 Z-0.167
N4635 X2.3 Y243.337 Z-0.176
N4640 X2.29 Y243.363 Z-0.185
N4645 X2.268 Y243.38 Z-0.194
N4650 X2.241 Y243.382 Z-0.203
N4655 X2.216 Y243.37 Z-0.212
N4660 X2.202 Y243.346 Z-0.221
N4665 Y243.318 Z-0.23
N4670 X2.218 Y243.295 Z-0.239
N4675 X2.243 Y243.284 Z-0.248
N4680 X2.271 Y243.288 Z-0.257
N4685 X2.292 Y243.306 Z-0.266
N4690 X2.3 Y243.333 Z-0.275
N4695 X2.292 Y243.36 Z-0.284
N4700 X2.272 Y243.378 Z-0.293
N4705 X2.244 Y243.383 Z-0.302
N4710 X2.219 Y243.372 Z-0.311
N4715 X2.203 Y243.349 Z-0.32
N4720 X2.201 Y243.322 Z-0.329
N4725 X2.215 Y243.297 Z-0.338
N4730 X2.24 Y243.284 Z-0.347
N4735 X2.267 Y243.286 Z-0.356
N4740 X2.29 Y243.303 Z-0.365
N4745 X2.3 Y243.329 Z-0.374
N4750 X2.294 Y243.356 Z-0.383
N4755 X2.275 Y243.377 Z-0.392
N4760 X2.248 Y243.383 Z-0.401
N4765 X2.222 Y243.375 Z-0.41
N4770 X2.204 Y243.353 Z-0.419
N4775 X2.201 Y243.325 Z-0.428
N4780 X2.213 Y243.3 Z-0.437
N4785 X2.236 Y243.285 Z-0.446
N4790 X2.264 Z-0.454
N4795 X2.287 Y243.3 Z-0.463
N4800 X2.299 Y243.325 Z-0.472
N4805 X2.296 Y243.353 Z-0.481
N4810 X2.278 Y243.375 Z-0.49
N4815 X2.252 Y243.383 Z-0.499
N4820 X2.225 Y243.377 Z-0.508
N4825 X2.206 Y243.356 Z-0.517
N4830 X2.2 Y243.329 Z-0.526
N4835 X2.21 Y243.303 Z-0.535
N4840 X2.233 Y243.286 Z-0.544
N4845 X2.26 Y243.284 Z-0.553
N4850 X2.285 Y243.297 Z-0.562
N4855 X2.299 Y243.322 Z-0.571
N4860 X2.297 Y243.349 Z-0.58
N4865 X2.281 Y243.372 Z-0.589
N4870 X2.256 Y243.383 Z-0.598
N4875 X2.228 Y243.378 Z-0.607
N4880 X2.208 Y243.36 Z-0.616
N4885 X2.2 Y243.333 Z-0.625
N4890 X2.208 Y243.306 Z-0.634
N4895 X2.229 Y243.288 Z-0.643
N4900 X2.257 Y243.284 Z-0.652
N4905 X2.282 Y243.295 Z-0.661
N4910 X2.298 Y243.318 Z-0.67
N4915 Y243.346 Z-0.679
N4920 X2.284 Y243.37 Z-0.688
N4925 X2.259 Y243.382 Z-0.697
N4930 X2.232 Y243.38 Z-0.706
N4935 X2.21 Y243.363 Z-0.715
N4940 X2.2 Y243.337 Z-0.724
N4945 X2.206 Y243.309 Z-0.733
N4950 X2.226 Y243.29 Z-0.742
N4955 X2.253 Y243.283 Z-0.751
N4960 X2.279 Y243.293 Z-0.76
N4965 X2.296 Y243.315 Z-0.769
N4970 X2.299 Y243.342 Z-0.778
N4975 X2.287 Y243.367 Z-0.787
N4980 X2.263 Y243.382 Z-0.796
N4985 X2.235 Y243.381 Z-0.805
N4990 X2.212 Y243.366 Z-0.814
N4995 X2.2 Y243.34 Z-0.823
N5000 X2.204 Y243.313 Z-0.832
N5005 X2.222 Y243.292 Z-0.841
N5010 X2.249 Y243.283 Z-0.85
N5015 X2.276 Y243.291 Z-0.859
N5020 X2.295 Y243.311 Z-0.868
N5025 X2.3 Y243.338 Z-0.877
N5030 X2.289 Y243.364 Z-0.886
N5035 X2.267 Y243.38 Z-0.895
N5040 X2.239 Y243.382 Z-0.904
N5045 X2.214 Y243.369 Z-0.913
N5050 X2.201 Y243.344 Z-0.922
N5055 X2.203 Y243.316 Z-0.931
N5060 X2.219 Y243.294 Z-0.94
N5065 X2.245 Y243.284 Z-0.949
N5070 X2.273 Y243.289 Z-0.957
N5075 X2.293 Y243.308 Z-0.966
N5080 X2.3 Y243.335 Z-0.975
N5085 X2.291 Y243.361 Z-0.984
N5090 X2.27 Y243.379 Z-0.993
N5095 X2.243 Y243.383 Z-1.002
N5100 X2.217 Y243.371 Z-1.011
N5105 X2.202 Y243.348 Z-1.02
N5110 Y243.32 Z-1.029
N5115 X2.217 Y243.296 Z-1.038
N5120 X2.242 Y243.284 Z-1.047
N5125 X2.269 Y243.287 Z-1.056
N5130 X2.291 Y243.305 Z-1.065
N5135 X2.3 Y243.331 Z-1.074
N5140 X2.293 Y243.358 Z-1.083
N5145 X2.273 Y243.377 Z-1.092
N5150 X2.246 Y243.383 Z-1.101
N5155 X2.22 Y243.373 Z-1.11
N5160 X2.203 Y243.351 Z-1.119
N5165 X2.201 Y243.324 Z-1.128
N5170 X2.214 Y243.299 Z-1.137
N5175 X2.238 Y243.285 Z-1.146
N5180 X2.266 Y243.286 Z-1.155
N5185 X2.289 Y243.302 Z-1.164
N5190 X2.3 Y243.327 Z-1.173
N5195 X2.295 Y243.355 Z-1.182
N5200 X2.277 Y243.376 Z-1.191
N5205 X2.25 Y243.383 Z-1.2
N5210 G3 Y243.283 J-0.05
N5215 Y243.383 J0.05
N5220 G1 X2.232 Y243.376
N5225 X2.225 Y243.358
N5230 X2.25 Y243.333
N5235 G0 Z2.3
N5240 Y290
N5245 Z2
N5250 G1 Z0.3 F50
N5255 X2.275 Y290.025
N5260 X2.268 Y290.043
N5265 X2.25 Y290.05
N5270 X2.223 Y290.042 Z0.291 F800
N5275 X2.205 Y290.021 Z0.282
N5280 X2.2 Y289.994 Z0.273
N5285 X2.211 Y289.968 Z0.264
N5290 X2.234 Y289.953 Z0.255
N5295 X2.262 Y289.951 Z0.246
N5300 X2.286 Y289.965 Z0.237
N5305 X2.299 Y289.99 Z0.228
N5310 X2.297 Y290.018 Z0.219
N5315 X2.28 Y290.04 Z0.21
N5320 X2.254 Y290.05 Z0.201
N5325 X2.227 Y290.044 Z0.192
N5330 X2.207 Y290.025 Z0.183
N5335 X2.2 Y289.998 Z0.174
N5340 X2.209 Y289.971 Z0.165
N5345 X2.231 Y289.954 Z0.156
N5350 X2.258 Y289.951 Z0.147
N5355 X2.283 Y289.963 Z0.138
N5360 X2.298 Y289.987 Z0.129
N5365 Y290.014 Z0.12
N5370 X2.283 Y290.038 Z0.111
N5375 X2.257 Y290.049 Z0.102
N5380 X2.23 Y290.046 Z0.093
N5385 X2.209 Y290.028 Z0.084
N5390 X2.2 Y290.001 Z0.075
N5395 X2.207 Y289.974 Z0.066
N5400 X2.227 Y289.955 Z0.057
N5405 X2.255 Y289.95 Z0.049
N5410 X2.281 Y289.96 Z0.04
N5415 X2.297 Y289.983 Z0.031
N5420 X2.299 Y290.011 Z0.022
N5425 X2.286 Y290.035 Z0.013
N5430 X2.261 Y290.049 Z0.004
N5435 X2.233 Y290.047 Z-0.005
N5440 X2.211 Y290.031 Z-0.014
N5445 X2.2 Y290.005 Z-0.023
N5450 X2.205 Y289.978 Z-0.032
N5455 X2.224 Y289.957 Z-0.041
N5460 X2.251 Y289.95 Z-0.05
N5465 X2.278 Y289.958 Z-0.059
N5470 X2.296 Y289.979 Z-0.068
N5475 X2.299 Y290.007 Z-0.077
N5480 X2.288 Y290.032 Z-0.086
N5485 X2.265 Y290.048 Z-0.095
N5490 X2.237 Z-0.104
N5495 X2.213 Y290.034 Z-0.113
N5500 X2.201 Y290.009 Z-0.122
N5505 X2.204 Y289.981 Z-0.131
N5510 X2.221 Y289.959 Z-0.14
N5515 X2.247 Y289.95 Z-0.149
N5520 X2.274 Y289.956 Z-0.158
N5525 X2.294 Y289.976 Z-0.167
N5530 X2.3 Y290.003 Z-0.176
N5535 X2.29 Y290.029 Z-0.185
N5540 X2.268 Y290.046 Z-0.194
N5545 X2.241 Y290.049 Z-0.203
N5550 X2.216 Y290.036 Z-0.212
N5555 X2.202 Y290.013 Z-0.221
N5560 Y289.985 Z-0.23
N5565 X2.218 Y289.962 Z-0.239
N5570 X2.243 Y289.95 Z-0.248
N5575 X2.271 Y289.955 Z-0.257
N5580 X2.292 Y289.973 Z-0.266
N5585 X2.3 Y290 Z-0.275
N5590 X2.292 Y290.026 Z-0.284
N5595 X2.272 Y290.045 Z-0.293
N5600 X2.244 Y290.05 Z-0.302
N5605 X2.219 Y290.039 Z-0.311
N5610 X2.203 Y290.016 Z-0.32
N5615 X2.201 Y289.988 Z-0.329
N5620 X2.215 Y289.964 Z-0.338
N5625 X2.24 Y289.951 Z-0.347
N5630 X2.267 Y289.953 Z-0.356
N5635 X2.29 Y289.97 Z-0.365
N5640 X2.3 Y289.996 Z-0.374
N5645 X2.294 Y290.023 Z-0.383
N5650 X2.275 Y290.043 Z-0.392
N5655 X2.248 Y290.05 Z-0.401
N5660 X2.222 Y290.041 Z-0.41
N5665 X2.204 Y290.02 Z-0.419
N5670 X2.201 Y289.992 Z-0.428
N5675 X2.213 Y289.967 Z-0.437
N5680 X2.236 Y289.952 Z-0.446
N5685 X2.264 Z-0.454
N5690 X2.287 Y289.967 Z-0.463
N5695 X2.299 Y289.992 Z-0.472
N5700 X2.296 Y290.02 Z-0.481
N5705 X2.278 Y290.041 Z-0.49
N5710 X2.252 Y290.05 Z-0.499
N5715 X2.225 Y290.043 Z-0.508
N5720 X2.206 Y290.023 Z-0.517
N5725 X2.2 Y289.996 Z-0.526
N5730 X2.21 Y289.97 Z-0.535
N5735 X2.233 Y289.953 Z-0.544
N5740 X2.26 Y289.951 Z-0.553
N5745 X2.285 Y289.964 Z-0.562
N5750 X2.299 Y289.988 Z-0.571
N5755 X2.297 Y290.016 Z-0.58
N5760 X2.281 Y290.039 Z-0.589
N5765 X2.256 Y290.05 Z-0.598
N5770 X2.228 Y290.045 Z-0.607
N5775 X2.208 Y290.026 Z-0.616
N5780 X2.2 Y290 Z-0.625
N5785 X2.208 Y289.973 Z-0.634
N5790 X2.229 Y289.955 Z-0.643
N5795 X2.257 Y289.95 Z-0.652
N5800 X2.282 Y289.962 Z-0.661
N5805 X2.298 Y289.985 Z-0.67
N5810 Y290.013 Z-0.679
N5815 X2.284 Y290.036 Z-0.688
N5820 X2.259 Y290.049 Z-0.697
N5825 X2.232 Y290.046 Z-0.706
N5830 X2.21 Y290.029 Z-0.715
N5835 X2.2 Y290.003 Z-0.724
N5840 X2.206 Y289.976 Z-0.733
N5845 X2.226 Y289.956 Z-0.742
N5850 X2.253 Y289.95 Z-0.751
N5855 X2.279 Y289.959 Z-0.76
N5860 X2.296 Y289.981 Z-0.769
N5865 X2.299 Y290.009 Z-0.778
N5870 X2.287 Y290.034 Z-0.787
N5875 X2.263 Y290.048 Z-0.796
N5880 X2.235 Z-0.805
N5885 X2.212 Y290.032 Z-0.814
N5890 X2.201 Y290.007 Z-0.823
N5895 X2.204 Y289.979 Z-0.832
N5900 X2.222 Y289.958 Z-0.841
N5905 X2.249 Y289.95 Z-0.85
N5910 X2.276 Y289.957 Z-0.859
N5915 X2.295 Y289.978 Z-0.868
N5920 X2.3 Y290.005 Z-0.877
N5925 X2.289 Y290.031 Z-0.886
N5930 X2.267 Y290.047 Z-0.895
N5935 X2.239 Y290.049 Z-0.904
N5940 X2.214 Y290.035 Z-0.913
N5945 X2.201 Y290.011 Z-0.922
N5950 X2.203 Y289.983 Z-0.931
N5955 X2.219 Y289.96 Z-0.94
N5960 X2.245 Y289.95 Z-0.949
N5965 X2.273 Y289.955 Z-0.957
N5970 X2.293 Y289.974 Z-0.966
N5975 X2.3 Y290.001 Z-0.975
N5980 X2.291 Y290.028 Z-0.984
N5985 X2.27 Y290.046 Z-0.993
N5990 X2.243 Y290.049 Z-1.002
N5995 X2.217 Y290.038 Z-1.011
N6000 X2.202 Y290.014 Z-1.02
N6005 Y289.987 Z-1.029
N6010 X2.217 Y289.963 Z-1.038
N6015 X2.242 Y289.951 Z-1.047
N6020 X2.269 Y289.954 Z-1.056
N6025 X2.291 Y289.971 Z-1.065
N6030 X2.3 Y289.998 Z-1.074
N6035 X2.293 Y290.025 Z-1.083
N6040 X2.273 Y290.044 Z-1.092
N6045 X2.246 Y290.05 Z-1.101
N6050 X2.22 Y290.04 Z-1.11
N6055 X2.203 Y290.018 Z-1.119
N6060 X2.201 Y289.99 Z-1.128
N6065 X2.214 Y289.965 Z-1.137
N6070 X2.238 Y289.951 Z-1.146
N6075 X2.266 Y289.953 Z-1.155
N6080 X2.289 Y289.968 Z-1.164
N6085 X2.3 Y289.994 Z-1.173
N6090 X2.295 Y290.021 Z-1.182
N6095 X2.277 Y290.042 Z-1.191
N6100 X2.25 Y290.05 Z-1.2
N6105 G3 Y289.95 J-0.05
N6110 Y290.05 J0.05
N6115 G1 X2.232 Y290.043
N6120 X2.225 Y290.025
N6125 X2.25 Y290
N6130 G0 Z2.3
N6135 X10.25 Y292.5
N6140 Z2
N6145 G1 Z0.3 F50
N6150 X10.2 Y292.45
N6155 X10.207 Y292.425
N6160 X10.225 Y292.407
N6165 X10.25 Y292.4
N6170 X10.289 Y292.408 Z0.294 F800
N6175 X10.322 Y292.43 Z0.287
N6180 X10.343 Y292.464 Z0.281
N6185 X10.35 Y292.503 Z0.275
N6190 X10.341 Y292.541 Z0.268
N6195 X10.318 Y292.573 Z0.262
N6200 X10.284 Y292.594 Z0.256
N6205 X10.245 Y292.6 Z0.249
N6210 X10.206 Y292.59 Z0.243
N6215 X10.175 Y292.566 Z0.236
N6220 X10.155 Y292.531 Z0.23
N6225 X10.15 Y292.492 Z0.224
N6230 X10.161 Y292.454 Z0.217
N6235 X10.186 Y292.423 Z0.211
N6240 X10.221 Y292.404 Z0.205
N6245 X10.261 Y292.401 Z0.198
N6250 X10.298 Y292.413 Z0.192
N6255 X10.329 Y292.438 Z0.186
N6260 X10.346 Y292.474 Z0.179
N6265 X10.349 Y292.513 Z0.173
N6270 X10.336 Y292.551 Z0.167
N6275 X10.31 Y292.58 Z0.16
N6280 X10.274 Y292.597 Z0.154
N6285 X10.234 Y292.599 Z0.147
N6290 X10.197 Y292.585 Z0.141
N6295 X10.168 Y292.557 Z0.135
N6300 X10.152 Y292.521 Z0.128
N6305 Y292.481 Z0.122
N6310 X10.167 Y292.445 Z0.116
N6315 X10.195 Y292.417 Z0.109
N6320 X10.231 Y292.402 Z0.103
N6325 X10.271 Z0.097
N6330 X10.307 Y292.418 Z0.09
N6335 X10.335 Y292.447 Z0.084
N6340 X10.349 Y292.484 Z0.078
N6345 X10.347 Y292.524 Z0.071
N6350 X10.33 Y292.56 Z0.065
N6355 X10.301 Y292.586 Z0.058
N6360 X10.263 Y292.599 Z0.052
N6365 X10.224 Y292.596 Z0.046
N6370 X10.188 Y292.579 Z0.039
N6375 X10.163 Y292.548 Z0.033
N6380 X10.151 Y292.511 Z0.027
N6385 X10.154 Y292.471 Z0.02
N6390 X10.173 Y292.436 Z0.014
N6395 X10.204 Y292.411 Z0.008
N6400 X10.242 Y292.4 Z0.001
N6405 X10.281 Y292.405 Z-0.005
N6410 X10.316 Y292.425 Z-0.011
N6415 X10.34 Y292.456 Z-0.018
N6420 X10.35 Y292.495 Z-0.024
N6425 X10.344 Y292.534 Z-0.031
N6430 X10.323 Y292.568 Z-0.037
N6435 X10.291 Y292.591 Z-0.043
N6440 X10.253 Y292.6 Z-0.05
N6445 X10.214 Y292.593 Z-0.056
N6450 X10.18 Y292.572 Z-0.062
N6455 X10.158 Y292.539 Z-0.069
N6460 X10.15 Y292.5 Z-0.075
N6465 X10.158 Y292.461 Z-0.081
N6470 X10.18 Y292.428 Z-0.088
N6475 X10.214 Y292.407 Z-0.094
N6480 X10.253 Y292.4 Z-0.1
N6485 X10.291 Y292.409 Z-0.107
N6490 X10.323 Y292.432 Z-0.113
N6495 X10.344 Y292.466 Z-0.119
N6500 X10.35 Y292.505 Z-0.126
N6505 X10.34 Y292.544 Z-0.132
N6510 X10.316 Y292.575 Z-0.139
N6515 X10.281 Y292.595 Z-0.145
N6520 X10.242 Y292.6 Z-0.151
N6525 X10.204 Y292.589 Z-0.158
N6530 X10.173 Y292.564 Z-0.164
N6535 X10.154 Y292.529 Z-0.17
N6540 X10.151 Y292.489 Z-0.177
N6545 X10.163 Y292.452 Z-0.183
N6550 X10.188 Y292.421 Z-0.189
N6555 X10.224 Y292.404 Z-0.196
N6560 X10.263 Y292.401 Z-0.202
N6565 X10.301 Y292.414 Z-0.208
N6570 X10.33 Y292.44 Z-0.215
N6575 X10.347 Y292.476 Z-0.221
N6580 X10.349 Y292.516 Z-0.228
N6585 X10.335 Y292.553 Z-0.234
N6590 X10.307 Y292.582 Z-0.24
N6595 X10.271 Y292.598 Z-0.247
N6600 X10.231 Z-0.253
N6605 X10.195 Y292.583 Z-0.259
N6610 X10.167 Y292.555 Z-0.266
N6615 X10.152 Y292.519 Z-0.272
N6620 Y292.479 Z-0.278
N6625 X10.168 Y292.443 Z-0.285
N6630 X10.197 Y292.415 Z-0.291
N6635 X10.234 Y292.401 Z-0.297
N6640 X10.274 Y292.403 Z-0.304
N6645 X10.31 Y292.42 Z-0.31
N6650 X10.336 Y292.449 Z-0.317
N6655 X10.349 Y292.487 Z-0.323
N6660 X10.346 Y292.526 Z-0.329
N6665 X10.329 Y292.562 Z-0.336
N6670 X10.298 Y292.587 Z-0.342
N6675 X10.261 Y292.599 Z-0.348
N6680 X10.221 Y292.596 Z-0.355
N6685 X10.186 Y292.577 Z-0.361
N6690 X10.161 Y292.546 Z-0.367
N6695 X10.15 Y292.508 Z-0.374
N6700 X10.155 Y292.469 Z-0.38
N6705 X10.175 Y292.434 Z-0.386
N6710 X10.206 Y292.41 Z-0.393
N6715 X10.245 Y292.4 Z-0.399
N6720 X10.284 Y292.406 Z-0.406
N6725 X10.318 Y292.427 Z-0.412
N6730 X10.341 Y292.459 Z-0.418
N6735 X10.35 Y292.497 Z-0.425
N6740 X10.343 Y292.536 Z-0.431
N6745 X10.322 Y292.57 Z-0.437
N6750 X10.289 Y292.592 Z-0.444
N6755 X10.25 Y292.6 Z-0.45
N6760 X10.211 Y292.592 Z-0.456
N6765 X10.178 Y292.57 Z-0.463
N6770 X10.157 Y292.536 Z-0.469
N6775 X10.15 Y292.497 Z-0.475
N6780 X10.159 Y292.459 Z-0.482
N6785 X10.182 Y292.427 Z-0.488
N6790 X10.216 Y292.406 Z-0.494
N6795 X10.255 Y292.4 Z-0.501
N6800 X10.294 Y292.41 Z-0.507
N6805 X10.325 Y292.434 Z-0.514
N6810 X10.345 Y292.469 Z-0.52
N6815 X10.35 Y292.508 Z-0.526
N6820 X10.339 Y292.546 Z-0.533
N6825 X10.314 Y292.577 Z-0.539
N6830 X10.279 Y292.596 Z-0.545
N6835 X10.239 Y292.599 Z-0.552
N6840 X10.202 Y292.587 Z-0.558
N6845 X10.171 Y292.562 Z-0.564
N6850 X10.154 Y292.526 Z-0.571
N6855 X10.151 Y292.487 Z-0.577
N6860 X10.164 Y292.449 Z-0.583
N6865 X10.19 Y292.42 Z-0.59
N6870 X10.226 Y292.403 Z-0.596
N6875 X10.266 Y292.401 Z-0.603
N6880 X10.303 Y292.415 Z-0.609
N6885 X10.332 Y292.443 Z-0.615
N6890 X10.348 Y292.479 Z-0.622
N6895 Y292.519 Z-0.628
N6900 X10.333 Y292.555 Z-0.634
N6905 X10.305 Y292.583 Z-0.641
N6910 X10.269 Y292.598 Z-0.647
N6915 X10.229 Z-0.653
N6920 X10.193 Y292.582 Z-0.66
N6925 X10.165 Y292.553 Z-0.666
N6930 X10.151 Y292.516 Z-0.672
N6935 X10.153 Y292.476 Z-0.679
N6940 X10.17 Y292.44 Z-0.685
N6945 X10.199 Y292.414 Z-0.692
N6950 X10.237 Y292.401 Z-0.698
N6955 X10.276 Y292.404 Z-0.704
N6960 X10.312 Y292.421 Z-0.711
N6965 X10.337 Y292.452 Z-0.717
N6970 X10.349 Y292.489 Z-0.723
N6975 X10.346 Y292.529 Z-0.73
N6980 X10.327 Y292.564 Z-0.736
N6985 X10.296 Y292.589 Z-0.742
N6990 X10.258 Y292.6 Z-0.749
N6995 X10.219 Y292.595 Z-0.755
N7000 X10.184 Y292.575 Z-0.761
N7005 X10.16 Y292.544 Z-0.768
N7010 X10.15 Y292.505 Z-0.774
N7015 X10.156 Y292.466 Z-0.781
N7020 X10.177 Y292.432 Z-0.787
N7025 X10.209 Y292.409 Z-0.793
N7030 X10.247 Y292.4 Z-0.8
N7035 X10.286 Y292.407 Z-0.806
N7040 X10.32 Y292.428 Z-0.812
N7045 X10.342 Y292.461 Z-0.819
N7050 X10.35 Y292.5 Z-0.825
N7055 X10.342 Y292.539 Z-0.831
N7060 X10.32 Y292.572 Z-0.838
N7065 X10.286 Y292.593 Z-0.844
N7070 X10.247 Y292.6 Z-0.85
N7075 X10.209 Y292.591 Z-0.857
N7080 X10.177 Y292.568 Z-0.863
N7085 X10.156 Y292.534 Z-0.869
N7090 X10.15 Y292.495 Z-0.876
N7095 X10.16 Y292.456 Z-0.882
N7100 X10.184 Y292.425 Z-0.889
N7105 X10.219 Y292.405 Z-0.895
N7110 X10.258 Y292.4 Z-0.901
N7115 X10.296 Y292.411 Z-0.908
N7120 X10.327 Y292.436 Z-0.914
N7125 X10.346 Y292.471 Z-0.92
N7130 X10.349 Y292.511 Z-0.927
N7135 X10.337 Y292.548 Z-0.933
N7140 X10.312 Y292.579 Z-0.939
N7145 X10.276 Y292.596 Z-0.946
N7150 X10.237 Y292.599 Z-0.952
N7155 X10.199 Y292.586 Z-0.958
N7160 X10.17 Y292.56 Z-0.965
N7165 X10.153 Y292.524 Z-0.971
N7170 X10.151 Y292.484 Z-0.978
N7175 X10.165 Y292.447 Z-0.984
N7180 X10.193 Y292.418 Z-0.99
N7185 X10.229 Y292.402 Z-0.997
N7190 X10.269 Z-1.003
N7195 X10.305 Y292.417 Z-1.009
N7200 X10.333 Y292.445 Z-1.016
N7205 X10.348 Y292.481 Z-1.022
N7210 Y292.521 Z-1.028
N7215 X10.332 Y292.557 Z-1.035
N7220 X10.303 Y292.585 Z-1.041
N7225 X10.266 Y292.599 Z-1.047
N7230 X10.226 Y292.597 Z-1.054
N7235 X10.19 Y292.58 Z-1.06
N7240 X10.164 Y292.551 Z-1.067
N7245 X10.151 Y292.513 Z-1.073
N7250 X10.154 Y292.474 Z-1.079
N7255 X10.171 Y292.438 Z-1.086
N7260 X10.202 Y292.413 Z-1.092
N7265 X10.239 Y292.401 Z-1.098
N7270 X10.279 Y292.404 Z-1.105
N7275 X10.314 Y292.423 Z-1.111
N7280 X10.339 Y292.454 Z-1.117
N7285 X10.35 Y292.492 Z-1.124
N7290 X10.345 Y292.531 Z-1.13
N7295 X10.325 Y292.566 Z-1.136
N7300 X10.294 Y292.59 Z-1.143
N7305 X10.255 Y292.6 Z-1.149
N7310 X10.216 Y292.594 Z-1.156
N7315 X10.182 Y292.573 Z-1.162
N7320 X10.159 Y292.541 Z-1.168
N7325 X10.15 Y292.503 Z-1.175
N7330 X10.157 Y292.464 Z-1.181
N7335 X10.178 Y292.43 Z-1.187
N7340 X10.211 Y292.408 Z-1.194
N7345 X10.25 Y292.4 Z-1.2
N7350 G3 Y292.6 J0.1
N7355 Y292.4 J-0.1
N7360 G1 X10.275 Y292.407
N7365 X10.293 Y292.425
N7370 X10.3 Y292.45
N7375 X10.25 Y292.5
N7380 G0 Z2.3
N7385 X16.25
N7390 Z2
N7395 G1 Z0.3 F50
N7400 X16.2 Y292.45
N7405 X16.207 Y292.425
N7410 X16.225 Y292.407
N7415 X16.25 Y292.4
N7420 X16.289 Y292.408 Z0.294 F800
N7425 X16.322 Y292.43 Z0.287
N7430 X16.343 Y292.464 Z0.281
N7435 X16.35 Y292.503 Z0.275
N7440 X16.341 Y292.541 Z0.268
N7445 X16.318 Y292.573 Z0.262
N7450 X16.284 Y292.594 Z0.256
N7455 X16.245 Y292.6 Z0.249
N7460 X16.206 Y292.59 Z0.243
N7465 X16.175 Y292.566 Z0.236
N7470 X16.155 Y292.531 Z0.23
N7475 X16.15 Y292.492 Z0.224
N7480 X16.161 Y292.454 Z0.217
N7485 X16.186 Y292.423 Z0.211
N7490 X16.221 Y292.404 Z0.205
N7495 X16.261 Y292.401 Z0.198
N7500 X16.298 Y292.413 Z0.192
N7505 X16.329 Y292.438 Z0.186
N7510 X16.346 Y292.474 Z0.179
N7515 X16.349 Y292.513 Z0.173
N7520 X16.336 Y292.551 Z0.167
N7525 X16.31 Y292.58 Z0.16
N7530 X16.274 Y292.597 Z0.154
N7535 X16.234 Y292.599 Z0.147
N7540 X16.197 Y292.585 Z0.141
N7545 X16.168 Y292.557 Z0.135
N7550 X16.152 Y292.521 Z0.128
N7555 Y292.481 Z0.122
N7560 X16.167 Y292.445 Z0.116
N7565 X16.195 Y292.417 Z0.109
N7570 X16.231 Y292.402 Z0.103
N7575 X16.271 Z0.097
N7580 X16.307 Y292.418 Z0.09
N7585 X16.335 Y292.447 Z0.084
N7590 X16.349 Y292.484 Z0.078
N7595 X16.347 Y292.524 Z0.071
N7600 X16.33 Y292.56 Z0.065
N7605 X16.301 Y292.586 Z0.058
N7610 X16.263 Y292.599 Z0.052
N7615 X16.224 Y292.596 Z0.046
N7620 X16.188 Y292.579 Z0.039
N7625 X16.163 Y292.548 Z0.033
N7630 X16.151 Y292.511 Z0.027
N7635 X16.154 Y292.471 Z0.02
N7640 X16.173 Y292.436 Z0.014
N7645 X16.204 Y292.411 Z0.008
N7650 X16.242 Y292.4 Z0.001
N7655 X16.281 Y292.405 Z-0.005
N7660 X16.316 Y292.425 Z-0.011
N7665 X16.34 Y292.456 Z-0.018
N7670 X16.35 Y292.495 Z-0.024
N7675 X16.344 Y292.534 Z-0.031
N7680 X16.323 Y292.568 Z-0.037
N7685 X16.291 Y292.591 Z-0.043
N7690 X16.253 Y292.6 Z-0.05
N7695 X16.214 Y292.593 Z-0.056
N7700 X16.18 Y292.572 Z-0.062
N7705 X16.158 Y292.539 Z-0.069
N7710 X16.15 Y292.5 Z-0.075
N7715 X16.158 Y292.461 Z-0.081
N7720 X16.18 Y292.428 Z-0.088
N7725 X16.214 Y292.407 Z-0.094
N7730 X16.253 Y292.4 Z-0.1
N7735 X16.291 Y292.409 Z-0.107
N7740 X16.323 Y292.432 Z-0.113
N7745 X16.344 Y292.466 Z-0.119
N7750 X16.35 Y292.505 Z-0.126
N7755 X16.34 Y292.544 Z-0.132
N7760 X16.316 Y292.575 Z-0.139
N7765 X16.281 Y292.595 Z-0.145
N7770 X16.242 Y292.6 Z-0.151
N7775 X16.204 Y292.589 Z-0.158
N7780 X16.173 Y292.564 Z-0.164
N7785 X16.154 Y292.529 Z-0.17
N7790 X16.151 Y292.489 Z-0.177
N7795 X16.163 Y292.452 Z-0.183
N7800 X16.188 Y292.421 Z-0.189
N7805 X16.224 Y292.404 Z-0.196
N7810 X16.263 Y292.401 Z-0.202
N7815 X16.301 Y292.414 Z-0.208
N7820 X16.33 Y292.44 Z-0.215
N7825 X16.347 Y292.476 Z-0.221
N7830 X16.349 Y292.516 Z-0.228
N7835 X16.335 Y292.553 Z-0.234
N7840 X16.307 Y292.582 Z-0.24
N7845 X16.271 Y292.598 Z-0.247
N7850 X16.231 Z-0.253
N7855 X16.195 Y292.583 Z-0.259
N7860 X16.167 Y292.555 Z-0.266
N7865 X16.152 Y292.519 Z-0.272
N7870 Y292.479 Z-0.278
N7875 X16.168 Y292.443 Z-0.285
N7880 X16.197 Y292.415 Z-0.291
N7885 X16.234 Y292.401 Z-0.297
N7890 X16.274 Y292.403 Z-0.304
N7895 X16.31 Y292.42 Z-0.31
N7900 X16.336 Y292.449 Z-0.317
N7905 X16.349 Y292.487 Z-0.323
N7910 X16.346 Y292.526 Z-0.329
N7915 X16.329 Y292.562 Z-0.336
N7920 X16.298 Y292.587 Z-0.342
N7925 X16.261 Y292.599 Z-0.348
N7930 X16.221 Y292.596 Z-0.355
N7935 X16.186 Y292.577 Z-0.361
N7940 X16.161 Y292.546 Z-0.367
N7945 X16.15 Y292.508 Z-0.374
N7950 X16.155 Y292.469 Z-0.38
N7955 X16.175 Y292.434 Z-0.386
N7960 X16.206 Y292.41 Z-0.393
N7965 X16.245 Y292.4 Z-0.399
N7970 X16.284 Y292.406 Z-0.406
N7975 X16.318 Y292.427 Z-0.412
N7980 X16.341 Y292.459 Z-0.418
N7985 X16.35 Y292.497 Z-0.425
N7990 X16.343 Y292.536 Z-0.431
N7995 X16.322 Y292.57 Z-0.437
N8000 X16.289 Y292.592 Z-0.444
N8005 X16.25 Y292.6 Z-0.45
N8010 X16.211 Y292.592 Z-0.456
N8015 X16.178 Y292.57 Z-0.463
N8020 X16.157 Y292.536 Z-0.469
N8025 X16.15 Y292.497 Z-0.475
N8030 X16.159 Y292.459 Z-0.482
N8035 X16.182 Y292.427 Z-0.488
N8040 X16.216 Y292.406 Z-0.494
N8045 X16.255 Y292.4 Z-0.501
N8050 X16.294 Y292.41 Z-0.507
N8055 X16.325 Y292.434 Z-0.514
N8060 X16.345 Y292.469 Z-0.52
N8065 X16.35 Y292.508 Z-0.526
N8070 X16.339 Y292.546 Z-0.533
N8075 X16.314 Y292.577 Z-0.539
N8080 X16.279 Y292.596 Z-0.545
N8085 X16.239 Y292.599 Z-0.552
N8090 X16.202 Y292.587 Z-0.558
N8095 X16.171 Y292.562 Z-0.564
N8100 X16.154 Y292.526 Z-0.571
N8105 X16.151 Y292.487 Z-0.577
N8110 X16.164 Y292.449 Z-0.583
N8115 X16.19 Y292.42 Z-0.59
N8120 X16.226 Y292.403 Z-0.596
N8125 X16.266 Y292.401 Z-0.603
N8130 X16.303 Y292.415 Z-0.609
N8135 X16.332 Y292.443 Z-0.615
N8140 X16.348 Y292.479 Z-0.622
N8145 Y292.519 Z-0.628
N8150 X16.333 Y292.555 Z-0.634
N8155 X16.305 Y292.583 Z-0.641
N8160 X16.269 Y292.598 Z-0.647
N8165 X16.229 Z-0.653
N8170 X16.193 Y292.582 Z-0.66
N8175 X16.165 Y292.553 Z-0.666
N8180 X16.151 Y292.516 Z-0.672
N8185 X16.153 Y292.476 Z-0.679
N8190 X16.17 Y292.44 Z-0.685
N8195 X16.199 Y292.414 Z-0.692
N8200 X16.237 Y292.401 Z-0.698
N8205 X16.276 Y292.404 Z-0.704
N8210 X16.312 Y292.421 Z-0.711
N8215 X16.337 Y292.452 Z-0.717
N8220 X16.349 Y292.489 Z-0.723
N8225 X16.346 Y292.529 Z-0.73
N8230 X16.327 Y292.564 Z-0.736
N8235 X16.296 Y292.589 Z-0.742
N8240 X16.258 Y292.6 Z-0.749
N8245 X16.219 Y292.595 Z-0.755
N8250 X16.184 Y292.575 Z-0.761
N8255 X16.16 Y292.544 Z-0.768
N8260 X16.15 Y292.505 Z-0.774
N8265 X16.156 Y292.466 Z-0.781
N8270 X16.177 Y292.432 Z-0.787
N8275 X16.209 Y292.409 Z-0.793
N8280 X16.247 Y292.4 Z-0.8
N8285 X16.286 Y292.407 Z-0.806
N8290 X16.32 Y292.428 Z-0.812
N8295 X16.342 Y292.461 Z-0.819
N8300 X16.35 Y292.5 Z-0.825
N8305 X16.342 Y292.539 Z-0.831
N8310 X16.32 Y292.572 Z-0.838
N8315 X16.286 Y292.593 Z-0.844
N8320 X16.247 Y292.6 Z-0.85
N8325 X16.209 Y292.591 Z-0.857
N8330 X16.177 Y292.568 Z-0.863
N8335 X16.156 Y292.534 Z-0.869
N8340 X16.15 Y292.495 Z-0.876
N8345 X16.16 Y292.456 Z-0.882
N8350 X16.184 Y292.425 Z-0.889
N8355 X16.219 Y292.405 Z-0.895
N8360 X16.258 Y292.4 Z-0.901
N8365 X16.296 Y292.411 Z-0.908
N8370 X16.327 Y292.436 Z-0.914
N8375 X16.346 Y292.471 Z-0.92
N8380 X16.349 Y292.511 Z-0.927
N8385 X16.337 Y292.548 Z-0.933
N8390 X16.312 Y292.579 Z-0.939
N8395 X16.276 Y292.596 Z-0.946
N8400 X16.237 Y292.599 Z-0.952
N8405 X16.199 Y292.586 Z-0.958
N8410 X16.17 Y292.56 Z-0.965
N8415 X16.153 Y292.524 Z-0.971
N8420 X16.151 Y292.484 Z-0.978
N8425 X16.165 Y292.447 Z-0.984
N8430 X16.193 Y292.418 Z-0.99
N8435 X16.229 Y292.402 Z-0.997
N8440 X16.269 Z-1.003
N8445 X16.305 Y292.417 Z-1.009
N8450 X16.333 Y292.445 Z-1.016
N8455 X16.348 Y292.481 Z-1.022
N8460 Y292.521 Z-1.028
N8465 X16.332 Y292.557 Z-1.035
N8470 X16.303 Y292.585 Z-1.041
N8475 X16.266 Y292.599 Z-1.047
N8480 X16.226 Y292.597 Z-1.054
N8485 X16.19 Y292.58 Z-1.06
N8490 X16.164 Y292.551 Z-1.067
N8495 X16.151 Y292.513 Z-1.073
N8500 X16.154 Y292.474 Z-1.079
N8505 X16.171 Y292.438 Z-1.086
N8510 X16.202 Y292.413 Z-1.092
N8515 X16.239 Y292.401 Z-1.098
N8520 X16.279 Y292.404 Z-1.105
N8525 X16.314 Y292.423 Z-1.111
N8530 X16.339 Y292.454 Z-1.117
N8535 X16.35 Y292.492 Z-1.124
N8540 X16.345 Y292.531 Z-1.13
N8545 X16.325 Y292.566 Z-1.136
N8550 X16.294 Y292.59 Z-1.143
N8555 X16.255 Y292.6 Z-1.149
N8560 X16.216 Y292.594 Z-1.156
N8565 X16.182 Y292.573 Z-1.162
N8570 X16.159 Y292.541 Z-1.168
N8575 X16.15 Y292.503 Z-1.175
N8580 X16.157 Y292.464 Z-1.181
N8585 X16.178 Y292.43 Z-1.187
N8590 X16.211 Y292.408 Z-1.194
N8595 X16.25 Y292.4 Z-1.2
N8600 G3 Y292.6 J0.1
N8605 Y292.4 J-0.1
N8610 G1 X16.275 Y292.407
N8615 X16.293 Y292.425
N8620 X16.3 Y292.45
N8625 X16.25 Y292.5
N8630 G0 Z2.3
N8635 X22.25
N8640 Z2
N8645 G1 Z0.3 F50
N8650 X22.2 Y292.45
N8655 X22.207 Y292.425
N8660 X22.225 Y292.407
N8665 X22.25 Y292.4
N8670 X22.289 Y292.408 Z0.294 F800
N8675 X22.322 Y292.43 Z0.287
N8680 X22.343 Y292.464 Z0.281
N8685 X22.35 Y292.503 Z0.275
N8690 X22.341 Y292.541 Z0.268
N8695 X22.318 Y292.573 Z0.262
N8700 X22.284 Y292.594 Z0.256
N8705 X22.245 Y292.6 Z0.249
N8710 X22.206 Y292.59 Z0.243
N8715 X22.175 Y292.566 Z0.236
N8720 X22.155 Y292.531 Z0.23
N8725 X22.15 Y292.492 Z0.224
N8730 X22.161 Y292.454 Z0.217
N8735 X22.186 Y292.423 Z0.211
N8740 X22.221 Y292.404 Z0.205
N8745 X22.261 Y292.401 Z0.198
N8750 X22.298 Y292.413 Z0.192
N8755 X22.329 Y292.438 Z0.186
N8760 X22.346 Y292.474 Z0.179
N8765 X22.349 Y292.513 Z0.173
N8770 X22.336 Y292.551 Z0.167
N8775 X22.31 Y292.58 Z0.16
N8780 X22.274 Y292.597 Z0.154
N8785 X22.234 Y292.599 Z0.147
N8790 X22.197 Y292.585 Z0.141
N8795 X22.168 Y292.557 Z0.135
N8800 X22.152 Y292.521 Z0.128
N8805 Y292.481 Z0.122
N8810 X22.167 Y292.445 Z0.116
N8815 X22.195 Y292.417 Z0.109
N8820 X22.231 Y292.402 Z0.103
N8825 X22.271 Z0.097
N8830 X22.307 Y292.418 Z0.09
N8835 X22.335 Y292.447 Z0.084
N8840 X22.349 Y292.484 Z0.078
N8845 X22.347 Y292.524 Z0.071
N8850 X22.33 Y292.56 Z0.065
N8855 X22.301 Y292.586 Z0.058
N8860 X22.263 Y292.599 Z0.052
N8865 X22.224 Y292.596 Z0.046
N8870 X22.188 Y292.579 Z0.039
N8875 X22.163 Y292.548 Z0.033
N8880 X22.151 Y292.511 Z0.027
N8885 X22.154 Y292.471 Z0.02
N8890 X22.173 Y292.436 Z0.014
N8895 X22.204 Y292.411 Z0.008
N8900 X22.242 Y292.4 Z0.001
N8905 X22.281 Y292.405 Z-0.005
N8910 X22.316 Y292.425 Z-0.011
N8915 X22.34 Y292.456 Z-0.018
N8920 X22.35 Y292.495 Z-0.024
N8925 X22.344 Y292.534 Z-0.031
N8930 X22.323 Y292.568 Z-0.037
N8935 X22.291 Y292.591 Z-0.043
N8940 X22.253 Y292.6 Z-0.05
N8945 X22.214 Y292.593 Z-0.056
N8950 X22.18 Y292.572 Z-0.062
N8955 X22.158 Y292.539 Z-0.069
N8960 X22.15 Y292.5 Z-0.075
N8965 X22.158 Y292.461 Z-0.081
N8970 X22.18 Y292.428 Z-0.088
N8975 X22.214 Y292.407 Z-0.094
N8980 X22.253 Y292.4 Z-0.1
N8985 X22.291 Y292.409 Z-0.107
N8990 X22.323 Y292.432 Z-0.113
N8995 X22.344 Y292.466 Z-0.119
N9000 X22.35 Y292.505 Z-0.126
N9005 X22.34 Y292.544 Z-0.132
N9010 X22.316 Y292.575 Z-0.139
N9015 X22.281 Y292.595 Z-0.145
N9020 X22.242 Y292.6 Z-0.151
N9025 X22.204 Y292.589 Z-0.158
N9030 X22.173 Y292.564 Z-0.164
N9035 X22.154 Y292.529 Z-0.17
N9040 X22.151 Y292.489 Z-0.177
N9045 X22.163 Y292.452 Z-0.183
N9050 X22.188 Y292.421 Z-0.189
N9055 X22.224 Y292.404 Z-0.196
N9060 X22.263 Y292.401 Z-0.202
N9065 X22.301 Y292.414 Z-0.208
N9070 X22.33 Y292.44 Z-0.215
N9075 X22.347 Y292.476 Z-0.221
N9080 X22.349 Y292.516 Z-0.228
N9085 X22.335 Y292.553 Z-0.234
N9090 X22.307 Y292.582 Z-0.24
N9095 X22.271 Y292.598 Z-0.247
N9100 X22.231 Z-0.253
N9105 X22.195 Y292.583 Z-0.259
N9110 X22.167 Y292.555 Z-0.266
N9115 X22.152 Y292.519 Z-0.272
N9120 Y292.479 Z-0.278
N9125 X22.168 Y292.443 Z-0.285
N9130 X22.197 Y292.415 Z-0.291
N9135 X22.234 Y292.401 Z-0.297
N9140 X22.274 Y292.403 Z-0.304
N9145 X22.31 Y292.42 Z-0.31
N9150 X22.336 Y292.449 Z-0.317
N9155 X22.349 Y292.487 Z-0.323
N9160 X22.346 Y292.526 Z-0.329
N9165 X22.329 Y292.562 Z-0.336
N9170 X22.298 Y292.587 Z-0.342
N9175 X22.261 Y292.599 Z-0.348
N9180 X22.221 Y292.596 Z-0.355
N9185 X22.186 Y292.577 Z-0.361
N9190 X22.161 Y292.546 Z-0.367
N9195 X22.15 Y292.508 Z-0.374
N9200 X22.155 Y292.469 Z-0.38
N9205 X22.175 Y292.434 Z-0.386
N9210 X22.206 Y292.41 Z-0.393
N9215 X22.245 Y292.4 Z-0.399
N9220 X22.284 Y292.406 Z-0.406
N9225 X22.318 Y292.427 Z-0.412
N9230 X22.341 Y292.459 Z-0.418
N9235 X22.35 Y292.497 Z-0.425
N9240 X22.343 Y292.536 Z-0.431
N9245 X22.322 Y292.57 Z-0.437
N9250 X22.289 Y292.592 Z-0.444
N9255 X22.25 Y292.6 Z-0.45
N9260 X22.211 Y292.592 Z-0.456
N9265 X22.178 Y292.57 Z-0.463
N9270 X22.157 Y292.536 Z-0.469
N9275 X22.15 Y292.497 Z-0.475
N9280 X22.159 Y292.459 Z-0.482
N9285 X22.182 Y292.427 Z-0.488
N9290 X22.216 Y292.406 Z-0.494
N9295 X22.255 Y292.4 Z-0.501
N9300 X22.294 Y292.41 Z-0.507
N9305 X22.325 Y292.434 Z-0.514
N9310 X22.345 Y292.469 Z-0.52
N9315 X22.35 Y292.508 Z-0.526
N9320 X22.339 Y292.546 Z-0.533
N9325 X22.314 Y292.577 Z-0.539
N9330 X22.279 Y292.596 Z-0.545
N9335 X22.239 Y292.599 Z-0.552
N9340 X22.202 Y292.587 Z-0.558
N9345 X22.171 Y292.562 Z-0.564
N9350 X22.154 Y292.526 Z-0.571
N9355 X22.151 Y292.487 Z-0.577
N9360 X22.164 Y292.449 Z-0.583
N9365 X22.19 Y292.42 Z-0.59
N9370 X22.226 Y292.403 Z-0.596
N9375 X22.266 Y292.401 Z-0.603
N9380 X22.303 Y292.415 Z-0.609
N9385 X22.332 Y292.443 Z-0.615
N9390 X22.348 Y292.479 Z-0.622
N9395 Y292.519 Z-0.628
N9400 X22.333 Y292.555 Z-0.634
N9405 X22.305 Y292.583 Z-0.641
N9410 X22.269 Y292.598 Z-0.647
N9415 X22.229 Z-0.653
N9420 X22.193 Y292.582 Z-0.66
N9425 X22.165 Y292.553 Z-0.666
N9430 X22.151 Y292.516 Z-0.672
N9435 X22.153 Y292.476 Z-0.679
N9440 X22.17 Y292.44 Z-0.685
N9445 X22.199 Y292.414 Z-0.692
N9450 X22.237 Y292.401 Z-0.698
N9455 X22.276 Y292.404 Z-0.704
N9460 X22.312 Y292.421 Z-0.711
N9465 X22.337 Y292.452 Z-0.717
N9470 X22.349 Y292.489 Z-0.723
N9475 X22.346 Y292.529 Z-0.73
N9480 X22.327 Y292.564 Z-0.736
N9485 X22.296 Y292.589 Z-0.742
N9490 X22.258 Y292.6 Z-0.749
N9495 X22.219 Y292.595 Z-0.755
N9500 X22.184 Y292.575 Z-0.761
N9505 X22.16 Y292.544 Z-0.768
N9510 X22.15 Y292.505 Z-0.774
N9515 X22.156 Y292.466 Z-0.781
N9520 X22.177 Y292.432 Z-0.787
N9525 X22.209 Y292.409 Z-0.793
N9530 X22.247 Y292.4 Z-0.8
N9535 X22.286 Y292.407 Z-0.806
N9540 X22.32 Y292.428 Z-0.812
N9545 X22.342 Y292.461 Z-0.819
N9550 X22.35 Y292.5 Z-0.825
N9555 X22.342 Y292.539 Z-0.831
N9560 X22.32 Y292.572 Z-0.838
N9565 X22.286 Y292.593 Z-0.844
N9570 X22.247 Y292.6 Z-0.85
N9575 X22.209 Y292.591 Z-0.857
N9580 X22.177 Y292.568 Z-0.863
N9585 X22.156 Y292.534 Z-0.869
N9590 X22.15 Y292.495 Z-0.876
N9595 X22.16 Y292.456 Z-0.882
N9600 X22.184 Y292.425 Z-0.889
N9605 X22.219 Y292.405 Z-0.895
N9610 X22.258 Y292.4 Z-0.901
N9615 X22.296 Y292.411 Z-0.908
N9620 X22.327 Y292.436 Z-0.914
N9625 X22.346 Y292.471 Z-0.92
N9630 X22.349 Y292.511 Z-0.927
N9635 X22.337 Y292.548 Z-0.933
N9640 X22.312 Y292.579 Z-0.939
N9645 X22.276 Y292.596 Z-0.946
N9650 X22.237 Y292.599 Z-0.952
N9655 X22.199 Y292.586 Z-0.958
N9660 X22.17 Y292.56 Z-0.965
N9665 X22.153 Y292.524 Z-0.971
N9670 X22.151 Y292.484 Z-0.978
N9675 X22.165 Y292.447 Z-0.984
N9680 X22.193 Y292.418 Z-0.99
N9685 X22.229 Y292.402 Z-0.997
N9690 X22.269 Z-1.003
N9695 X22.305 Y292.417 Z-1.009
N9700 X22.333 Y292.445 Z-1.016
N9705 X22.348 Y292.481 Z-1.022
N9710 Y292.521 Z-1.028
N9715 X22.332 Y292.557 Z-1.035
N9720 X22.303 Y292.585 Z-1.041
N9725 X22.266 Y292.599 Z-1.047
N9730 X22.226 Y292.597 Z-1.054
N9735 X22.19 Y292.58 Z-1.06
N9740 X22.164 Y292.551 Z-1.067
N9745 X22.151 Y292.513 Z-1.073
N9750 X22.154 Y292.474 Z-1.079
N9755 X22.171 Y292.438 Z-1.086
N9760 X22.202 Y292.413 Z-1.092
N9765 X22.239 Y292.401 Z-1.098
N9770 X22.279 Y292.404 Z-1.105
N9775 X22.314 Y292.423 Z-1.111
N9780 X22.339 Y292.454 Z-1.117
N9785 X22.35 Y292.492 Z-1.124
N9790 X22.345 Y292.531 Z-1.13
N9795 X22.325 Y292.566 Z-1.136
N9800 X22.294 Y292.59 Z-1.143
N9805 X22.255 Y292.6 Z-1.149
N9810 X22.216 Y292.594 Z-1.156
N9815 X22.182 Y292.573 Z-1.162
N9820 X22.159 Y292.541 Z-1.168
N9825 X22.15 Y292.503 Z-1.175
N9830 X22.157 Y292.464 Z-1.181
N9835 X22.178 Y292.43 Z-1.187
N9840 X22.211 Y292.408 Z-1.194
N9845 X22.25 Y292.4 Z-1.2
N9850 G3 Y292.6 J0.1
N9855 Y292.4 J-0.1
N9860 G1 X22.275 Y292.407
N9865 X22.293 Y292.425
N9870 X22.3 Y292.45
N9875 X22.25 Y292.5
N9880 G0 Z2.3
N9885 X30.25
N9890 Z2
N9895 G1 Z0.3 F50
N9900 X30.3 Y292.55
N9905 X30.293 Y292.575
N9910 X30.275 Y292.593
N9915 X30.25 Y292.6
N9920 X30.211 Y292.592 Z0.294 F800
N9925 X30.178 Y292.57 Z0.287
N9930 X30.157 Y292.536 Z0.281
N9935 X30.15 Y292.497 Z0.275
N9940 X30.159 Y292.459 Z0.268
N9945 X30.182 Y292.427 Z0.262
N9950 X30.216 Y292.406 Z0.256
N9955 X30.255 Y292.4 Z0.249
N9960 X30.294 Y292.41 Z0.243
N9965 X30.325 Y292.434 Z0.236
N9970 X30.345 Y292.469 Z0.23
N9975 X30.35 Y292.508 Z0.224
N9980 X30.339 Y292.546 Z0.217
N9985 X30.314 Y292.577 Z0.211
N9990 X30.279 Y292.596 Z0.205
N9995 X30.239 Y292.599 Z0.198
N10000 X30.202 Y292.587 Z0.192
N10005 X30.171 Y292.562 Z0.186
N10010 X30.154 Y292.526 Z0.179
N10015 X30.151 Y292.487 Z0.173
N10020 X30.164 Y292.449 Z0.167
N10025 X30.19 Y292.42 Z0.16
N10030 X30.226 Y292.403 Z0.154
N10035 X30.266 Y292.401 Z0.147
N10040 X30.303 Y292.415 Z0.141
N10045 X30.332 Y292.443 Z0.135
N10050 X30.348 Y292.479 Z0.128
N10055 Y292.519 Z0.122
N10060 X30.333 Y292.555 Z0.116
N10065 X30.305 Y292.583 Z0.109
N10070 X30.269 Y292.598 Z0.103
N10075 X30.229 Z0.097
N10080 X30.193 Y292.582 Z0.09
N10085 X30.165 Y292.553 Z0.084
N10090 X30.151 Y292.516 Z0.078
N10095 X30.153 Y292.476 Z0.071
N10100 X30.17 Y292.44 Z0.065
N10105 X30.199 Y292.414 Z0.058
N10110 X30.237 Y292.401 Z0.052
N10115 X30.276 Y292.404 Z0.046
N10120 X30.312 Y292.421 Z0.039
N10125 X30.337 Y292.452 Z0.033
N10130 X30.349 Y292.489 Z0.027
N10135 X30.346 Y292.529 Z0.02
N10140 X30.327 Y292.564 Z0.014
N10145 X30.296 Y292.589 Z0.008
N10150 X30.258 Y292.6 Z0.001
N10155 X30.219 Y292.595 Z-0.005
N10160 X30.184 Y292.575 Z-0.011
N10165 X30.16 Y292.544 Z-0.018
N10170 X30.15 Y292.505 Z-0.024
N10175 X30.156 Y292.466 Z-0.031
N10180 X30.177 Y292.432 Z-0.037
N10185 X30.209 Y292.409 Z-0.043
N10190 X30.247 Y292.4 Z-0.05
N10195 X30.286 Y292.407 Z-0.056
N10200 X30.32 Y292.428 Z-0.062
N10205 X30.342 Y292.461 Z-0.069
N10210 X30.35 Y292.5 Z-0.075
N10215 X30.342 Y292.539 Z-0.081
N10220 X30.32 Y292.572 Z-0.088
N10225 X30.286 Y292.593 Z-0.094
N10230 X30.247 Y292.6 Z-0.1
N10235 X30.209 Y292.591 Z-0.107
N10240 X30.177 Y292.568 Z-0.113
N10245 X30.156 Y292.534 Z-0.119
N10250 X30.15 Y292.495 Z-0.126
N10255 X30.16 Y292.456 Z-0.132
N10260 X30.184 Y292.425 Z-0.139
N10265 X30.219 Y292.405 Z-0.145
N10270 X30.258 Y292.4 Z-0.151
N10275 X30.296 Y292.411 Z-0.158
N10280 X30.327 Y292.436 Z-0.164
N10285 X30.346 Y292.471 Z-0.17
N10290 X30.349 Y292.511 Z-0.177
N10295 X30.337 Y292.548 Z-0.183
N10300 X30.312 Y292.579 Z-0.189
N10305 X30.276 Y292.596 Z-0.196
N10310 X30.237 Y292.599 Z-0.202
N10315 X30.199 Y292.586 Z-0.208
N10320 X30.17 Y292.56 Z-0.215
N10325 X30.153 Y292.524 Z-0.221
N10330 X30.151 Y292.484 Z-0.228
N10335 X30.165 Y292.447 Z-0.234
N10340 X30.193 Y292.418 Z-0.24
N10345 X30.229 Y292.402 Z-0.247
N10350 X30.269 Z-0.253
N10355 X30.305 Y292.417 Z-0.259
N10360 X30.333 Y292.445 Z-0.266
N10365 X30.348 Y292.481 Z-0.272
N10370 Y292.521 Z-0.278
N10375 X30.332 Y292.557 Z-0.285
N10380 X30.303 Y292.585 Z-0.291
N10385 X30.266 Y292.599 Z-0.297
N10390 X30.226 Y292.597 Z-0.304
N10395 X30.19 Y292.58 Z-0.31
N10400 X30.164 Y292.551 Z-0.317
N10405 X30.151 Y292.513 Z-0.323
N10410 X30.154 Y292.474 Z-0.329
N10415 X30.171 Y292.438 Z-0.336
N10420 X30.202 Y292.413 Z-0.342
N10425 X30.239 Y292.401 Z-0.348
N10430 X30.279 Y292.404 Z-0.355
N10435 X30.314 Y292.423 Z-0.361
N10440 X30.339 Y292.454 Z-0.367
N10445 X30.35 Y292.492 Z-0.374
N10450 X30.345 Y292.531 Z-0.38
N10455 X30.325 Y292.566 Z-0.386
N10460 X30.294 Y292.59 Z-0.393
N10465 X30.255 Y292.6 Z-0.399
N10470 X30.216 Y292.594 Z-0.406
N10475 X30.182 Y292.573 Z-0.412
N10480 X30.159 Y292.541 Z-0.418
N10485 X30.15 Y292.503 Z-0.425
N10490 X30.157 Y292.464 Z-0.431
N10495 X30.178 Y292.43 Z-0.437
N10500 X30.211 Y292.408 Z-0.444
N10505 X30.25 Y292.4 Z-0.45
N10510 X30.289 Y292.408 Z-0.456
N10515 X30.322 Y292.43 Z-0.463
N10520 X30.343 Y292.464 Z-0.469
N10525 X30.35 Y292.503 Z-0.475
N10530 X30.341 Y292.541 Z-0.482
N10535 X30.318 Y292.573 Z-0.488
N10540 X30.284 Y292.594 Z-0.494
N10545 X30.245 Y292.6 Z-0.501
N10550 X30.206 Y292.59 Z-0.507
N10555 X30.175 Y292.566 Z-0.514
N10560 X30.155 Y292.531 Z-0.52
N10565 X30.15 Y292.492 Z-0.526
N10570 X30.161 Y292.454 Z-0.533
N10575 X30.186 Y292.423 Z-0.539
N10580 X30.221 Y292.404 Z-0.545
N10585 X30.261 Y292.401 Z-0.552
N10590 X30.298 Y292.413 Z-0.558
N10595 X30.329 Y292.438 Z-0.564
N10600 X30.346 Y292.474 Z-0.571
N10605 X30.349 Y292.513 Z-0.577
N10610 X30.336 Y292.551 Z-0.583
N10615 X30.31 Y292.58 Z-0.59
N10620 X30.274 Y292.597 Z-0.596
N10625 X30.234 Y292.599 Z-0.603
N10630 X30.197 Y292.585 Z-0.609
N10635 X30.168 Y292.557 Z-0.615
N10640 X30.152 Y292.521 Z-0.622
N10645 Y292.481 Z-0.628
N10650 X30.167 Y292.445 Z-0.634
N10655 X30.195 Y292.417 Z-0.641
N10660 X30.231 Y292.402 Z-0.647
N10665 X30.271 Z-0.653
N10670 X30.307 Y292.418 Z-0.66
N10675 X30.335 Y292.447 Z-0.666
N10680 X30.349 Y292.484 Z-0.672
N10685 X30.347 Y292.524 Z-0.679
N10690 X30.33 Y292.56 Z-0.685
N10695 X30.301 Y292.586 Z-0.692
N10700 X30.263 Y292.599 Z-0.698
N10705 X30.224 Y292.596 Z-0.704
N10710 X30.188 Y292.579 Z-0.711
N10715 X30.163 Y292.548 Z-0.717
N10720 X30.151 Y292.511 Z-0.723
N10725 X30.154 Y292.471 Z-0.73
N10730 X30.173 Y292.436 Z-0.736
N10735 X30.204 Y292.411 Z-0.742
N10740 X30.242 Y292.4 Z-0.749
N10745 X30.281 Y292.405 Z-0.755
N10750 X30.316 Y292.425 Z-0.761
N10755 X30.34 Y292.456 Z-0.768
N10760 X30.35 Y292.495 Z-0.774
N10765 X30.344 Y292.534 Z-0.781
N10770 X30.323 Y292.568 Z-0.787
N10775 X30.291 Y292.591 Z-0.793
N10780 X30.253 Y292.6 Z-0.8
N10785 X30.214 Y292.593 Z-0.806
N10790 X30.18 Y292.572 Z-0.812
N10795 X30.158 Y292.539 Z-0.819
N10800 X30.15 Y292.5 Z-0.825
N10805 X30.158 Y292.461 Z-0.831
N10810 X30.18 Y292.428 Z-0.838
N10815 X30.214 Y292.407 Z-0.844
N10820 X30.253 Y292.4 Z-0.85
N10825 X30.291 Y292.409 Z-0.857
N10830 X30.323 Y292.432 Z-0.863
N10835 X30.344 Y292.466 Z-0.869
N10840 X30.35 Y292.505 Z-0.876
N10845 X30.34 Y292.544 Z-0.882
N10850 X30.316 Y292.575 Z-0.889
N10855 X30.281 Y292.595 Z-0.895
N10860 X30.242 Y292.6 Z-0.901
N10865 X30.204 Y292.589 Z-0.908
N10870 X30.173 Y292.564 Z-0.914
N10875 X30.154 Y292.529 Z-0.92
N10880 X30.151 Y292.489 Z-0.927
N10885 X30.163 Y292.452 Z-0.933
N10890 X30.188 Y292.421 Z-0.939
N10895 X30.224 Y292.404 Z-0.946
N10900 X30.263 Y292.401 Z-0.952
N10905 X30.301 Y292.414 Z-0.958
N10910 X30.33 Y292.44 Z-0.965
N10915 X30.347 Y292.476 Z-0.971
N10920 X30.349 Y292.516 Z-0.978
N10925 X30.335 Y292.553 Z-0.984
N10930 X30.307 Y292.582 Z-0.99
N10935 X30.271 Y292.598 Z-0.997
N10940 X30.231 Z-1.003
N10945 X30.195 Y292.583 Z-1.009
N10950 X30.167 Y292.555 Z-1.016
N10955 X30.152 Y292.519 Z-1.022
N10960 Y292.479 Z-1.028
N10965 X30.168 Y292.443 Z-1.035
N10970 X30.197 Y292.415 Z-1.041
N10975 X30.234 Y292.401 Z-1.047
N10980 X30.274 Y292.403 Z-1.054
N10985 X30.31 Y292.42 Z-1.06
N10990 X30.336 Y292.449 Z-1.067
N10995 X30.349 Y292.487 Z-1.073
N11000 X30.346 Y292.526 Z-1.079
N11005 X30.329 Y292.562 Z-1.086
N11010 X30.298 Y292.587 Z-1.092
N11015 X30.261 Y292.599 Z-1.098
N11020 X30.221 Y292.596 Z-1.105
N11025 X30.186 Y292.577 Z-1.111
N11030 X30.161 Y292.546 Z-1.117
N11035 X30.15 Y292.508 Z-1.124
N11040 X30.155 Y292.469 Z-1.13
N11045 X30.175 Y292.434 Z-1.136
N11050 X30.206 Y292.41 Z-1.143
N11055 X30.245 Y292.4 Z-1.149
N11060 X30.284 Y292.406 Z-1.156
N11065 X30.318 Y292.427 Z-1.162
N11070 X30.341 Y292.459 Z-1.168
N11075 X30.35 Y292.497 Z-1.175
N11080 X30.343 Y292.536 Z-1.181
N11085 X30.322 Y292.57 Z-1.187
N11090 X30.289 Y292.592 Z-1.194
N11095 X30.25 Y292.6 Z-1.2
N11100 G3 Y292.4 J-0.1
N11105 Y292.6 J0.1
N11110 G1 X30.225 Y292.593
N11115 X30.207 Y292.575
N11120 X30.2 Y292.55
N11125 X30.25 Y292.5
N11130 G0 Z2.3
N11135 X36.25
N11140 Z2
N11145 G1 Z0.3 F50
N11150 X36.3 Y292.55
N11155 X36.293 Y292.575
N11160 X36.275 Y292.593
N11165 X36.25 Y292.6
N11170 X36.211 Y292.592 Z0.294 F800
N11175 X36.178 Y292.57 Z0.287
N11180 X36.157 Y292.536 Z0.281
N11185 X36.15 Y292.497 Z0.275
N11190 X36.159 Y292.459 Z0.268
N11195 X36.182 Y292.427 Z0.262
N11200 X36.216 Y292.406 Z0.256
N11205 X36.255 Y292.4 Z0.249
N11210 X36.294 Y292.41 Z0.243
N11215 X36.325 Y292.434 Z0.236
N11220 X36.345 Y292.469 Z0.23
N11225 X36.35 Y292.508 Z0.224
N11230 X36.339 Y292.546 Z0.217
N11235 X36.314 Y292.577 Z0.211
N11240 X36.279 Y292.596 Z0.205
N11245 X36.239 Y292.599 Z0.198
N11250 X36.202 Y292.587 Z0.192
N11255 X36.171 Y292.562 Z0.186
N11260 X36.154 Y292.526 Z0.179
N11265 X36.151 Y292.487 Z0.173
N11270 X36.164 Y292.449 Z0.167
N11275 X36.19 Y292.42 Z0.16
N11280 X36.226 Y292.403 Z0.154
N11285 X36.266 Y292.401 Z0.147
N11290 X36.303 Y292.415 Z0.141
N11295 X36.332 Y292.443 Z0.135
N11300 X36.348 Y292.479 Z0.128
N11305 Y292.519 Z0.122
N11310 X36.333 Y292.555 Z0.116
N11315 X36.305 Y292.583 Z0.109
N11320 X36.269 Y292.598 Z0.103
N11325 X36.229 Z0.097
N11330 X36.193 Y292.582 Z0.09
N11335 X36.165 Y292.553 Z0.084
N11340 X36.151 Y292.516 Z0.078
N11345 X36.153 Y292.476 Z0.071
N11350 X36.17 Y292.44 Z0.065
N11355 X36.199 Y292.414 Z0.058
N11360 X36.237 Y292.401 Z0.052
N11365 X36.276 Y292.404 Z0.046
N11370 X36.312 Y292.421 Z0.039
N11375 X36.337 Y292.452 Z0.033
N11380 X36.349 Y292.489 Z0.027
N11385 X36.346 Y292.529 Z0.02
N11390 X36.327 Y292.564 Z0.014
N11395 X36.296 Y292.589 Z0.008
N11400 X36.258 Y292.6 Z0.001
N11405 X36.219 Y292.595 Z-0.005
N11410 X36.184 Y292.575 Z-0.011
N11415 X36.16 Y292.544 Z-0.018
N11420 X36.15 Y292.505 Z-0.024
N11425 X36.156 Y292.466 Z-0.031
N11430 X36.177 Y292.432 Z-0.037
N11435 X36.209 Y292.409 Z-0.043
N11440 X36.247 Y292.4 Z-0.05
N11445 X36.286 Y292.407 Z-0.056
N11450 X36.32 Y292.428 Z-0.062
N11455 X36.342 Y292.461 Z-0.069
N11460 X36.35 Y292.5 Z-0.075
N11465 X36.342 Y292.539 Z-0.081
N11470 X36.32 Y292.572 Z-0.088
N11475 X36.286 Y292.593 Z-0.094
N11480 X36.247 Y292.6 Z-0.1
N11485 X36.209 Y292.591 Z-0.107
N11490 X36.177 Y292.568 Z-0.113
N11495 X36.156 Y292.534 Z-0.119
N11500 X36.15 Y292.495 Z-0.126
N11505 X36.16 Y292.456 Z-0.132
N11510 X36.184 Y292.425 Z-0.139
N11515 X36.219 Y292.405 Z-0.145
N11520 X36.258 Y292.4 Z-0.151
N11525 X36.296 Y292.411 Z-0.158
N11530 X36.327 Y292.436 Z-0.164
N11535 X36.346 Y292.471 Z-0.17
N11540 X36.349 Y292.511 Z-0.177
N11545 X36.337 Y292.548 Z-0.183
N11550 X36.312 Y292.579 Z-0.189
N11555 X36.276 Y292.596 Z-0.196
N11560 X36.237 Y292.599 Z-0.202
N11565 X36.199 Y292.586 Z-0.208
N11570 X36.17 Y292.56 Z-0.215
N11575 X36.153 Y292.524 Z-0.221
N11580 X36.151 Y292.484 Z-0.228
N11585 X36.165 Y292.447 Z-0.234
N11590 X36.193 Y292.418 Z-0.24
N11595 X36.229 Y292.402 Z-0.247
N11600 X36.269 Z-0.253
N11605 X36.305 Y292.417 Z-0.259
N11610 X36.333 Y292.445 Z-0.266
N11615 X36.348 Y292.481 Z-0.272
N11620 Y292.521 Z-0.278
N11625 X36.332 Y292.557 Z-0.285
N11630 X36.303 Y292.585 Z-0.291
N11635 X36.266 Y292.599 Z-0.297
N11640 X36.226 Y292.597 Z-0.304
N11645 X36.19 Y292.58 Z-0.31
N11650 X36.164 Y292.551 Z-0.317
N11655 X36.151 Y292.513 Z-0.323
N11660 X36.154 Y292.474 Z-0.329
N11665 X36.171 Y292.438 Z-0.336
N11670 X36.202 Y292.413 Z-0.342
N11675 X36.239 Y292.401 Z-0.348
N11680 X36.279 Y292.404 Z-0.355
N11685 X36.314 Y292.423 Z-0.361
N11690 X36.339 Y292.454 Z-0.367
N11695 X36.35 Y292.492 Z-0.374
N11700 X36.345 Y292.531 Z-0.38
N11705 X36.325 Y292.566 Z-0.386
N11710 X36.294 Y292.59 Z-0.393
N11715 X36.255 Y292.6 Z-0.399
N11720 X36.216 Y292.594 Z-0.406
N11725 X36.182 Y292.573 Z-0.412
N11730 X36.159 Y292.541 Z-0.418
N11735 X36.15 Y292.503 Z-0.425
N11740 X36.157 Y292.464 Z-0.431
N11745 X36.178 Y292.43 Z-0.437
N11750 X36.211 Y292.408 Z-0.444
N11755 X36.25 Y292.4 Z-0.45
N11760 X36.289 Y292.408 Z-0.456
N11765 X36.322 Y292.43 Z-0.463
N11770 X36.343 Y292.464 Z-0.469
N11775 X36.35 Y292.503 Z-0.475
N11780 X36.341 Y292.541 Z-0.482
N11785 X36.318 Y292.573 Z-0.488
N11790 X36.284 Y292.594 Z-0.494
N11795 X36.245 Y292.6 Z-0.501
N11800 X36.206 Y292.59 Z-0.507
N11805 X36.175 Y292.566 Z-0.514
N11810 X36.155 Y292.531 Z-0.52
N11815 X36.15 Y292.492 Z-0.526
N11820 X36.161 Y292.454 Z-0.533
N11825 X36.186 Y292.423 Z-0.539
N11830 X36.221 Y292.404 Z-0.545
N11835 X36.261 Y292.401 Z-0.552
N11840 X36.298 Y292.413 Z-0.558
N11845 X36.329 Y292.438 Z-0.564
N11850 X36.346 Y292.474 Z-0.571
N11855 X36.349 Y292.513 Z-0.577
N11860 X36.336 Y292.551 Z-0.583
N11865 X36.31 Y292.58 Z-0.59
N11870 X36.274 Y292.597 Z-0.596
N11875 X36.234 Y292.599 Z-0.603
N11880 X36.197 Y292.585 Z-0.609
N11885 X36.168 Y292.557 Z-0.615
N11890 X36.152 Y292.521 Z-0.622
N11895 Y292.481 Z-0.628
N11900 X36.167 Y292.445 Z-0.634
N11905 X36.195 Y292.417 Z-0.641
N11910 X36.231 Y292.402 Z-0.647
N11915 X36.271 Z-0.653
N11920 X36.307 Y292.418 Z-0.66
N11925 X36.335 Y292.447 Z-0.666
N11930 X36.349 Y292.484 Z-0.672
N11935 X36.347 Y292.524 Z-0.679
N11940 X36.33 Y292.56 Z-0.685
N11945 X36.301 Y292.586 Z-0.692
N11950 X36.263 Y292.599 Z-0.698
N11955 X36.224 Y292.596 Z-0.704
N11960 X36.188 Y292.579 Z-0.711
N11965 X36.163 Y292.548 Z-0.717
N11970 X36.151 Y292.511 Z-0.723
N11975 X36.154 Y292.471 Z-0.73
N11980 X36.173 Y292.436 Z-0.736
N11985 X36.204 Y292.411 Z-0.742
N11990 X36.242 Y292.4 Z-0.749
N11995 X36.281 Y292.405 Z-0.755
N12000 X36.316 Y292.425 Z-0.761
N12005 X36.34 Y292.456 Z-0.768
N12010 X36.35 Y292.495 Z-0.774
N12015 X36.344 Y292.534 Z-0.781
N12020 X36.323 Y292.568 Z-0.787
N12025 X36.291 Y292.591 Z-0.793
N12030 X36.253 Y292.6 Z-0.8
N12035 X36.214 Y292.593 Z-0.806
N12040 X36.18 Y292.572 Z-0.812
N12045 X36.158 Y292.539 Z-0.819
N12050 X36.15 Y292.5 Z-0.825
N12055 X36.158 Y292.461 Z-0.831
N12060 X36.18 Y292.428 Z-0.838
N12065 X36.214 Y292.407 Z-0.844
N12070 X36.253 Y292.4 Z-0.85
N12075 X36.291 Y292.409 Z-0.857
N12080 X36.323 Y292.432 Z-0.863
N12085 X36.344 Y292.466 Z-0.869
N12090 X36.35 Y292.505 Z-0.876
N12095 X36.34 Y292.544 Z-0.882
N12100 X36.316 Y292.575 Z-0.889
N12105 X36.281 Y292.595 Z-0.895
N12110 X36.242 Y292.6 Z-0.901
N12115 X36.204 Y292.589 Z-0.908
N12120 X36.173 Y292.564 Z-0.914
N12125 X36.154 Y292.529 Z-0.92
N12130 X36.151 Y292.489 Z-0.927
N12135 X36.163 Y292.452 Z-0.933
N12140 X36.188 Y292.421 Z-0.939
N12145 X36.224 Y292.404 Z-0.946
N12150 X36.263 Y292.401 Z-0.952
N12155 X36.301 Y292.414 Z-0.958
N12160 X36.33 Y292.44 Z-0.965
N12165 X36.347 Y292.476 Z-0.971
N12170 X36.349 Y292.516 Z-0.978
N12175 X36.335 Y292.553 Z-0.984
N12180 X36.307 Y292.582 Z-0.99
N12185 X36.271 Y292.598 Z-0.997
N12190 X36.231 Z-1.003
N12195 X36.195 Y292.583 Z-1.009
N12200 X36.167 Y292.555 Z-1.016
N12205 X36.152 Y292.519 Z-1.022
N12210 Y292.479 Z-1.028
N12215 X36.168 Y292.443 Z-1.035
N12220 X36.197 Y292.415 Z-1.041
N12225 X36.234 Y292.401 Z-1.047
N12230 X36.274 Y292.403 Z-1.054
N12235 X36.31 Y292.42 Z-1.06
N12240 X36.336 Y292.449 Z-1.067
N12245 X36.349 Y292.487 Z-1.073
N12250 X36.346 Y292.526 Z-1.079
N12255 X36.329 Y292.562 Z-1.086
N12260 X36.298 Y292.587 Z-1.092
N12265 X36.261 Y292.599 Z-1.098
N12270 X36.221 Y292.596 Z-1.105
N12275 X36.186 Y292.577 Z-1.111
N12280 X36.161 Y292.546 Z-1.117
N12285 X36.15 Y292.508 Z-1.124
N12290 X36.155 Y292.469 Z-1.13
N12295 X36.175 Y292.434 Z-1.136
N12300 X36.206 Y292.41 Z-1.143
N12305 X36.245 Y292.4 Z-1.149
N12310 X36.284 Y292.406 Z-1.156
N12315 X36.318 Y292.427 Z-1.162
N12320 X36.341 Y292.459 Z-1.168
N12325 X36.35 Y292.497 Z-1.175
N12330 X36.343 Y292.536 Z-1.181
N12335 X36.322 Y292.57 Z-1.187
N12340 X36.289 Y292.592 Z-1.194
N12345 X36.25 Y292.6 Z-1.2
N12350 G3 Y292.4 J-0.1
N12355 Y292.6 J0.1
N12360 G1 X36.225 Y292.593
N12365 X36.207 Y292.575
N12370 X36.2 Y292.55
N12375 X36.25 Y292.5
N12380 G0 Z2.3
N12385 X42.25
N12390 Z2
N12395 G1 Z0.3 F50
N12400 X42.3 Y292.55
N12405 X42.293 Y292.575
N12410 X42.275 Y292.593
N12415 X42.25 Y292.6
N12420 X42.211 Y292.592 Z0.294 F800
N12425 X42.178 Y292.57 Z0.287
N12430 X42.157 Y292.536 Z0.281
N12435 X42.15 Y292.497 Z0.275
N12440 X42.159 Y292.459 Z0.268
N12445 X42.182 Y292.427 Z0.262
N12450 X42.216 Y292.406 Z0.256
N12455 X42.255 Y292.4 Z0.249
N12460 X42.294 Y292.41 Z0.243
N12465 X42.325 Y292.434 Z0.236
N12470 X42.345 Y292.469 Z0.23
N12475 X42.35 Y292.508 Z0.224
N12480 X42.339 Y292.546 Z0.217
N12485 X42.314 Y292.577 Z0.211
N12490 X42.279 Y292.596 Z0.205
N12495 X42.239 Y292.599 Z0.198
N12500 X42.202 Y292.587 Z0.192
N12505 X42.171 Y292.562 Z0.186
N12510 X42.154 Y292.526 Z0.179
N12515 X42.151 Y292.487 Z0.173
N12520 X42.164 Y292.449 Z0.167
N12525 X42.19 Y292.42 Z0.16
N12530 X42.226 Y292.403 Z0.154
N12535 X42.266 Y292.401 Z0.147
N12540 X42.303 Y292.415 Z0.141
N12545 X42.332 Y292.443 Z0.135
N12550 X42.348 Y292.479 Z0.128
N12555 Y292.519 Z0.122
N12560 X42.333 Y292.555 Z0.116
N12565 X42.305 Y292.583 Z0.109
N12570 X42.269 Y292.598 Z0.103
N12575 X42.229 Z0.097
N12580 X42.193 Y292.582 Z0.09
N12585 X42.165 Y292.553 Z0.084
N12590 X42.151 Y292.516 Z0.078
N12595 X42.153 Y292.476 Z0.071
N12600 X42.17 Y292.44 Z0.065
N12605 X42.199 Y292.414 Z0.058
N12610 X42.237 Y292.401 Z0.052
N12615 X42.276 Y292.404 Z0.046
N12620 X42.312 Y292.421 Z0.039
N12625 X42.337 Y292.452 Z0.033
N12630 X42.349 Y292.489 Z0.027
N12635 X42.346 Y292.529 Z0.02
N12640 X42.327 Y292.564 Z0.014
N12645 X42.296 Y292.589 Z0.008
N12650 X42.258 Y292.6 Z0.001
N12655 X42.219 Y292.595 Z-0.005
N12660 X42.184 Y292.575 Z-0.011
N12665 X42.16 Y292.544 Z-0.018
N12670 X42.15 Y292.505 Z-0.024
N12675 X42.156 Y292.466 Z-0.031
N12680 X42.177 Y292.432 Z-0.037
N12685 X42.209 Y292.409 Z-0.043
N12690 X42.247 Y292.4 Z-0.05
N12695 X42.286 Y292.407 Z-0.056
N12700 X42.32 Y292.428 Z-0.062
N12705 X42.342 Y292.461 Z-0.069
N12710 X42.35 Y292.5 Z-0.075
N12715 X42.342 Y292.539 Z-0.081
N12720 X42.32 Y292.572 Z-0.088
N12725 X42.286 Y292.593 Z-0.094
N12730 X42.247 Y292.6 Z-0.1
N12735 X42.209 Y292.591 Z-0.107
N12740 X42.177 Y292.568 Z-0.113
N12745 X42.156 Y292.534 Z-0.119
N12750 X42.15 Y292.495 Z-0.126
N12755 X42.16 Y292.456 Z-0.132
N12760 X42.184 Y292.425 Z-0.139
N12765 X42.219 Y292.405 Z-0.145
N12770 X42.258 Y292.4 Z-0.151
N12775 X42.296 Y292.411 Z-0.158
N12780 X42.327 Y292.436 Z-0.164
N12785 X42.346 Y292.471 Z-0.17
N12790 X42.349 Y292.511 Z-0.177
N12795 X42.337 Y292.548 Z-0.183
N12800 X42.312 Y292.579 Z-0.189
N12805 X42.276 Y292.596 Z-0.196
N12810 X42.237 Y292.599 Z-0.202
N12815 X42.199 Y292.586 Z-0.208
N12820 X42.17 Y292.56 Z-0.215
N12825 X42.153 Y292.524 Z-0.221
N12830 X42.151 Y292.484 Z-0.228
N12835 X42.165 Y292.447 Z-0.234
N12840 X42.193 Y292.418 Z-0.24
N12845 X42.229 Y292.402 Z-0.247
N12850 X42.269 Z-0.253
N12855 X42.305 Y292.417 Z-0.259
N12860 X42.333 Y292.445 Z-0.266
N12865 X42.348 Y292.481 Z-0.272
N12870 Y292.521 Z-0.278
N12875 X42.332 Y292.557 Z-0.285
N12880 X42.303 Y292.585 Z-0.291
N12885 X42.266 Y292.599 Z-0.297
N12890 X42.226 Y292.597 Z-0.304
N12895 X42.19 Y292.58 Z-0.31
N12900 X42.164 Y292.551 Z-0.317
N12905 X42.151 Y292.513 Z-0.323
N12910 X42.154 Y292.474 Z-0.329
N12915 X42.171 Y292.438 Z-0.336
N12920 X42.202 Y292.413 Z-0.342
N12925 X42.239 Y292.401 Z-0.348
N12930 X42.279 Y292.404 Z-0.355
N12935 X42.314 Y292.423 Z-0.361
N12940 X42.339 Y292.454 Z-0.367
N12945 X42.35 Y292.492 Z-0.374
N12950 X42.345 Y292.531 Z-0.38
N12955 X42.325 Y292.566 Z-0.386
N12960 X42.294 Y292.59 Z-0.393
N12965 X42.255 Y292.6 Z-0.399
N12970 X42.216 Y292.594 Z-0.406
N12975 X42.182 Y292.573 Z-0.412
N12980 X42.159 Y292.541 Z-0.418
N12985 X42.15 Y292.503 Z-0.425
N12990 X42.157 Y292.464 Z-0.431
N12995 X42.178 Y292.43 Z-0.437
N13000 X42.211 Y292.408 Z-0.444
N13005 X42.25 Y292.4 Z-0.45
N13010 X42.289 Y292.408 Z-0.456
N13015 X42.322 Y292.43 Z-0.463
N13020 X42.343 Y292.464 Z-0.469
N13025 X42.35 Y292.503 Z-0.475
N13030 X42.341 Y292.541 Z-0.482
N13035 X42.318 Y292.573 Z-0.488
N13040 X42.284 Y292.594 Z-0.494
N13045 X42.245 Y292.6 Z-0.501
N13050 X42.206 Y292.59 Z-0.507
N13055 X42.175 Y292.566 Z-0.514
N13060 X42.155 Y292.531 Z-0.52
N13065 X42.15 Y292.492 Z-0.526
N13070 X42.161 Y292.454 Z-0.533
N13075 X42.186 Y292.423 Z-0.539
N13080 X42.221 Y292.404 Z-0.545
N13085 X42.261 Y292.401 Z-0.552
N13090 X42.298 Y292.413 Z-0.558
N13095 X42.329 Y292.438 Z-0.564
N13100 X42.346 Y292.474 Z-0.571
N13105 X42.349 Y292.513 Z-0.577
N13110 X42.336 Y292.551 Z-0.583
N13115 X42.31 Y292.58 Z-0.59
N13120 X42.274 Y292.597 Z-0.596
N13125 X42.234 Y292.599 Z-0.603
N13130 X42.197 Y292.585 Z-0.609
N13135 X42.168 Y292.557 Z-0.615
N13140 X42.152 Y292.521 Z-0.622
N13145 Y292.481 Z-0.628
N13150 X42.167 Y292.445 Z-0.634
N13155 X42.195 Y292.417 Z-0.641
N13160 X42.231 Y292.402 Z-0.647
N13165 X42.271 Z-0.653
N13170 X42.307 Y292.418 Z-0.66
N13175 X42.335 Y292.447 Z-0.666
N13180 X42.349 Y292.484 Z-0.672
N13185 X42.347 Y292.524 Z-0.679
N13190 X42.33 Y292.56 Z-0.685
N13195 X42.301 Y292.586 Z-0.692
N13200 X42.263 Y292.599 Z-0.698
N13205 X42.224 Y292.596 Z-0.704
N13210 X42.188 Y292.579 Z-0.711
N13215 X42.163 Y292.548 Z-0.717
N13220 X42.151 Y292.511 Z-0.723
N13225 X42.154 Y292.471 Z-0.73
N13230 X42.173 Y292.436 Z-0.736
N13235 X42.204 Y292.411 Z-0.742
N13240 X42.242 Y292.4 Z-0.749
N13245 X42.281 Y292.405 Z-0.755
N13250 X42.316 Y292.425 Z-0.761
N13255 X42.34 Y292.456 Z-0.768
N13260 X42.35 Y292.495 Z-0.774
N13265 X42.344 Y292.534 Z-0.781
N13270 X42.323 Y292.568 Z-0.787
N13275 X42.291 Y292.591 Z-0.793
N13280 X42.253 Y292.6 Z-0.8
N13285 X42.214 Y292.593 Z-0.806
N13290 X42.18 Y292.572 Z-0.812
N13295 X42.158 Y292.539 Z-0.819
N13300 X42.15 Y292.5 Z-0.825
N13305 X42.158 Y292.461 Z-0.831
N13310 X42.18 Y292.428 Z-0.838
N13315 X42.214 Y292.407 Z-0.844
N13320 X42.253 Y292.4 Z-0.85
N13325 X42.291 Y292.409 Z-0.857
N13330 X42.323 Y292.432 Z-0.863
N13335 X42.344 Y292.466 Z-0.869
N13340 X42.35 Y292.505 Z-0.876
N13345 X42.34 Y292.544 Z-0.882
N13350 X42.316 Y292.575 Z-0.889
N13355 X42.281 Y292.595 Z-0.895
N13360 X42.242 Y292.6 Z-0.901
N13365 X42.204 Y292.589 Z-0.908
N13370 X42.173 Y292.564 Z-0.914
N13375 X42.154 Y292.529 Z-0.92
N13380 X42.151 Y292.489 Z-0.927
N13385 X42.163 Y292.452 Z-0.933
N13390 X42.188 Y292.421 Z-0.939
N13395 X42.224 Y292.404 Z-0.946
N13400 X42.263 Y292.401 Z-0.952
N13405 X42.301 Y292.414 Z-0.958
N13410 X42.33 Y292.44 Z-0.965
N13415 X42.347 Y292.476 Z-0.971
N13420 X42.349 Y292.516 Z-0.978
N13425 X42.335 Y292.553 Z-0.984
N13430 X42.307 Y292.582 Z-0.99
N13435 X42.271 Y292.598 Z-0.997
N13440 X42.231 Z-1.003
N13445 X42.195 Y292.583 Z-1.009
N13450 X42.167 Y292.555 Z-1.016
N13455 X42.152 Y292.519 Z-1.022
N13460 Y292.479 Z-1.028
N13465 X42.168 Y292.443 Z-1.035
N13470 X42.197 Y292.415 Z-1.041
N13475 X42.234 Y292.401 Z-1.047
N13480 X42.274 Y292.403 Z-1.054
N13485 X42.31 Y292.42 Z-1.06
N13490 X42.336 Y292.449 Z-1.067
N13495 X42.349 Y292.487 Z-1.073
N13500 X42.346 Y292.526 Z-1.079
N13505 X42.329 Y292.562 Z-1.086
N13510 X42.298 Y292.587 Z-1.092
N13515 X42.261 Y292.599 Z-1.098
N13520 X42.221 Y292.596 Z-1.105
N13525 X42.186 Y292.577 Z-1.111
N13530 X42.161 Y292.546 Z-1.117
N13535 X42.15 Y292.508 Z-1.124
N13540 X42.155 Y292.469 Z-1.13
N13545 X42.175 Y292.434 Z-1.136
N13550 X42.206 Y292.41 Z-1.143
N13555 X42.245 Y292.4 Z-1.149
N13560 X42.284 Y292.406 Z-1.156
N13565 X42.318 Y292.427 Z-1.162
N13570 X42.341 Y292.459 Z-1.168
N13575 X42.35 Y292.497 Z-1.175
N13580 X42.343 Y292.536 Z-1.181
N13585 X42.322 Y292.57 Z-1.187
N13590 X42.289 Y292.592 Z-1.194
N13595 X42.25 Y292.6 Z-1.2
N13600 G3 Y292.4 J-0.1
N13605 Y292.6 J0.1
N13610 G1 X42.225 Y292.593
N13615 X42.207 Y292.575
N13620 X42.2 Y292.55
N13625 X42.25 Y292.5
N13630 G0 Z2.3
N13635 X50.25
N13640 Z2
N13645 G1 Z0.3 F50
N13650 X50.3 Y292.55
N13655 X50.293 Y292.575
N13660 X50.275 Y292.593
N13665 X50.25 Y292.6
N13670 X50.211 Y292.592 Z0.294 F800
N13675 X50.178 Y292.57 Z0.287
N13680 X50.157 Y292.536 Z0.281
N13685 X50.15 Y292.497 Z0.275
N13690 X50.159 Y292.459 Z0.268
N13695 X50.182 Y292.427 Z0.262
N13700 X50.216 Y292.406 Z0.256
N13705 X50.255 Y292.4 Z0.249
N13710 X50.294 Y292.41 Z0.243
N13715 X50.325 Y292.434 Z0.236
N13720 X50.345 Y292.469 Z0.23
N13725 X50.35 Y292.508 Z0.224
N13730 X50.339 Y292.546 Z0.217
N13735 X50.314 Y292.577 Z0.211
N13740 X50.279 Y292.596 Z0.205
N13745 X50.239 Y292.599 Z0.198
N13750 X50.202 Y292.587 Z0.192
N13755 X50.171 Y292.562 Z0.186
N13760 X50.154 Y292.526 Z0.179
N13765 X50.151 Y292.487 Z0.173
N13770 X50.164 Y292.449 Z0.167
N13775 X50.19 Y292.42 Z0.16
N13780 X50.226 Y292.403 Z0.154
N13785 X50.266 Y292.401 Z0.147
N13790 X50.303 Y292.415 Z0.141
N13795 X50.332 Y292.443 Z0.135
N13800 X50.348 Y292.479 Z0.128
N13805 Y292.519 Z0.122
N13810 X50.333 Y292.555 Z0.116
N13815 X50.305 Y292.583 Z0.109
N13820 X50.269 Y292.598 Z0.103
N13825 X50.229 Z0.097
N13830 X50.193 Y292.582 Z0.09
N13835 X50.165 Y292.553 Z0.084
N13840 X50.151 Y292.516 Z0.078
N13845 X50.153 Y292.476 Z0.071
N13850 X50.17 Y292.44 Z0.065
N13855 X50.199 Y292.414 Z0.058
N13860 X50.237 Y292.401 Z0.052
N13865 X50.276 Y292.404 Z0.046
N13870 X50.312 Y292.421 Z0.039
N13875 X50.337 Y292.452 Z0.033
N13880 X50.349 Y292.489 Z0.027
N13885 X50.346 Y292.529 Z0.02
N13890 X50.327 Y292.564 Z0.014
N13895 X50.296 Y292.589 Z0.008
N13900 X50.258 Y292.6 Z0.001
N13905 X50.219 Y292.595 Z-0.005
N13910 X50.184 Y292.575 Z-0.011
N13915 X50.16 Y292.544 Z-0.018
N13920 X50.15 Y292.505 Z-0.024
N13925 X50.156 Y292.466 Z-0.031
N13930 X50.177 Y292.432 Z-0.037
N13935 X50.209 Y292.409 Z-0.043
N13940 X50.247 Y292.4 Z-0.05
N13945 X50.286 Y292.407 Z-0.056
N13950 X50.32 Y292.428 Z-0.062
N13955 X50.342 Y292.461 Z-0.069
N13960 X50.35 Y292.5 Z-0.075
N13965 X50.342 Y292.539 Z-0.081
N13970 X50.32 Y292.572 Z-0.088
N13975 X50.286 Y292.593 Z-0.094
N13980 X50.247 Y292.6 Z-0.1
N13985 X50.209 Y292.591 Z-0.107
N13990 X50.177 Y292.568 Z-0.113
N13995 X50.156 Y292.534 Z-0.119
N14000 X50.15 Y292.495 Z-0.126
N14005 X50.16 Y292.456 Z-0.132
N14010 X50.184 Y292.425 Z-0.139
N14015 X50.219 Y292.405 Z-0.145
N14020 X50.258 Y292.4 Z-0.151
N14025 X50.296 Y292.411 Z-0.158
N14030 X50.327 Y292.436 Z-0.164
N14035 X50.346 Y292.471 Z-0.17
N14040 X50.349 Y292.511 Z-0.177
N14045 X50.337 Y292.548 Z-0.183
N14050 X50.312 Y292.579 Z-0.189
N14055 X50.276 Y292.596 Z-0.196
N14060 X50.237 Y292.599 Z-0.202
N14065 X50.199 Y292.586 Z-0.208
N14070 X50.17 Y292.56 Z-0.215
N14075 X50.153 Y292.524 Z-0.221
N14080 X50.151 Y292.484 Z-0.228
N14085 X50.165 Y292.447 Z-0.234
N14090 X50.193 Y292.418 Z-0.24
N14095 X50.229 Y292.402 Z-0.247
N14100 X50.269 Z-0.253
N14105 X50.305 Y292.417 Z-0.259
N14110 X50.333 Y292.445 Z-0.266
N14115 X50.348 Y292.481 Z-0.272
N14120 Y292.521 Z-0.278
N14125 X50.332 Y292.557 Z-0.285
N14130 X50.303 Y292.585 Z-0.291
N14135 X50.266 Y292.599 Z-0.297
N14140 X50.226 Y292.597 Z-0.304
N14145 X50.19 Y292.58 Z-0.31
N14150 X50.164 Y292.551 Z-0.317
N14155 X50.151 Y292.513 Z-0.323
N14160 X50.154 Y292.474 Z-0.329
N14165 X50.171 Y292.438 Z-0.336
N14170 X50.202 Y292.413 Z-0.342
N14175 X50.239 Y292.401 Z-0.348
N14180 X50.279 Y292.404 Z-0.355
N14185 X50.314 Y292.423 Z-0.361
N14190 X50.339 Y292.454 Z-0.367
N14195 X50.35 Y292.492 Z-0.374
N14200 X50.345 Y292.531 Z-0.38
N14205 X50.325 Y292.566 Z-0.386
N14210 X50.294 Y292.59 Z-0.393
N14215 X50.255 Y292.6 Z-0.399
N14220 X50.216 Y292.594 Z-0.406
N14225 X50.182 Y292.573 Z-0.412
N14230 X50.159 Y292.541 Z-0.418
N14235 X50.15 Y292.503 Z-0.425
N14240 X50.157 Y292.464 Z-0.431
N14245 X50.178 Y292.43 Z-0.437
N14250 X50.211 Y292.408 Z-0.444
N14255 X50.25 Y292.4 Z-0.45
N14260 X50.289 Y292.408 Z-0.456
N14265 X50.322 Y292.43 Z-0.463
N14270 X50.343 Y292.464 Z-0.469
N14275 X50.35 Y292.503 Z-0.475
N14280 X50.341 Y292.541 Z-0.482
N14285 X50.318 Y292.573 Z-0.488
N14290 X50.284 Y292.594 Z-0.494
N14295 X50.245 Y292.6 Z-0.501
N14300 X50.206 Y292.59 Z-0.507
N14305 X50.175 Y292.566 Z-0.514
N14310 X50.155 Y292.531 Z-0.52
N14315 X50.15 Y292.492 Z-0.526
N14320 X50.161 Y292.454 Z-0.533
N14325 X50.186 Y292.423 Z-0.539
N14330 X50.221 Y292.404 Z-0.545
N14335 X50.261 Y292.401 Z-0.552
N14340 X50.298 Y292.413 Z-0.558
N14345 X50.329 Y292.438 Z-0.564
N14350 X50.346 Y292.474 Z-0.571
N14355 X50.349 Y292.513 Z-0.577
N14360 X50.336 Y292.551 Z-0.583
N14365 X50.31 Y292.58 Z-0.59
N14370 X50.274 Y292.597 Z-0.596
N14375 X50.234 Y292.599 Z-0.603
N14380 X50.197 Y292.585 Z-0.609
N14385 X50.168 Y292.557 Z-0.615
N14390 X50.152 Y292.521 Z-0.622
N14395 Y292.481 Z-0.628
N14400 X50.167 Y292.445 Z-0.634
N14405 X50.195 Y292.417 Z-0.641
N14410 X50.231 Y292.402 Z-0.647
N14415 X50.271 Z-0.653
N14420 X50.307 Y292.418 Z-0.66
N14425 X50.335 Y292.447 Z-0.666
N14430 X50.349 Y292.484 Z-0.672
N14435 X50.347 Y292.524 Z-0.679
N14440 X50.33 Y292.56 Z-0.685
N14445 X50.301 Y292.586 Z-0.692
N14450 X50.263 Y292.599 Z-0.698
N14455 X50.224 Y292.596 Z-0.704
N14460 X50.188 Y292.579 Z-0.711
N14465 X50.163 Y292.548 Z-0.717
N14470 X50.151 Y292.511 Z-0.723
N14475 X50.154 Y292.471 Z-0.73
N14480 X50.173 Y292.436 Z-0.736
N14485 X50.204 Y292.411 Z-0.742
N14490 X50.242 Y292.4 Z-0.749
N14495 X50.281 Y292.405 Z-0.755
N14500 X50.316 Y292.425 Z-0.761
N14505 X50.34 Y292.456 Z-0.768
N14510 X50.35 Y292.495 Z-0.774
N14515 X50.344 Y292.534 Z-0.781
N14520 X50.323 Y292.568 Z-0.787
N14525 X50.291 Y292.591 Z-0.793
N14530 X50.253 Y292.6 Z-0.8
N14535 X50.214 Y292.593 Z-0.806
N14540 X50.18 Y292.572 Z-0.812
N14545 X50.158 Y292.539 Z-0.819
N14550 X50.15 Y292.5 Z-0.825
N14555 X50.158 Y292.461 Z-0.831
N14560 X50.18 Y292.428 Z-0.838
N14565 X50.214 Y292.407 Z-0.844
N14570 X50.253 Y292.4 Z-0.85
N14575 X50.291 Y292.409 Z-0.857
N14580 X50.323 Y292.432 Z-0.863
N14585 X50.344 Y292.466 Z-0.869
N14590 X50.35 Y292.505 Z-0.876
N14595 X50.34 Y292.544 Z-0.882
N14600 X50.316 Y292.575 Z-0.889
N14605 X50.281 Y292.595 Z-0.895
N14610 X50.242 Y292.6 Z-0.901
N14615 X50.204 Y292.589 Z-0.908
N14620 X50.173 Y292.564 Z-0.914
N14625 X50.154 Y292.529 Z-0.92
N14630 X50.151 Y292.489 Z-0.927
N14635 X50.163 Y292.452 Z-0.933
N14640 X50.188 Y292.421 Z-0.939
N14645 X50.224 Y292.404 Z-0.946
N14650 X50.263 Y292.401 Z-0.952
N14655 X50.301 Y292.414 Z-0.958
N14660 X50.33 Y292.44 Z-0.965
N14665 X50.347 Y292.476 Z-0.971
N14670 X50.349 Y292.516 Z-0.978
N14675 X50.335 Y292.553 Z-0.984
N14680 X50.307 Y292.582 Z-0.99
N14685 X50.271 Y292.598 Z-0.997
N14690 X50.231 Z-1.003
N14695 X50.195 Y292.583 Z-1.009
N14700 X50.167 Y292.555 Z-1.016
N14705 X50.152 Y292.519 Z-1.022
N14710 Y292.479 Z-1.028
N14715 X50.168 Y292.443 Z-1.035
N14720 X50.197 Y292.415 Z-1.041
N14725 X50.234 Y292.401 Z-1.047
N14730 X50.274 Y292.403 Z-1.054
N14735 X50.31 Y292.42 Z-1.06
N14740 X50.336 Y292.449 Z-1.067
N14745 X50.349 Y292.487 Z-1.073
N14750 X50.346 Y292.526 Z-1.079
N14755 X50.329 Y292.562 Z-1.086
N14760 X50.298 Y292.587 Z-1.092
N14765 X50.261 Y292.599 Z-1.098
N14770 X50.221 Y292.596 Z-1.105
N14775 X50.186 Y292.577 Z-1.111
N14780 X50.161 Y292.546 Z-1.117
N14785 X50.15 Y292.508 Z-1.124
N14790 X50.155 Y292.469 Z-1.13
N14795 X50.175 Y292.434 Z-1.136
N14800 X50.206 Y292.41 Z-1.143
N14805 X50.245 Y292.4 Z-1.149
N14810 X50.284 Y292.406 Z-1.156
N14815 X50.318 Y292.427 Z-1.162
N14820 X50.341 Y292.459 Z-1.168
N14825 X50.35 Y292.497 Z-1.175
N14830 X50.343 Y292.536 Z-1.181
N14835 X50.322 Y292.57 Z-1.187
N14840 X50.289 Y292.592 Z-1.194
N14845 X50.25 Y292.6 Z-1.2
N14850 G3 Y292.4 J-0.1
N14855 Y292.6 J0.1
N14860 G1 X50.225 Y292.593
N14865 X50.207 Y292.575
N14870 X50.2 Y292.55
N14875 X50.25 Y292.5
N14880 G0 Z2.3
N14885 X56.25
N14890 Z2
N14895 G1 Z0.3 F50
N14900 X56.3 Y292.55
N14905 X56.293 Y292.575
N14910 X56.275 Y292.593
N14915 X56.25 Y292.6
N14920 X56.211 Y292.592 Z0.294 F800
N14925 X56.178 Y292.57 Z0.287
N14930 X56.157 Y292.536 Z0.281
N14935 X56.15 Y292.497 Z0.275
N14940 X56.159 Y292.459 Z0.268
N14945 X56.182 Y292.427 Z0.262
N14950 X56.216 Y292.406 Z0.256
N14955 X56.255 Y292.4 Z0.249
N14960 X56.294 Y292.41 Z0.243
N14965 X56.325 Y292.434 Z0.236
N14970 X56.345 Y292.469 Z0.23
N14975 X56.35 Y292.508 Z0.224
N14980 X56.339 Y292.546 Z0.217
N14985 X56.314 Y292.577 Z0.211
N14990 X56.279 Y292.596 Z0.205
N14995 X56.239 Y292.599 Z0.198
N15000 X56.202 Y292.587 Z0.192
N15005 X56.171 Y292.562 Z0.186
N15010 X56.154 Y292.526 Z0.179
N15015 X56.151 Y292.487 Z0.173
N15020 X56.164 Y292.449 Z0.167
N15025 X56.19 Y292.42 Z0.16
N15030 X56.226 Y292.403 Z0.154
N15035 X56.266 Y292.401 Z0.147
N15040 X56.303 Y292.415 Z0.141
N15045 X56.332 Y292.443 Z0.135
N15050 X56.348 Y292.479 Z0.128
N15055 Y292.519 Z0.122
N15060 X56.333 Y292.555 Z0.116
N15065 X56.305 Y292.583 Z0.109
N15070 X56.269 Y292.598 Z0.103
N15075 X56.229 Z0.097
N15080 X56.193 Y292.582 Z0.09
N15085 X56.165 Y292.553 Z0.084
N15090 X56.151 Y292.516 Z0.078
N15095 X56.153 Y292.476 Z0.071
N15100 X56.17 Y292.44 Z0.065
N15105 X56.199 Y292.414 Z0.058
N15110 X56.237 Y292.401 Z0.052
N15115 X56.276 Y292.404 Z0.046
N15120 X56.312 Y292.421 Z0.039
N15125 X56.337 Y292.452 Z0.033
N15130 X56.349 Y292.489 Z0.027
N15135 X56.346 Y292.529 Z0.02
N15140 X56.327 Y292.564 Z0.014
N15145 X56.296 Y292.589 Z0.008
N15150 X56.258 Y292.6 Z0.001
N15155 X56.219 Y292.595 Z-0.005
N15160 X56.184 Y292.575 Z-0.011
N15165 X56.16 Y292.544 Z-0.018
N15170 X56.15 Y292.505 Z-0.024
N15175 X56.156 Y292.466 Z-0.031
N15180 X56.177 Y292.432 Z-0.037
N15185 X56.209 Y292.409 Z-0.043
N15190 X56.247 Y292.4 Z-0.05
N15195 X56.286 Y292.407 Z-0.056
N15200 X56.32 Y292.428 Z-0.062
N15205 X56.342 Y292.461 Z-0.069
N15210 X56.35 Y292.5 Z-0.075
N15215 X56.342 Y292.539 Z-0.081
N15220 X56.32 Y292.572 Z-0.088
N15225 X56.286 Y292.593 Z-0.094
N15230 X56.247 Y292.6 Z-0.1
N15235 X56.209 Y292.591 Z-0.107
N15240 X56.177 Y292.568 Z-0.113
N15245 X56.156 Y292.534 Z-0.119
N15250 X56.15 Y292.495 Z-0.126
N15255 X56.16 Y292.456 Z-0.132
N15260 X56.184 Y292.425 Z-0.139
N15265 X56.219 Y292.405 Z-0.145
N15270 X56.258 Y292.4 Z-0.151
N15275 X56.296 Y292.411 Z-0.158
N15280 X56.327 Y292.436 Z-0.164
N15285 X56.346 Y292.471 Z-0.17
N15290 X56.349 Y292.511 Z-0.177
N15295 X56.337 Y292.548 Z-0.183
N15300 X56.312 Y292.579 Z-0.189
N15305 X56.276 Y292.596 Z-0.196
N15310 X56.237 Y292.599 Z-0.202
N15315 X56.199 Y292.586 Z-0.208
N15320 X56.17 Y292.56 Z-0.215
N15325 X56.153 Y292.524 Z-0.221
N15330 X56.151 Y292.484 Z-0.228
N15335 X56.165 Y292.447 Z-0.234
N15340 X56.193 Y292.418 Z-0.24
N15345 X56.229 Y292.402 Z-0.247
N15350 X56.269 Z-0.253
N15355 X56.305 Y292.417 Z-0.259
N15360 X56.333 Y292.445 Z-0.266
N15365 X56.348 Y292.481 Z-0.272
N15370 Y292.521 Z-0.278
N15375 X56.332 Y292.557 Z-0.285
N15380 X56.303 Y292.585 Z-0.291
N15385 X56.266 Y292.599 Z-0.297
N15390 X56.226 Y292.597 Z-0.304
N15395 X56.19 Y292.58 Z-0.31
N15400 X56.164 Y292.551 Z-0.317
N15405 X56.151 Y292.513 Z-0.323
N15410 X56.154 Y292.474 Z-0.329
N15415 X56.171 Y292.438 Z-0.336
N15420 X56.202 Y292.413 Z-0.342
N15425 X56.239 Y292.401 Z-0.348
N15430 X56.279 Y292.404 Z-0.355
N15435 X56.314 Y292.423 Z-0.361
N15440 X56.339 Y292.454 Z-0.367
N15445 X56.35 Y292.492 Z-0.374
N15450 X56.345 Y292.531 Z-0.38
N15455 X56.325 Y292.566 Z-0.386
N15460 X56.294 Y292.59 Z-0.393
N15465 X56.255 Y292.6 Z-0.399
N15470 X56.216 Y292.594 Z-0.406
N15475 X56.182 Y292.573 Z-0.412
N15480 X56.159 Y292.541 Z-0.418
N15485 X56.15 Y292.503 Z-0.425
N15490 X56.157 Y292.464 Z-0.431
N15495 X56.178 Y292.43 Z-0.437
N15500 X56.211 Y292.408 Z-0.444
N15505 X56.25 Y292.4 Z-0.45
N15510 X56.289 Y292.408 Z-0.456
N15515 X56.322 Y292.43 Z-0.463
N15520 X56.343 Y292.464 Z-0.469
N15525 X56.35 Y292.503 Z-0.475
N15530 X56.341 Y292.541 Z-0.482
N15535 X56.318 Y292.573 Z-0.488
N15540 X56.284 Y292.594 Z-0.494
N15545 X56.245 Y292.6 Z-0.501
N15550 X56.206 Y292.59 Z-0.507
N15555 X56.175 Y292.566 Z-0.514
N15560 X56.155 Y292.531 Z-0.52
N15565 X56.15 Y292.492 Z-0.526
N15570 X56.161 Y292.454 Z-0.533
N15575 X56.186 Y292.423 Z-0.539
N15580 X56.221 Y292.404 Z-0.545
N15585 X56.261 Y292.401 Z-0.552
N15590 X56.298 Y292.413 Z-0.558
N15595 X56.329 Y292.438 Z-0.564
N15600 X56.346 Y292.474 Z-0.571
N15605 X56.349 Y292.513 Z-0.577
N15610 X56.336 Y292.551 Z-0.583
N15615 X56.31 Y292.58 Z-0.59
N15620 X56.274 Y292.597 Z-0.596
N15625 X56.234 Y292.599 Z-0.603
N15630 X56.197 Y292.585 Z-0.609
N15635 X56.168 Y292.557 Z-0.615
N15640 X56.152 Y292.521 Z-0.622
N15645 Y292.481 Z-0.628
N15650 X56.167 Y292.445 Z-0.634
N15655 X56.195 Y292.417 Z-0.641
N15660 X56.231 Y292.402 Z-0.647
N15665 X56.271 Z-0.653
N15670 X56.307 Y292.418 Z-0.66
N15675 X56.335 Y292.447 Z-0.666
N15680 X56.349 Y292.484 Z-0.672
N15685 X56.347 Y292.524 Z-0.679
N15690 X56.33 Y292.56 Z-0.685
N15695 X56.301 Y292.586 Z-0.692
N15700 X56.263 Y292.599 Z-0.698
N15705 X56.224 Y292.596 Z-0.704
N15710 X56.188 Y292.579 Z-0.711
N15715 X56.163 Y292.548 Z-0.717
N15720 X56.151 Y292.511 Z-0.723
N15725 X56.154 Y292.471 Z-0.73
N15730 X56.173 Y292.436 Z-0.736
N15735 X56.204 Y292.411 Z-0.742
N15740 X56.242 Y292.4 Z-0.749
N15745 X56.281 Y292.405 Z-0.755
N15750 X56.316 Y292.425 Z-0.761
N15755 X56.34 Y292.456 Z-0.768
N15760 X56.35 Y292.495 Z-0.774
N15765 X56.344 Y292.534 Z-0.781
N15770 X56.323 Y292.568 Z-0.787
N15775 X56.291 Y292.591 Z-0.793
N15780 X56.253 Y292.6 Z-0.8
N15785 X56.214 Y292.593 Z-0.806
N15790 X56.18 Y292.572 Z-0.812
N15795 X56.158 Y292.539 Z-0.819
N15800 X56.15 Y292.5 Z-0.825
N15805 X56.158 Y292.461 Z-0.831
N15810 X56.18 Y292.428 Z-0.838
N15815 X56.214 Y292.407 Z-0.844
N15820 X56.253 Y292.4 Z-0.85
N15825 X56.291 Y292.409 Z-0.857
N15830 X56.323 Y292.432 Z-0.863
N15835 X56.344 Y292.466 Z-0.869
N15840 X56.35 Y292.505 Z-0.876
N15845 X56.34 Y292.544 Z-0.882
N15850 X56.316 Y292.575 Z-0.889
N15855 X56.281 Y292.595 Z-0.895
N15860 X56.242 Y292.6 Z-0.901
N15865 X56.204 Y292.589 Z-0.908
N15870 X56.173 Y292.564 Z-0.914
N15875 X56.154 Y292.529 Z-0.92
N15880 X56.151 Y292.489 Z-0.927
N15885 X56.163 Y292.452 Z-0.933
N15890 X56.188 Y292.421 Z-0.939
N15895 X56.224 Y292.404 Z-0.946
N15900 X56.263 Y292.401 Z-0.952
N15905 X56.301 Y292.414 Z-0.958
N15910 X56.33 Y292.44 Z-0.965
N15915 X56.347 Y292.476 Z-0.971
N15920 X56.349 Y292.516 Z-0.978
N15925 X56.335 Y292.553 Z-0.984
N15930 X56.307 Y292.582 Z-0.99
N15935 X56.271 Y292.598 Z-0.997
N15940 X56.231 Z-1.003
N15945 X56.195 Y292.583 Z-1.009
N15950 X56.167 Y292.555 Z-1.016
N15955 X56.152 Y292.519 Z-1.022
N15960 Y292.479 Z-1.028
N15965 X56.168 Y292.443 Z-1.035
N15970 X56.197 Y292.415 Z-1.041
N15975 X56.234 Y292.401 Z-1.047
N15980 X56.274 Y292.403 Z-1.054
N15985 X56.31 Y292.42 Z-1.06
N15990 X56.336 Y292.449 Z-1.067
N15995 X56.349 Y292.487 Z-1.073
N16000 X56.346 Y292.526 Z-1.079
N16005 X56.329 Y292.562 Z-1.086
N16010 X56.298 Y292.587 Z-1.092
N16015 X56.261 Y292.599 Z-1.098
N16020 X56.221 Y292.596 Z-1.105
N16025 X56.186 Y292.577 Z-1.111
N16030 X56.161 Y292.546 Z-1.117
N16035 X56.15 Y292.508 Z-1.124
N16040 X56.155 Y292.469 Z-1.13
N16045 X56.175 Y292.434 Z-1.136
N16050 X56.206 Y292.41 Z-1.143
N16055 X56.245 Y292.4 Z-1.149
N16060 X56.284 Y292.406 Z-1.156
N16065 X56.318 Y292.427 Z-1.162
N16070 X56.341 Y292.459 Z-1.168
N16075 X56.35 Y292.497 Z-1.175
N16080 X56.343 Y292.536 Z-1.181
N16085 X56.322 Y292.57 Z-1.187
N16090 X56.289 Y292.592 Z-1.194
N16095 X56.25 Y292.6 Z-1.2
N16100 G3 Y292.4 J-0.1
N16105 Y292.6 J0.1
N16110 G1 X56.225 Y292.593
N16115 X56.207 Y292.575
N16120 X56.2 Y292.55
N16125 X56.25 Y292.5
N16130 G0 Z2.3
N16135 X62.25
N16140 Z2
N16145 G1 Z0.3 F50
N16150 X62.3 Y292.55
N16155 X62.293 Y292.575
N16160 X62.275 Y292.593
N16165 X62.25 Y292.6
N16170 X62.211 Y292.592 Z0.294 F800
N16175 X62.178 Y292.57 Z0.287
N16180 X62.157 Y292.536 Z0.281
N16185 X62.15 Y292.497 Z0.275
N16190 X62.159 Y292.459 Z0.268
N16195 X62.182 Y292.427 Z0.262
N16200 X62.216 Y292.406 Z0.256
N16205 X62.255 Y292.4 Z0.249
N16210 X62.294 Y292.41 Z0.243
N16215 X62.325 Y292.434 Z0.236
N16220 X62.345 Y292.469 Z0.23
N16225 X62.35 Y292.508 Z0.224
N16230 X62.339 Y292.546 Z0.217
N16235 X62.314 Y292.577 Z0.211
N16240 X62.279 Y292.596 Z0.205
N16245 X62.239 Y292.599 Z0.198
N16250 X62.202 Y292.587 Z0.192
N16255 X62.171 Y292.562 Z0.186
N16260 X62.154 Y292.526 Z0.179
N16265 X62.151 Y292.487 Z0.173
N16270 X62.164 Y292.449 Z0.167
N16275 X62.19 Y292.42 Z0.16
N16280 X62.226 Y292.403 Z0.154
N16285 X62.266 Y292.401 Z0.147
N16290 X62.303 Y292.415 Z0.141
N16295 X62.332 Y292.443 Z0.135
N16300 X62.348 Y292.479 Z0.128
N16305 Y292.519 Z0.122
N16310 X62.333 Y292.555 Z0.116
N16315 X62.305 Y292.583 Z0.109
N16320 X62.269 Y292.598 Z0.103
N16325 X62.229 Z0.097
N16330 X62.193 Y292.582 Z0.09
N16335 X62.165 Y292.553 Z0.084
N16340 X62.151 Y292.516 Z0.078
N16345 X62.153 Y292.476 Z0.071
N16350 X62.17 Y292.44 Z0.065
N16355 X62.199 Y292.414 Z0.058
N16360 X62.237 Y292.401 Z0.052
N16365 X62.276 Y292.404 Z0.046
N16370 X62.312 Y292.421 Z0.039
N16375 X62.337 Y292.452 Z0.033
N16380 X62.349 Y292.489 Z0.027
N16385 X62.346 Y292.529 Z0.02
N16390 X62.327 Y292.564 Z0.014
N16395 X62.296 Y292.589 Z0.008
N16400 X62.258 Y292.6 Z0.001
N16405 X62.219 Y292.595 Z-0.005
N16410 X62.184 Y292.575 Z-0.011
N16415 X62.16 Y292.544 Z-0.018
N16420 X62.15 Y292.505 Z-0.024
N16425 X62.156 Y292.466 Z-0.031
N16430 X62.177 Y292.432 Z-0.037
N16435 X62.209 Y292.409 Z-0.043
N16440 X62.247 Y292.4 Z-0.05
N16445 X62.286 Y292.407 Z-0.056
N16450 X62.32 Y292.428 Z-0.062
N16455 X62.342 Y292.461 Z-0.069
N16460 X62.35 Y292.5 Z-0.075
N16465 X62.342 Y292.539 Z-0.081
N16470 X62.32 Y292.572 Z-0.088
N16475 X62.286 Y292.593 Z-0.094
N16480 X62.247 Y292.6 Z-0.1
N16485 X62.209 Y292.591 Z-0.107
N16490 X62.177 Y292.568 Z-0.113
N16495 X62.156 Y292.534 Z-0.119
N16500 X62.15 Y292.495 Z-0.126
N16505 X62.16 Y292.456 Z-0.132
N16510 X62.184 Y292.425 Z-0.139
N16515 X62.219 Y292.405 Z-0.145
N16520 X62.258 Y292.4 Z-0.151
N16525 X62.296 Y292.411 Z-0.158
N16530 X62.327 Y292.436 Z-0.164
N16535 X62.346 Y292.471 Z-0.17
N16540 X62.349 Y292.511 Z-0.177
N16545 X62.337 Y292.548 Z-0.183
N16550 X62.312 Y292.579 Z-0.189
N16555 X62.276 Y292.596 Z-0.196
N16560 X62.237 Y292.599 Z-0.202
N16565 X62.199 Y292.586 Z-0.208
N16570 X62.17 Y292.56 Z-0.215
N16575 X62.153 Y292.524 Z-0.221
N16580 X62.151 Y292.484 Z-0.228
N16585 X62.165 Y292.447 Z-0.234
N16590 X62.193 Y292.418 Z-0.24
N16595 X62.229 Y292.402 Z-0.247
N16600 X62.269 Z-0.253
N16605 X62.305 Y292.417 Z-0.259
N16610 X62.333 Y292.445 Z-0.266
N16615 X62.348 Y292.481 Z-0.272
N16620 Y292.521 Z-0.278
N16625 X62.332 Y292.557 Z-0.285
N16630 X62.303 Y292.585 Z-0.291
N16635 X62.266 Y292.599 Z-0.297
N16640 X62.226 Y292.597 Z-0.304
N16645 X62.19 Y292.58 Z-0.31
N16650 X62.164 Y292.551 Z-0.317
N16655 X62.151 Y292.513 Z-0.323
N16660 X62.154 Y292.474 Z-0.329
N16665 X62.171 Y292.438 Z-0.336
N16670 X62.202 Y292.413 Z-0.342
N16675 X62.239 Y292.401 Z-0.348
N16680 X62.279 Y292.404 Z-0.355
N16685 X62.314 Y292.423 Z-0.361
N16690 X62.339 Y292.454 Z-0.367
N16695 X62.35 Y292.492 Z-0.374
N16700 X62.345 Y292.531 Z-0.38
N16705 X62.325 Y292.566 Z-0.386
N16710 X62.294 Y292.59 Z-0.393
N16715 X62.255 Y292.6 Z-0.399
N16720 X62.216 Y292.594 Z-0.406
N16725 X62.182 Y292.573 Z-0.412
N16730 X62.159 Y292.541 Z-0.418
N16735 X62.15 Y292.503 Z-0.425
N16740 X62.157 Y292.464 Z-0.431
N16745 X62.178 Y292.43 Z-0.437
N16750 X62.211 Y292.408 Z-0.444
N16755 X62.25 Y292.4 Z-0.45
N16760 X62.289 Y292.408 Z-0.456
N16765 X62.322 Y292.43 Z-0.463
N16770 X62.343 Y292.464 Z-0.469
N16775 X62.35 Y292.503 Z-0.475
N16780 X62.341 Y292.541 Z-0.482
N16785 X62.318 Y292.573 Z-0.488
N16790 X62.284 Y292.594 Z-0.494
N16795 X62.245 Y292.6 Z-0.501
N16800 X62.206 Y292.59 Z-0.507
N16805 X62.175 Y292.566 Z-0.514
N16810 X62.155 Y292.531 Z-0.52
N16815 X62.15 Y292.492 Z-0.526
N16820 X62.161 Y292.454 Z-0.533
N16825 X62.186 Y292.423 Z-0.539
N16830 X62.221 Y292.404 Z-0.545
N16835 X62.261 Y292.401 Z-0.552
N16840 X62.298 Y292.413 Z-0.558
N16845 X62.329 Y292.438 Z-0.564
N16850 X62.346 Y292.474 Z-0.571
N16855 X62.349 Y292.513 Z-0.577
N16860 X62.336 Y292.551 Z-0.583
N16865 X62.31 Y292.58 Z-0.59
N16870 X62.274 Y292.597 Z-0.596
N16875 X62.234 Y292.599 Z-0.603
N16880 X62.197 Y292.585 Z-0.609
N16885 X62.168 Y292.557 Z-0.615
N16890 X62.152 Y292.521 Z-0.622
N16895 Y292.481 Z-0.628
N16900 X62.167 Y292.445 Z-0.634
N16905 X62.195 Y292.417 Z-0.641
N16910 X62.231 Y292.402 Z-0.647
N16915 X62.271 Z-0.653
