%
(1001)
(T3 D=3 CR=0 - ZMIN=-5.2 - flat end mill)
N10 G90 G94
N15 G17
N20 G21
N25 G28

(2D ????1)
N30 T3 M6
N35 S20000 M3
N40 G54
N45 M8
N50 G0 X29.874 Y24.408
N55 G43 Z2.3
N60 G1 Z1.4 F100
N65 Z0.5 F50
N70 X29.867 Y24.405 Z0.433
N75 X29.847 Y24.396 Z0.37
N80 X29.814 Y24.382 Z0.313
N85 X29.77 Y24.364 Z0.265
N90 X29.718 Y24.342 Z0.23
N95 X29.659 Y24.318 Z0.208
N100 X29.597 Y24.292 Z0.2
N105 G3 X28.717 Y23.078 I0.551 J-1.325
N110 G2 X17.85 Y23.92 I-5.434 J0.421 F800
N115 X28.733 Y23.499 I5.434 J-0.421
N120 G1 X28.717 Y23.078
N125 G2 X27.773 Y20.409 Z0.1 I-5.434 J0.421 F100
N130 X18.794 Y26.588 I-4.49 J3.09 F800
N135 X27.773 Y20.409 I4.49 J-3.09
N140 X25.618 Y18.574 Z0 I-4.49 J3.09 F100
N145 X20.949 Y28.424 I-2.334 J4.925 F800
N150 X25.618 Y18.574 I2.334 J-4.925
N155 X23.284 Y18.049 Z-0.084 I-2.334 J4.925 F100
N160 G1 X22.833 Y18.067 Z-0.1
N165 G2 X23.734 Y28.93 I0.451 J5.431 F800
N170 X23.284 Y18.049 I-0.451 J-5.431
N175 G1 X22.833 Y18.067
N180 G2 X20.169 Y19.026 Z-0.2 I0.451 J5.431 F100
N185 X26.398 Y27.971 I3.114 J4.473 F800
N190 X20.169 Y19.026 I-3.114 J-4.473
N195 X18.346 Y21.192 Z-0.3 I3.114 J4.473 F100
N200 X28.221 Y25.806 I4.938 J2.307 F800
N205 X18.346 Y21.192 I-4.938 J-2.307
N210 X17.855 Y23.979 Z-0.4 I4.938 J2.307 F100
N215 X28.712 Y23.018 I5.429 J-0.481 F800
N220 X17.855 Y23.979 I-5.429 J0.481
N225 X18.828 Y26.638 Z-0.5 I5.429 J-0.481 F100
N230 X27.739 Y20.36 I4.455 J-3.139 F800
N235 X18.828 Y26.638 I-4.455 J3.139
N240 X21.004 Y28.449 Z-0.6 I4.455 J-3.139 F100
N245 X25.563 Y18.548 I2.28 J-4.95 F800
N250 X21.004 Y28.449 I-2.28 J4.95
N255 X23.794 Y28.925 Z-0.7 I2.28 J-4.95 F100
N260 X22.773 Y18.073 I-0.511 J-5.426 F800
N265 X23.794 Y28.925 I0.511 J5.426
N270 X26.447 Y27.937 Z-0.8 I-0.511 J-5.426 F100
N275 X20.12 Y19.061 I-3.163 J-4.438 F800
N280 X26.447 Y27.937 I3.163 J4.438
N285 X28.246 Y25.751 Z-0.9 I-3.163 J-4.438 F100
N290 X18.321 Y21.246 I-4.963 J-2.253 F800
N295 X28.246 Y25.751 I4.963 J2.253
N300 X28.707 Y22.958 Z-1 I-4.963 J-2.253 F100
N305 X17.86 Y24.039 I-5.423 J0.541 F800
N310 X28.707 Y22.958 I5.423 J-0.541
N315 X27.704 Y20.311 Z-1.1 I-5.423 J0.541 F100
N320 X18.863 Y26.687 I-4.42 J3.188 F800
N325 X27.704 Y20.311 I4.42 J-3.188
N330 X25.509 Y18.524 Z-1.2 I-4.42 J3.188 F100
N335 X21.058 Y28.474 I-2.225 J4.975 F800
N340 X25.509 Y18.524 I2.225 J-4.975
N345 X22.713 Y18.079 Z-1.3 I-2.225 J4.975 F100
N350 X23.854 Y28.919 I0.57 J5.42 F800
N355 X22.713 Y18.079 I-0.57 J-5.42
N360 X20.071 Y19.096 Z-1.4 I0.57 J5.42 F100
N365 X26.496 Y27.901 I3.212 J4.403 F800
N370 X20.071 Y19.096 I-3.212 J-4.403
N375 X18.296 Y21.301 Z-1.5 I3.212 J4.403 F100
N380 X28.271 Y25.696 I4.987 J2.198 F800
N385 X18.296 Y21.301 I-4.987 J-2.198
N390 X17.867 Y24.099 Z-1.6 I4.987 J2.198 F100
N395 X28.7 Y22.898 I5.417 J-0.6 F800
N400 X17.867 Y24.099 I-5.417 J0.6
N405 X18.898 Y26.735 Z-1.7 I5.417 J-0.6 F100
N410 X27.669 Y20.262 I4.385 J-3.236 F800
N415 X18.898 Y26.735 I-4.385 J3.236
N420 X21.113 Y28.498 Z-1.8 I4.385 J-3.236 F100
N425 X25.454 Y18.499 I2.17 J-4.999 F800
N430 X21.113 Y28.498 I-2.17 J4.999
N435 X23.914 Y28.912 Z-1.9 I2.17 J-4.999 F100
N440 X22.653 Y18.085 I-0.63 J-5.413 F800
N445 X23.914 Y28.912 I0.63 J5.413
N450 X26.544 Y27.866 Z-2 I-0.63 J-5.413 F100
N455 X20.023 Y19.132 I-3.261 J-4.367 F800
N460 X26.544 Y27.866 I3.261 J4.367
N465 X28.295 Y25.641 Z-2.1 I-3.261 J-4.367 F100
N470 X18.272 Y21.356 I-5.011 J-2.143 F800
N475 X28.295 Y25.641 I5.011 J2.143
N480 X28.693 Y22.839 Z-2.2 I-5.011 J-2.143 F100
N485 X17.874 Y24.159 I-5.41 J0.66 F800
N490 X28.693 Y22.839 I5.41 J-0.66
N495 X27.633 Y20.214 Z-2.3 I-5.41 J0.66 F100
N500 X18.934 Y26.783 I-4.349 J3.285 F800
N505 X27.633 Y20.214 I4.349 J-3.285
N510 X25.398 Y18.476 Z-2.4 I-4.349 J3.285 F100
N515 X21.169 Y28.522 I-2.115 J5.023 F800
N520 X25.398 Y18.476 I2.115 J-5.023
N525 X22.594 Y18.093 Z-2.5 I-2.115 J5.023 F100
N530 X23.973 Y28.905 I0.69 J5.406 F800
N535 X22.594 Y18.093 I-0.69 J-5.406
N540 X19.975 Y19.168 Z-2.6 I0.69 J5.406 F100
N545 X26.592 Y27.83 I3.308 J4.331 F800
N550 X19.975 Y19.168 I-3.308 J-4.331
N555 X18.249 Y21.411 Z-2.7 I3.308 J4.331 F100
N560 X28.318 Y25.586 I5.034 J2.087 F800
N565 X18.249 Y21.411 I-5.034 J-2.087
N570 X17.881 Y24.218 Z-2.8 I5.034 J2.087 F100
N575 X28.686 Y22.779 I5.402 J-0.72 F800
N580 X17.881 Y24.218 I-5.402 J0.72
N585 G1 X17.883 Y24.281
N590 X17.872 Y24.343
N595 X17.848 Y24.401
N600 X17.245 Y25.514
N605 X17.214 Y25.573 Z-2.792
N610 X17.184 Y25.628 Z-2.77
N615 X17.156 Y25.678 Z-2.735
N620 X17.134 Y25.72 Z-2.687
N625 X17.117 Y25.752 Z-2.63
N630 X17.106 Y25.771 Z-2.567
N635 X17.103 Y25.778 Z-2.5
N640 G0 Z2.3

(2D ??5)
N645 X30.684 Y23.799
N650 G1 Z2.3 F100
N655 Z0.5
N660 G18 G3 X30.383 Z0.2 I-0.3 F50
N665 G1 X30.083
N670 G17 G3 X29.784 Y23.499 J-0.3
N675 G2 X16.784 I-6.5 F800
N680 X29.784 I6.5
N685 G3 X30.083 Y23.199 I0.3
N690 G1 X30.383
N695 G18 G2 X30.684 Z0.5 K0.3
N700 G0 Z2.3
N705 Y23.799
N710 G1 Z0.4 F100
N715 G3 X30.383 Z0.1 I-0.3 F50
N720 G1 X30.083
N725 G17 G3 X29.784 Y23.499 J-0.3
N730 G2 X16.784 I-6.5 F800
N735 X29.784 I6.5
N740 G3 X30.083 Y23.199 I0.3
N745 G1 X30.383
N750 G18 G2 X30.684 Z0.4 K0.3
N755 G0 Z2.3
N760 Y23.799
N765 G1 Z0.3 F100
N770 G3 X30.383 Z0 I-0.3 F50
N775 G1 X30.083
N780 G17 G3 X29.784 Y23.499 J-0.3
N785 G2 X16.784 I-6.5 F800
N790 X29.784 I6.5
N795 G3 X30.083 Y23.199 I0.3
N800 G1 X30.383
N805 G18 G2 X30.684 Z0.3 K0.3
N810 G0 Z2.3
N815 Y23.799
N820 G1 Z0.2 F100
N825 G3 X30.383 Z-0.1 I-0.3 F50
N830 G1 X30.083
N835 G17 G3 X29.784 Y23.499 J-0.3
N840 G2 X16.784 I-6.5 F800
N845 X29.784 I6.5
N850 G3 X30.083 Y23.199 I0.3
N855 G1 X30.383
N860 G18 G2 X30.684 Z0.2 K0.3
N865 G0 Z2.3
N870 Y23.799
N875 G1 Z0.1 F100
N880 G3 X30.383 Z-0.2 I-0.3 F50
N885 G1 X30.083
N890 G17 G3 X29.784 Y23.499 J-0.3
N895 G2 X16.784 I-6.5 F800
N900 X29.784 I6.5
N905 G3 X30.083 Y23.199 I0.3
N910 G1 X30.383
N915 G18 G2 X30.684 Z0.1 K0.3
N920 G0 Z2.3
N925 Y23.799
N930 G1 Z0 F100
N935 G3 X30.383 Z-0.3 I-0.3 F50
N940 G1 X30.083
N945 G17 G3 X29.784 Y23.499 J-0.3
N950 G2 X16.784 I-6.5 F800
N955 X29.784 I6.5
N960 G3 X30.083 Y23.199 I0.3
N965 G1 X30.383
N970 G18 G2 X30.684 Z0 K0.3
N975 G0 Z2.3
N980 Y23.799
N985 G1 Z-0.1 F100
N990 G3 X30.383 Z-0.4 I-0.3 F50
N995 G1 X30.083
N1000 G17 G3 X29.784 Y23.499 J-0.3
N1005 G2 X16.784 I-6.5 F800
N1010 X29.784 I6.5
N1015 G3 X30.083 Y23.199 I0.3
N1020 G1 X30.383
N1025 G18 G2 X30.684 Z-0.1 K0.3
N1030 G0 Z2.3
N1035 Y23.799
N1040 G1 Z-0.2 F100
N1045 G3 X30.383 Z-0.5 I-0.3 F50
N1050 G1 X30.083
N1055 G17 G3 X29.784 Y23.499 J-0.3
N1060 G2 X16.784 I-6.5 F800
N1065 X29.784 I6.5
N1070 G3 X30.083 Y23.199 I0.3
N1075 G1 X30.383
N1080 G18 G2 X30.684 Z-0.2 K0.3
N1085 G0 Z2.3
N1090 Y23.799
N1095 G1 Z-0.3 F100
N1100 G3 X30.383 Z-0.6 I-0.3 F50
N1105 G1 X30.083
N1110 G17 G3 X29.784 Y23.499 J-0.3
N1115 G2 X16.784 I-6.5 F800
N1120 X29.784 I6.5
N1125 G3 X30.083 Y23.199 I0.3
N1130 G1 X30.383
N1135 G18 G2 X30.684 Z-0.3 K0.3
N1140 G0 Z2.3
N1145 Y23.799
N1150 G1 Z-0.4 F100
N1155 G3 X30.383 Z-0.7 I-0.3 F50
N1160 G1 X30.083
N1165 G17 G3 X29.784 Y23.499 J-0.3
N1170 G2 X16.784 I-6.5 F800
N1175 X29.784 I6.5
N1180 G3 X30.083 Y23.199 I0.3
N1185 G1 X30.383
N1190 G18 G2 X30.684 Z-0.4 K0.3
N1195 G0 Z2.3
N1200 Y23.799
N1205 G1 Z-0.5 F100
N1210 G3 X30.383 Z-0.8 I-0.3 F50
N1215 G1 X30.083
N1220 G17 G3 X29.784 Y23.499 J-0.3
N1225 G2 X16.784 I-6.5 F800
N1230 X29.784 I6.5
N1235 G3 X30.083 Y23.199 I0.3
N1240 G1 X30.383
N1245 G18 G2 X30.684 Z-0.5 K0.3
N1250 G0 Z2.3
N1255 Y23.799
N1260 G1 Z-0.6 F100
N1265 G3 X30.383 Z-0.9 I-0.3 F50
N1270 G1 X30.083
N1275 G17 G3 X29.784 Y23.499 J-0.3
N1280 G2 X16.784 I-6.5 F800
N1285 X29.784 I6.5
N1290 G3 X30.083 Y23.199 I0.3
N1295 G1 X30.383
N1300 G18 G2 X30.684 Z-0.6 K0.3
N1305 G0 Z2.3
N1310 Y23.799
N1315 G1 Z-0.7 F100
N1320 G3 X30.383 Z-1 I-0.3 F50
N1325 G1 X30.083
N1330 G17 G3 X29.784 Y23.499 J-0.3
N1335 G2 X16.784 I-6.5 F800
N1340 X29.784 I6.5
N1345 G3 X30.083 Y23.199 I0.3
N1350 G1 X30.383
N1355 G18 G2 X30.684 Z-0.7 K0.3
N1360 G0 Z2.3
N1365 Y23.799
N1370 G1 Z-0.8 F100
N1375 G3 X30.383 Z-1.1 I-0.3 F50
N1380 G1 X30.083
N1385 G17 G3 X29.784 Y23.499 J-0.3
N1390 G2 X16.784 I-6.5 F800
N1395 X29.784 I6.5
N1400 G3 X30.083 Y23.199 I0.3
N1405 G1 X30.383
N1410 G18 G2 X30.684 Z-0.8 K0.3
N1415 G0 Z2.3
N1420 Y23.799
N1425 G1 Z-0.9 F100
N1430 G3 X30.383 Z-1.2 I-0.3 F50
N1435 G1 X30.083
N1440 G17 G3 X29.784 Y23.499 J-0.3
N1445 G2 X16.784 I-6.5 F800
N1450 X29.784 I6.5
N1455 G3 X30.083 Y23.199 I0.3
N1460 G1 X30.383
N1465 G18 G2 X30.684 Z-0.9 K0.3
N1470 G0 Z2.3
N1475 Y23.799
N1480 G1 Z-1 F100
N1485 G3 X30.383 Z-1.3 I-0.3 F50
N1490 G1 X30.083
N1495 G17 G3 X29.784 Y23.499 J-0.3
N1500 G2 X16.784 I-6.5 F800
N1505 X29.784 I6.5
N1510 G3 X30.083 Y23.199 I0.3
N1515 G1 X30.383
N1520 G18 G2 X30.684 Z-1 K0.3
N1525 G0 Z2.3
N1530 Y23.799
N1535 G1 Z-1.1 F100
N1540 G3 X30.383 Z-1.4 I-0.3 F50
N1545 G1 X30.083
N1550 G17 G3 X29.784 Y23.499 J-0.3
N1555 G2 X16.784 I-6.5 F800
N1560 X29.784 I6.5
N1565 G3 X30.083 Y23.199 I0.3
N1570 G1 X30.383
N1575 G18 G2 X30.684 Z-1.1 K0.3
N1580 G0 Z2.3
N1585 Y23.799
N1590 G1 Z-1.2 F100
N1595 G3 X30.383 Z-1.5 I-0.3 F50
N1600 G1 X30.083
N1605 G17 G3 X29.784 Y23.499 J-0.3
N1610 G2 X16.784 I-6.5 F800
N1615 X29.784 I6.5
N1620 G3 X30.083 Y23.199 I0.3
N1625 G1 X30.383
N1630 G18 G2 X30.684 Z-1.2 K0.3
N1635 G0 Z2.3
N1640 Y23.799
N1645 G1 Z-1.3 F100
N1650 G3 X30.383 Z-1.6 I-0.3 F50
N1655 G1 X30.083
N1660 G17 G3 X29.784 Y23.499 J-0.3
N1665 G2 X16.784 I-6.5 F800
N1670 X29.784 I6.5
N1675 G3 X30.083 Y23.199 I0.3
N1680 G1 X30.383
N1685 G18 G2 X30.684 Z-1.3 K0.3
N1690 G0 Z2.3
N1695 Y23.799
N1700 G1 Z-1.4 F100
N1705 G3 X30.383 Z-1.7 I-0.3 F50
N1710 G1 X30.083
N1715 G17 G3 X29.784 Y23.499 J-0.3
N1720 G2 X16.784 I-6.5 F800
N1725 X29.784 I6.5
N1730 G3 X30.083 Y23.199 I0.3
N1735 G1 X30.383
N1740 G18 G2 X30.684 Z-1.4 K0.3
N1745 G0 Z2.3
N1750 Y23.799
N1755 G1 Z-1.5 F100
N1760 G3 X30.383 Z-1.8 I-0.3 F50
N1765 G1 X30.083
N1770 G17 G3 X29.784 Y23.499 J-0.3
N1775 G2 X16.784 I-6.5 F800
N1780 X29.784 I6.5
N1785 G3 X30.083 Y23.199 I0.3
N1790 G1 X30.383
N1795 G18 G2 X30.684 Z-1.5 K0.3
N1800 G0 Z2.3
N1805 Y23.799
N1810 G1 Z-1.6 F100
N1815 G3 X30.383 Z-1.9 I-0.3 F50
N1820 G1 X30.083
N1825 G17 G3 X29.784 Y23.499 J-0.3
N1830 G2 X16.784 I-6.5 F800
N1835 X29.784 I6.5
N1840 G3 X30.083 Y23.199 I0.3
N1845 G1 X30.383
N1850 G18 G2 X30.684 Z-1.6 K0.3
N1855 G0 Z2.3
N1860 Y23.799
N1865 G1 Z-1.7 F100
N1870 G3 X30.383 Z-2 I-0.3 F50
N1875 G1 X30.083
N1880 G17 G3 X29.784 Y23.499 J-0.3
N1885 G2 X16.784 I-6.5 F800
N1890 X29.784 I6.5
N1895 G3 X30.083 Y23.199 I0.3
N1900 G1 X30.383
N1905 G18 G2 X30.684 Z-1.7 K0.3
N1910 G0 Z2.3
N1915 Y23.799
N1920 G1 Z-1.8 F100
N1925 G3 X30.383 Z-2.1 I-0.3 F50
N1930 G1 X30.083
N1935 G17 G3 X29.784 Y23.499 J-0.3
N1940 G2 X16.784 I-6.5 F800
N1945 X29.784 I6.5
N1950 G3 X30.083 Y23.199 I0.3
N1955 G1 X30.383
N1960 G18 G2 X30.684 Z-1.8 K0.3
N1965 G0 Z2.3
N1970 Y23.799
N1975 G1 Z-1.9 F100
N1980 G3 X30.383 Z-2.2 I-0.3 F50
N1985 G1 X30.083
N1990 G17 G3 X29.784 Y23.499 J-0.3
N1995 G2 X16.784 I-6.5 F800
N2000 X29.784 I6.5
N2005 G3 X30.083 Y23.199 I0.3
N2010 G1 X30.383
N2015 G18 G2 X30.684 Z-1.9 K0.3
N2020 G0 Z2.3
N2025 Y23.799
N2030 G1 Z-2 F100
N2035 G3 X30.383 Z-2.3 I-0.3 F50
N2040 G1 X30.083
N2045 G17 G3 X29.784 Y23.499 J-0.3
N2050 G2 X16.784 I-6.5 F800
N2055 X29.784 I6.5
N2060 G3 X30.083 Y23.199 I0.3
N2065 G1 X30.383
N2070 G18 G2 X30.684 Z-2 K0.3
N2075 G0 Z2.3
N2080 Y23.799
N2085 G1 Z-2.1 F100
N2090 G3 X30.383 Z-2.4 I-0.3 F50
N2095 G1 X30.083
N2100 G17 G3 X29.784 Y23.499 J-0.3
N2105 G2 X16.784 I-6.5 F800
N2110 X29.784 I6.5
N2115 G3 X30.083 Y23.199 I0.3
N2120 G1 X30.383
N2125 G18 G2 X30.684 Z-2.1 K0.3
N2130 G0 Z2.3
N2135 Y23.799
N2140 G1 Z-2.2 F100
N2145 G3 X30.383 Z-2.5 I-0.3 F50
N2150 G1 X30.083
N2155 G17 G3 X29.784 Y23.499 J-0.3
N2160 G2 X16.784 I-6.5 F800
N2165 X29.784 I6.5
N2170 G3 X30.083 Y23.199 I0.3
N2175 G1 X30.383
N2180 G18 G2 X30.684 Z-2.2 K0.3
N2185 G0 Z2.3
N2190 Y23.799
N2195 G1 Z-2.3 F100
N2200 G3 X30.383 Z-2.6 I-0.3 F50
N2205 G1 X30.083
N2210 G17 G3 X29.784 Y23.499 J-0.3
N2215 G2 X16.784 I-6.5 F800
N2220 X29.784 I6.5
N2225 G3 X30.083 Y23.199 I0.3
N2230 G1 X30.383
N2235 G18 G2 X30.684 Z-2.3 K0.3
N2240 G0 Z2.3
N2245 Y23.799
N2250 G1 Z-2.4 F100
N2255 G3 X30.383 Z-2.7 I-0.3 F50
N2260 G1 X30.083
N2265 G17 G3 X29.784 Y23.499 J-0.3
N2270 G2 X16.784 I-6.5 F800
N2275 X29.784 I6.5
N2280 G3 X30.083 Y23.199 I0.3
N2285 G1 X30.383
N2290 G18 G2 X30.684 Z-2.4 K0.3
N2295 G0 Z2.3
N2300 Y23.799
N2305 G1 Z-2.5 F100
N2310 G3 X30.383 Z-2.8 I-0.3 F50
N2315 G1 X30.083
N2320 G17 G3 X29.784 Y23.499 J-0.3
N2325 G2 X16.784 I-6.5 F800
N2330 X29.784 I6.5
N2335 G3 X30.083 Y23.199 I0.3
N2340 G1 X30.383
N2345 G18 G2 X30.684 Z-2.5 K0.3
N2350 G0 Z2.3
N2355 Y23.799
N2360 G1 Z-2.6 F100
N2365 G3 X30.383 Z-2.9 I-0.3 F50
N2370 G1 X30.083
N2375 G17 G3 X29.784 Y23.499 J-0.3
N2380 G2 X16.784 I-6.5 F800
N2385 X29.784 I6.5
N2390 G3 X30.083 Y23.199 I0.3
N2395 G1 X30.383
N2400 G18 G2 X30.684 Z-2.6 K0.3
N2405 G0 Z2.3
N2410 Y23.799
N2415 G1 Z-2.7 F100
N2420 G3 X30.383 Z-3 I-0.3 F50
N2425 G1 X30.083
N2430 G17 G3 X29.784 Y23.499 J-0.3
N2435 G2 X16.784 I-6.5 F800
N2440 X29.784 I6.5
N2445 G3 X30.083 Y23.199 I0.3
N2450 G1 X30.383
N2455 G18 G2 X30.684 Z-2.7 K0.3
N2460 G0 Z2.3
N2465 Y23.799
N2470 G1 Z-2.8 F100
N2475 G3 X30.383 Z-3.1 I-0.3 F50
N2480 G1 X30.083
N2485 G17 G3 X29.784 Y23.499 J-0.3
N2490 G2 X16.784 I-6.5 F800
N2495 X29.784 I6.5
N2500 G3 X30.083 Y23.199 I0.3
N2505 G1 X30.383
N2510 G18 G2 X30.684 Z-2.8 K0.3
N2515 G0 Z2.3
N2520 Y23.799
N2525 G1 Z-2.9 F100
N2530 G3 X30.383 Z-3.2 I-0.3 F50
N2535 G1 X30.083
N2540 G17 G3 X29.784 Y23.499 J-0.3
N2545 G2 X16.784 I-6.5 F800
N2550 X29.784 I6.5
N2555 G3 X30.083 Y23.199 I0.3
N2560 G1 X30.383
N2565 G18 G2 X30.684 Z-2.9 K0.3
N2570 G0 Z2.3
N2575 Y23.799
N2580 G1 Z-3 F100
N2585 G3 X30.383 Z-3.3 I-0.3 F50
N2590 G1 X30.083
N2595 G17 G3 X29.784 Y23.499 J-0.3
N2600 G2 X16.784 I-6.5 F800
N2605 X29.784 I6.5
N2610 G3 X30.083 Y23.199 I0.3
N2615 G1 X30.383
N2620 G18 G2 X30.684 Z-3 K0.3
N2625 G0 Z2.3
N2630 Y23.799
N2635 G1 Z-3.1 F100
N2640 G3 X30.383 Z-3.4 I-0.3 F50
N2645 G1 X30.083
N2650 G17 G3 X29.784 Y23.499 J-0.3
N2655 G2 X16.784 I-6.5 F800
N2660 X29.784 I6.5
N2665 G3 X30.083 Y23.199 I0.3
N2670 G1 X30.383
N2675 G18 G2 X30.684 Z-3.1 K0.3
N2680 G0 Z2.3
N2685 Y23.799
N2690 G1 Z-3.2 F100
N2695 G3 X30.383 Z-3.5 I-0.3 F50
N2700 G1 X30.083
N2705 G17 G3 X29.784 Y23.499 J-0.3
N2710 G2 X16.784 I-6.5 F800
N2715 X29.784 I6.5
N2720 G3 X30.083 Y23.199 I0.3
N2725 G1 X30.383
N2730 G18 G2 X30.684 Z-3.2 K0.3
N2735 G0 Z2.3
N2740 Y23.799
N2745 G1 Z-3.3 F100
N2750 G3 X30.383 Z-3.6 I-0.3 F50
N2755 G1 X30.083
N2760 G17 G3 X29.784 Y23.499 J-0.3
N2765 G2 X16.784 I-6.5 F800
N2770 X29.784 I6.5
N2775 G3 X30.083 Y23.199 I0.3
N2780 G1 X30.383
N2785 G18 G2 X30.684 Z-3.3 K0.3
N2790 G0 Z2.3
N2795 Y23.799
N2800 G1 Z-3.4 F100
N2805 G3 X30.383 Z-3.7 I-0.3 F50
N2810 G1 X30.083
N2815 G17 G3 X29.784 Y23.499 J-0.3
N2820 G2 X16.784 I-6.5 F800
N2825 X29.784 I6.5
N2830 G3 X30.083 Y23.199 I0.3
N2835 G1 X30.383
N2840 G18 G2 X30.684 Z-3.4 K0.3
N2845 G0 Z2.3
N2850 Y23.799
N2855 G1 Z-3.5 F100
N2860 G3 X30.383 Z-3.8 I-0.3 F50
N2865 G1 X30.083
N2870 G17 G3 X29.784 Y23.499 J-0.3
N2875 G2 X16.784 I-6.5 F800
N2880 X29.784 I6.5
N2885 G3 X30.083 Y23.199 I0.3
N2890 G1 X30.383
N2895 G18 G2 X30.684 Z-3.5 K0.3
N2900 G0 Z2.3
N2905 Y23.799
N2910 G1 Z-3.6 F100
N2915 G3 X30.383 Z-3.9 I-0.3 F50
N2920 G1 X30.083
N2925 G17 G3 X29.784 Y23.499 J-0.3
N2930 G2 X16.784 I-6.5 F800
N2935 X29.784 I6.5
N2940 G3 X30.083 Y23.199 I0.3
N2945 G1 X30.383
N2950 G18 G2 X30.684 Z-3.6 K0.3
N2955 G0 Z2.3
N2960 Y23.799
N2965 G1 Z-3.7 F100
N2970 G3 X30.383 Z-4 I-0.3 F50
N2975 G1 X30.083
N2980 G17 G3 X29.784 Y23.499 J-0.3
N2985 G2 X16.784 I-6.5 F800
N2990 X29.784 I6.5
N2995 G3 X30.083 Y23.199 I0.3
N3000 G1 X30.383
N3005 G18 G2 X30.684 Z-3.7 K0.3
N3010 G0 Z2.3
N3015 Y23.799
N3020 G1 Z-3.8 F100
N3025 G3 X30.383 Z-4.1 I-0.3 F50
N3030 G1 X30.083
N3035 G17 G3 X29.784 Y23.499 J-0.3
N3040 G2 X16.784 I-6.5 F800
N3045 X29.784 I6.5
N3050 G3 X30.083 Y23.199 I0.3
N3055 G1 X30.383
N3060 G18 G2 X30.684 Z-3.8 K0.3
N3065 G0 Z2.3
N3070 Y23.799
N3075 G1 Z-3.9 F100
N3080 G3 X30.383 Z-4.2 I-0.3 F50
N3085 G1 X30.083
N3090 G17 G3 X29.784 Y23.499 J-0.3
N3095 G2 X16.784 I-6.5 F800
N3100 X29.784 I6.5
N3105 G3 X30.083 Y23.199 I0.3
N3110 G1 X30.383
N3115 G18 G2 X30.684 Z-3.9 K0.3
N3120 G0 Z2.3
N3125 Y23.799
N3130 G1 Z-4 F100
N3135 G3 X30.383 Z-4.3 I-0.3 F50
N3140 G1 X30.083
N3145 G17 G3 X29.784 Y23.499 J-0.3
N3150 G2 X16.784 I-6.5 F800
N3155 X29.784 I6.5
N3160 G3 X30.083 Y23.199 I0.3
N3165 G1 X30.383
N3170 G18 G2 X30.684 Z-4 K0.3
N3175 G0 Z2.3
N3180 Y23.799
N3185 G1 Z-4.1 F100
N3190 G3 X30.383 Z-4.4 I-0.3 F50
N3195 G1 X30.083
N3200 G17 G3 X29.784 Y23.499 J-0.3
N3205 G2 X16.784 I-6.5 F800
N3210 X29.784 I6.5
N3215 G3 X30.083 Y23.199 I0.3
N3220 G1 X30.383
N3225 G18 G2 X30.684 Z-4.1 K0.3
N3230 G0 Z2.3
N3235 Y23.799
N3240 G1 Z-4.2 F100
N3245 G3 X30.383 Z-4.5 I-0.3 F50
N3250 G1 X30.083
N3255 G17 G3 X29.784 Y23.499 J-0.3
N3260 G2 X16.784 I-6.5 F800
N3265 X29.784 I6.5
N3270 G3 X30.083 Y23.199 I0.3
N3275 G1 X30.383
N3280 G18 G2 X30.684 Z-4.2 K0.3
N3285 G0 Z2.3
N3290 Y23.799
N3295 G1 Z-4.3 F100
N3300 G3 X30.383 Z-4.6 I-0.3 F50
N3305 G1 X30.083
N3310 G17 G3 X29.784 Y23.499 J-0.3
N3315 G2 X16.784 I-6.5 F800
N3320 X29.784 I6.5
N3325 G3 X30.083 Y23.199 I0.3
N3330 G1 X30.383
N3335 G18 G2 X30.684 Z-4.3 K0.3
N3340 G0 Z2.3
N3345 Y23.799
N3350 G1 Z-4.4 F100
N3355 G3 X30.383 Z-4.7 I-0.3 F50
N3360 G1 X30.083
N3365 G17 G3 X29.784 Y23.499 J-0.3
N3370 G2 X16.784 I-6.5 F800
N3375 X29.784 I6.5
N3380 G3 X30.083 Y23.199 I0.3
N3385 G1 X30.383
N3390 G18 G2 X30.684 Z-4.4 K0.3
N3395 G0 Z2.3
N3400 Y23.799
N3405 G1 Z-4.5 F100
N3410 G3 X30.383 Z-4.8 I-0.3 F50
N3415 G1 X30.083
N3420 G17 G3 X29.784 Y23.499 J-0.3
N3425 G2 X16.783 I-6.5 F800
N3430 X21.583 Y29.772 I6.5
N3435 G1 X21.784 Y29.823 Z-4.7
N3440 G2 X24.784 I1.5 J-6.325
N3445 G1 X24.983 Y29.772 Z-4.8 F100
N3450 G2 X29.784 Y23.499 I-1.7 J-6.274 F800
N3455 G3 X30.083 Y23.199 I0.3
N3460 G1 X30.383
N3465 G18 G2 X30.684 Z-4.5 K0.3
N3470 G0 Z2.3
N3475 Y23.799
N3480 G1 Z-4.6 F100
N3485 G3 X30.383 Z-4.9 I-0.3 F50
N3490 G1 X30.083
N3495 G17 G3 X29.784 Y23.499 J-0.3
N3500 G2 X16.784 I-6.5 F800
N3505 X21.383 Y29.715 I6.5
N3510 X21.784 Y29.823 Z-4.7 I1.9 J-6.216
N3515 X24.784 I1.5 J-6.325
N3520 X25.184 Y29.715 Z-4.9 I-1.5 J-6.325 F100
N3525 X29.784 Y23.499 I-1.9 J-6.216 F800
N3530 G3 X30.083 Y23.199 I0.3
N3535 G1 X30.383
N3540 G18 G2 X30.684 Z-4.6 K0.3
N3545 G0 Z2.3
N3550 Y23.799
N3555 G1 Z-4.7 F100
N3560 G3 X30.383 Z-5 I-0.3 F50
N3565 G1 X30.083
N3570 G17 G3 X29.784 Y23.499 J-0.3
N3575 G2 X16.784 I-6.5 F800
N3580 X21.184 Y29.65 I6.5
N3585 X21.784 Y29.823 Z-4.7 I2.1 J-6.151
N3590 X24.784 I1.5 J-6.325
N3595 X25.383 Y29.65 Z-5 I-1.5 J-6.325 F100
N3600 X29.784 Y23.499 I-2.1 J-6.151 F800
N3605 G3 X30.083 Y23.199 I0.3
N3610 G1 X30.383
N3615 G18 G2 X30.684 Z-4.7 K0.3
N3620 G0 Z2.3
N3625 Y23.799
N3630 G1 Z-4.8 F100
N3635 G3 X30.383 Z-5.1 I-0.3 F50
N3640 G1 X30.083
N3645 G17 G3 X29.784 Y23.499 J-0.3
N3650 G2 X16.783 I-6.5 F800
N3655 X20.983 Y29.578 I6.5
N3660 X21.671 Y29.795 Z-4.756 I2.3 J-6.079
N3665 G1 X21.784 Y29.823 Z-4.7
N3670 G2 X24.784 I1.5 J-6.325
N3675 X25.475 Y29.618 Z-5.046 I-1.5 J-6.325 F100
N3680 G1 X25.583 Y29.578 Z-5.1
N3685 G2 X29.784 Y23.499 I-2.3 J-6.079 F800
N3690 G3 X30.083 Y23.199 I0.3
N3695 G1 X30.383
N3700 G18 G2 X30.684 Z-4.8 K0.3
N3705 G0 Z2.3
N3710 Y23.799
N3715 G1 Z-4.9 F100
N3720 G3 X30.383 Z-5.2 I-0.3 F50
N3725 G1 X30.083
N3730 G17 G3 X29.784 Y23.499 J-0.3
N3735 G2 X16.784 I-6.5 F800
N3740 X20.784 Y29.499 I6.5
N3745 X21.463 Y29.739 Z-4.86 I2.5 J-6
N3750 X21.784 Y29.823 Z-4.7 I1.82 J-6.24
N3755 X24.784 I1.5 J-6.325
N3760 X25.475 Y29.618 Z-5.046 I-1.5 J-6.325 F100
N3765 X25.784 Y29.499 Z-5.2 I-2.191 J-6.12
N3770 X29.784 Y23.499 I-2.5 J-6 F800
N3775 G3 X30.083 Y23.199 I0.3
N3780 G1 X30.383
N3785 G18 G2 X30.684 Z-4.9 K0.3
N3790 G0 Z2.3
N3795 G17
N3800 M9
N3805 G28
N3810 M5
N3815 M30
%
