%
(1001)
(T3 D=3 CR=0 - ZMIN=-3.2 - flat end mill)
N10 G90 G94
N15 G17
N20 G21
N25 G28

(??1)
N30 T3 M6
N35 S20000 M3
N40 G54
N45 M8
N50 G0 X63.31 Y68.315
N55 G43 Z2.3
N60 G1 Z0.6 F50
N65 G19 G3 Y68.615 Z0.3 J0.3
N70 G1 Y68.765
N75 G17 G3 X63.01 Y69.065 I-0.3
N80 Y66.065 Z0.25 J-1.5 F800
N85 Y69.065 Z0.2 J1.5
N90 Y66.065 Z0.15 J-1.5
N95 Y69.065 Z0.1 J1.5
N100 Y66.065 Z0.05 J-1.5
N105 Y69.065 Z0 J1.5
N110 Y66.065 Z-0.05 J-1.5
N115 Y69.065 Z-0.1 J1.5
N120 Y66.065 Z-0.15 J-1.5
N125 Y69.065 Z-0.2 J1.5
N130 Y66.065 Z-0.25 J-1.5
N135 Y69.065 Z-0.3 J1.5
N140 Y66.065 Z-0.35 J-1.5
N145 Y69.065 Z-0.4 J1.5
N150 Y66.065 Z-0.45 J-1.5
N155 Y69.065 Z-0.5 J1.5
N160 Y66.065 Z-0.55 J-1.5
N165 Y69.065 Z-0.6 J1.5
N170 Y66.065 Z-0.65 J-1.5
N175 Y69.065 Z-0.7 J1.5
N180 Y66.065 Z-0.75 J-1.5
N185 Y69.065 Z-0.8 J1.5
N190 Y66.065 Z-0.85 J-1.5
N195 Y69.065 Z-0.9 J1.5
N200 Y66.065 Z-0.95 J-1.5
N205 Y69.065 Z-1 J1.5
N210 Y66.065 Z-1.05 J-1.5
N215 Y69.065 Z-1.1 J1.5
N220 Y66.065 Z-1.15 J-1.5
N225 Y69.065 Z-1.2 J1.5
N230 Y66.065 Z-1.25 J-1.5
N235 Y69.065 Z-1.3 J1.5
N240 Y66.065 Z-1.35 J-1.5
N245 Y69.065 Z-1.4 J1.5
N250 Y66.065 Z-1.45 J-1.5
N255 Y69.065 Z-1.5 J1.5
N260 Y66.065 Z-1.55 J-1.5
N265 Y69.065 Z-1.6 J1.5
N270 Y66.065 Z-1.65 J-1.5
N275 Y69.065 Z-1.7 J1.5
N280 Y66.065 Z-1.75 J-1.5
N285 Y69.065 Z-1.8 J1.5
N290 Y66.065 Z-1.85 J-1.5
N295 Y69.065 Z-1.9 J1.5
N300 Y66.065 Z-1.95 J-1.5
N305 Y69.065 Z-2 J1.5
N310 Y66.065 Z-2.05 J-1.5
N315 Y69.065 Z-2.1 J1.5
N320 Y66.065 Z-2.15 J-1.5
N325 Y69.065 Z-2.2 J1.5
N330 Y66.065 J-1.5
N335 Y69.065 J1.5
N340 X62.71 Y68.765 J-0.3
N345 G1 Y68.615
N350 G19 G2 Y68.315 Z-1.9 K0.3
N355 G0 Z2.3
N360 X36.439
N365 G1 Z0.6 F50
N370 G3 Y68.615 Z0.3 J0.3
N375 G1 Y68.765
N380 G17 G3 X36.139 Y69.065 I-0.3
N385 Y66.065 Z0.25 J-1.5 F800
N390 Y69.065 Z0.2 J1.5
N395 Y66.065 Z0.15 J-1.5
N400 Y69.065 Z0.1 J1.5
N405 Y66.065 Z0.05 J-1.5
N410 Y69.065 Z0 J1.5
N415 Y66.065 Z-0.05 J-1.5
N420 Y69.065 Z-0.1 J1.5
N425 Y66.065 Z-0.15 J-1.5
N430 Y69.065 Z-0.2 J1.5
N435 Y66.065 Z-0.25 J-1.5
N440 Y69.065 Z-0.3 J1.5
N445 Y66.065 Z-0.35 J-1.5
N450 Y69.065 Z-0.4 J1.5
N455 Y66.065 Z-0.45 J-1.5
N460 Y69.065 Z-0.5 J1.5
N465 Y66.065 Z-0.55 J-1.5
N470 Y69.065 Z-0.6 J1.5
N475 Y66.065 Z-0.65 J-1.5
N480 Y69.065 Z-0.7 J1.5
N485 Y66.065 Z-0.75 J-1.5
N490 Y69.065 Z-0.8 J1.5
N495 Y66.065 Z-0.85 J-1.5
N500 Y69.065 Z-0.9 J1.5
N505 Y66.065 Z-0.95 J-1.5
N510 Y69.065 Z-1 J1.5
N515 Y66.065 Z-1.05 J-1.5
N520 Y69.065 Z-1.1 J1.5
N525 Y66.065 Z-1.15 J-1.5
N530 Y69.065 Z-1.2 J1.5
N535 Y66.065 Z-1.25 J-1.5
N540 Y69.065 Z-1.3 J1.5
N545 Y66.065 Z-1.35 J-1.5
N550 Y69.065 Z-1.4 J1.5
N555 Y66.065 Z-1.45 J-1.5
N560 Y69.065 Z-1.5 J1.5
N565 Y66.065 Z-1.55 J-1.5
N570 Y69.065 Z-1.6 J1.5
N575 Y66.065 Z-1.65 J-1.5
N580 Y69.065 Z-1.7 J1.5
N585 Y66.065 Z-1.75 J-1.5
N590 Y69.065 Z-1.8 J1.5
N595 Y66.065 Z-1.85 J-1.5
N600 Y69.065 Z-1.9 J1.5
N605 Y66.065 Z-1.95 J-1.5
N610 Y69.065 Z-2 J1.5
N615 Y66.065 Z-2.05 J-1.5
N620 Y69.065 Z-2.1 J1.5
N625 Y66.065 Z-2.15 J-1.5
N630 Y69.065 Z-2.2 J1.5
N635 Y66.065 J-1.5
N640 Y69.065 J1.5
N645 X35.839 Y68.765 J-0.3
N650 G1 Y68.615
N655 G19 G2 Y68.315 Z-1.9 K0.3
N660 G0 Z2.3
N665 X36.439 Y95.185
N670 G1 Z0.6 F50
N675 G3 Y95.485 Z0.3 J0.3
N680 G1 Y95.635
N685 G17 G3 X36.139 Y95.935 I-0.3
N690 Y92.935 Z0.25 J-1.5 F800
N695 Y95.935 Z0.2 J1.5
N700 Y92.935 Z0.15 J-1.5
N705 Y95.935 Z0.1 J1.5
N710 Y92.935 Z0.05 J-1.5
N715 Y95.935 Z0 J1.5
N720 Y92.935 Z-0.05 J-1.5
N725 Y95.935 Z-0.1 J1.5
N730 Y92.935 Z-0.15 J-1.5
N735 Y95.935 Z-0.2 J1.5
N740 Y92.935 Z-0.25 J-1.5
N745 Y95.935 Z-0.3 J1.5
N750 Y92.935 Z-0.35 J-1.5
N755 Y95.935 Z-0.4 J1.5
N760 Y92.935 Z-0.45 J-1.5
N765 Y95.935 Z-0.5 J1.5
N770 Y92.935 Z-0.55 J-1.5
N775 Y95.935 Z-0.6 J1.5
N780 Y92.935 Z-0.65 J-1.5
N785 Y95.935 Z-0.7 J1.5
N790 Y92.935 Z-0.75 J-1.5
N795 Y95.935 Z-0.8 J1.5
N800 Y92.935 Z-0.85 J-1.5
N805 Y95.935 Z-0.9 J1.5
N810 Y92.935 Z-0.95 J-1.5
N815 Y95.935 Z-1 J1.5
N820 Y92.935 Z-1.05 J-1.5
N825 Y95.935 Z-1.1 J1.5
N830 Y92.935 Z-1.15 J-1.5
N835 Y95.935 Z-1.2 J1.5
N840 Y92.935 Z-1.25 J-1.5
N845 Y95.935 Z-1.3 J1.5
N850 Y92.935 Z-1.35 J-1.5
N855 Y95.935 Z-1.4 J1.5
N860 Y92.935 Z-1.45 J-1.5
N865 Y95.935 Z-1.5 J1.5
N870 Y92.935 Z-1.55 J-1.5
N875 Y95.935 Z-1.6 J1.5
N880 Y92.935 Z-1.65 J-1.5
N885 Y95.935 Z-1.7 J1.5
N890 Y92.935 Z-1.75 J-1.5
N895 Y95.935 Z-1.8 J1.5
N900 Y92.935 Z-1.85 J-1.5
N905 Y95.935 Z-1.9 J1.5
N910 Y92.935 Z-1.95 J-1.5
N915 Y95.935 Z-2 J1.5
N920 Y92.935 Z-2.05 J-1.5
N925 Y95.935 Z-2.1 J1.5
N930 Y92.935 Z-2.15 J-1.5
N935 Y95.935 Z-2.2 J1.5
N940 Y92.935 J-1.5
N945 Y95.935 J1.5
N950 X35.839 Y95.635 J-0.3
N955 G1 Y95.485
N960 G19 G2 Y95.185 Z-1.9 K0.3
N965 G0 Z2.3
N970 X63.31
N975 G1 Z0.6 F50
N980 G3 Y95.485 Z0.3 J0.3
N985 G1 Y95.635
N990 G17 G3 X63.01 Y95.935 I-0.3
N995 Y92.935 Z0.25 J-1.5 F800
N1000 Y95.935 Z0.2 J1.5
N1005 Y92.935 Z0.15 J-1.5
N1010 Y95.935 Z0.1 J1.5
N1015 Y92.935 Z0.05 J-1.5
N1020 Y95.935 Z0 J1.5
N1025 Y92.935 Z-0.05 J-1.5
N1030 Y95.935 Z-0.1 J1.5
N1035 Y92.935 Z-0.15 J-1.5
N1040 Y95.935 Z-0.2 J1.5
N1045 Y92.935 Z-0.25 J-1.5
N1050 Y95.935 Z-0.3 J1.5
N1055 Y92.935 Z-0.35 J-1.5
N1060 Y95.935 Z-0.4 J1.5
N1065 Y92.935 Z-0.45 J-1.5
N1070 Y95.935 Z-0.5 J1.5
N1075 Y92.935 Z-0.55 J-1.5
N1080 Y95.935 Z-0.6 J1.5
N1085 Y92.935 Z-0.65 J-1.5
N1090 Y95.935 Z-0.7 J1.5
N1095 Y92.935 Z-0.75 J-1.5
N1100 Y95.935 Z-0.8 J1.5
N1105 Y92.935 Z-0.85 J-1.5
N1110 Y95.935 Z-0.9 J1.5
N1115 Y92.935 Z-0.95 J-1.5
N1120 Y95.935 Z-1 J1.5
N1125 Y92.935 Z-1.05 J-1.5
N1130 Y95.935 Z-1.1 J1.5
N1135 Y92.935 Z-1.15 J-1.5
N1140 Y95.935 Z-1.2 J1.5
N1145 Y92.935 Z-1.25 J-1.5
N1150 Y95.935 Z-1.3 J1.5
N1155 Y92.935 Z-1.35 J-1.5
N1160 Y95.935 Z-1.4 J1.5
N1165 Y92.935 Z-1.45 J-1.5
N1170 Y95.935 Z-1.5 J1.5
N1175 Y92.935 Z-1.55 J-1.5
N1180 Y95.935 Z-1.6 J1.5
N1185 Y92.935 Z-1.65 J-1.5
N1190 Y95.935 Z-1.7 J1.5
N1195 Y92.935 Z-1.75 J-1.5
N1200 Y95.935 Z-1.8 J1.5
N1205 Y92.935 Z-1.85 J-1.5
N1210 Y95.935 Z-1.9 J1.5
N1215 Y92.935 Z-1.95 J-1.5
N1220 Y95.935 Z-2 J1.5
N1225 Y92.935 Z-2.05 J-1.5
N1230 Y95.935 Z-2.1 J1.5
N1235 Y92.935 Z-2.15 J-1.5
N1240 Y95.935 Z-2.2 J1.5
N1245 Y92.935 J-1.5
N1250 Y95.935 J1.5
N1255 X62.71 Y95.635 J-0.3
N1260 G1 Y95.485
N1265 G19 G2 Y95.185 Z-1.9 K0.3
N1270 G0 Z2.3
N1275 G17

(2D ????1)
N1280 G0 X60.56 Y38.828
N1285 G1 Z2.3 F100
N1290 Z0.5
N1295 X60.553 Z0.433 F50
N1300 X60.531 Z0.37
N1305 X60.495 Z0.313
N1310 X60.447 Z0.265
N1315 X60.391 Z0.23
N1320 X60.327 Z0.208
N1325 X60.26 Z0.2
N1330 X59.474 Y38.827
N1335 X47.841 Y38.81 F800
N1340 X39.679 Y38.823
N1345 G3 X39.479 Y38.624 J-0.2
N1350 G1 X39.475 Y36.371
N1355 G3 X39.675 Y36.171 I0.2
N1360 G1 X54.501 Y36.19
N1365 X59.466 Y36.181
N1370 G3 X59.666 Y36.381 J0.2
N1375 G1 X59.664 Y41.052
N1380 G3 X59.464 Y41.252 I-0.2
N1385 G1 X49.855
N1390 X45.463
N1395 X39.691
N1400 G3 X39.688 Y40.053 J-0.599
N1405 G1 X42.452 Y40.041
N1410 X42.515 Y40.044
N1415 X42.577 Y40.053
N1420 X45.463 Y40.653
N1425 G3 X45.939 Y41.196 I-0.122 J0.587
N1430 G1 X46.065 Y42.965
N1435 G3 X45.468 Y43.607 I-0.598 J0.043
N1440 G1 X39.679 Y43.615
N1445 G3 X39.675 Y42.416 I-0.001 J-0.599
N1450 G1 X42.448 Y42.4
N1455 X42.51 Y42.403
N1460 X42.572 Y42.412
N1465 X45.468 Y43.007
N1470 G3 X45.945 Y43.555 I-0.121 J0.587
N1475 G1 X46.066 Y45.412
N1480 G3 X45.468 Y46.05 I-0.598 J0.039
N1485 G1 X39.678
N1490 G3 X39.478 Y45.85 J-0.2
N1495 G1 X39.485 Y33.948
N1500 G3 X39.685 Y33.748 I0.2
N1505 G1 X59.458
N1510 G3 X59.658 Y33.948 J0.2
N1515 G1 X59.672 Y43.418
N1520 G3 X59.471 Y43.618 I-0.2
N1525 G1 X48.489 Y43.604
N1530 G3 X48.49 Y42.406 I0.001 J-0.599
N1535 G1 X53.916 Y42.409
N1540 X53.938
N1545 X53.96 Y42.411
N1550 X53.982 Y42.413
N1555 X59.472 Y43.019
N1560 G3 X60.005 Y43.595 I-0.066 J0.596
N1565 G1 X60.065 Y45.431
N1570 G3 X59.466 Y46.05 I-0.599 J0.019
N1575 G1 X47.067
N1580 X47.013 Y46.043
N1585 X46.963 Y46.021
N1590 X46.921 Y45.986
N1595 X46.889 Y45.942
N1600 X39.5 Y31.643
N1605 G3 X39.678 Y31.352 I0.178 J-0.092
N1610 G1 X59.468
N1615 G2 X59.484 Y30.952 J-0.2
N1620 G1 X39.667 Y29.349
N1625 G3 X39.683 Y28.95 I0.016 J-0.199
N1630 G1 X45.471
N1635 X45.494 Y28.954
N1640 X45.513 Y28.965
N1645 X45.528 Y28.981
N1650 X45.617 Y29.122
N1655 X45.632 Y29.138
N1660 X45.652 Y29.149
N1665 X45.674 Y29.153
N1670 X50.115
N1675 X50.137 Y29.149
N1680 X50.157 Y29.138
N1685 X50.172 Y29.122
N1690 X50.261 Y28.981
N1695 X50.276 Y28.965
N1700 X50.296 Y28.954
N1705 X50.318 Y28.95
N1710 X59.471
N1715 G3 X60.896 Y30.374 Z0.181 J1.425 F100
N1720 G1 X60.901 Y37.401 Z0.119
N1725 G3 X59.474 Y38.827 Z0.1 I-1.425 J0.001
N1730 G1 X47.841 Y38.81 F800
N1735 X39.679 Y38.823
N1740 G3 X39.479 Y38.624 J-0.2
N1745 G1 X39.475 Y36.371
N1750 G3 X39.675 Y36.171 I0.2
N1755 G1 X54.501 Y36.19
N1760 X59.466 Y36.181
N1765 G3 X59.666 Y36.381 J0.2
N1770 G1 X59.664 Y41.052
N1775 G3 X59.464 Y41.252 I-0.2
N1780 G1 X49.855
N1785 X45.463
N1790 X39.691
N1795 G3 X39.688 Y40.053 J-0.599
N1800 G1 X42.452 Y40.041
N1805 X42.515 Y40.044
N1810 X42.577 Y40.053
N1815 X45.463 Y40.653
N1820 G3 X45.939 Y41.196 I-0.122 J0.587
N1825 G1 X46.065 Y42.965
N1830 G3 X45.468 Y43.607 I-0.598 J0.043
N1835 G1 X39.679 Y43.615
N1840 G3 X39.675 Y42.416 I-0.001 J-0.599
N1845 G1 X42.448 Y42.4
N1850 X42.51 Y42.403
N1855 X42.572 Y42.412
N1860 X45.468 Y43.007
N1865 G3 X45.945 Y43.555 I-0.121 J0.587
N1870 G1 X46.066 Y45.412
N1875 G3 X45.468 Y46.05 I-0.598 J0.039
N1880 G1 X39.678
N1885 G3 X39.478 Y45.85 J-0.2
N1890 G1 X39.485 Y33.948
N1895 G3 X39.685 Y33.748 I0.2
N1900 G1 X59.458
N1905 G3 X59.658 Y33.948 J0.2
N1910 G1 X59.672 Y43.418
N1915 G3 X59.471 Y43.618 I-0.2
N1920 G1 X48.489 Y43.604
N1925 G3 X48.49 Y42.406 I0.001 J-0.599
N1930 G1 X53.916 Y42.409
N1935 X53.938
N1940 X53.96 Y42.411
N1945 X53.982 Y42.413
N1950 X59.472 Y43.019
N1955 G3 X60.005 Y43.595 I-0.066 J0.596
N1960 G1 X60.065 Y45.431
N1965 G3 X59.466 Y46.05 I-0.599 J0.019
N1970 G1 X47.067
N1975 X47.013 Y46.043
N1980 X46.963 Y46.021
N1985 X46.921 Y45.986
N1990 X46.889 Y45.942
N1995 X39.5 Y31.643
N2000 G3 X39.678 Y31.352 I0.178 J-0.092
N2005 G1 X59.468
N2010 G2 X59.484 Y30.952 J-0.2
N2015 G1 X39.667 Y29.349
N2020 G3 X39.683 Y28.95 I0.016 J-0.199
N2025 G1 X45.471
N2030 X45.494 Y28.954
N2035 X45.513 Y28.965
N2040 X45.528 Y28.981
N2045 X45.617 Y29.122
N2050 X45.632 Y29.138
N2055 X45.652 Y29.149
N2060 X45.674 Y29.153
N2065 X50.115
N2070 X50.137 Y29.149
N2075 X50.157 Y29.138
N2080 X50.172 Y29.122
N2085 X50.261 Y28.981
N2090 X50.276 Y28.965
N2095 X50.296 Y28.954
N2100 X50.318 Y28.95
N2105 X59.471
N2110 G3 X60.896 Y30.374 Z0.081 J1.425 F100
N2115 G1 X60.901 Y37.401 Z0.019
N2120 G3 X59.474 Y38.827 Z0 I-1.425 J0.001
N2125 G1 X47.841 Y38.81 F800
N2130 X39.679 Y38.823
N2135 G3 X39.479 Y38.624 J-0.2
N2140 G1 X39.475 Y36.371
N2145 G3 X39.675 Y36.171 I0.2
N2150 G1 X54.501 Y36.19
N2155 X59.466 Y36.181
N2160 G3 X59.666 Y36.381 J0.2
N2165 G1 X59.664 Y41.052
N2170 G3 X59.464 Y41.252 I-0.2
N2175 G1 X49.855
N2180 X45.463
N2185 X39.691
N2190 G3 X39.688 Y40.053 J-0.599
N2195 G1 X42.452 Y40.041
N2200 X42.515 Y40.044
N2205 X42.577 Y40.053
N2210 X45.463 Y40.653
N2215 G3 X45.939 Y41.196 I-0.122 J0.587
N2220 G1 X46.065 Y42.965
N2225 G3 X45.468 Y43.607 I-0.598 J0.043
N2230 G1 X39.679 Y43.615
N2235 G3 X39.675 Y42.416 I-0.001 J-0.599
N2240 G1 X42.448 Y42.4
N2245 X42.51 Y42.403
N2250 X42.572 Y42.412
N2255 X45.468 Y43.007
N2260 G3 X45.945 Y43.555 I-0.121 J0.587
N2265 G1 X46.066 Y45.412
N2270 G3 X45.468 Y46.05 I-0.598 J0.039
N2275 G1 X39.678
N2280 G3 X39.478 Y45.85 J-0.2
N2285 G1 X39.485 Y33.948
N2290 G3 X39.685 Y33.748 I0.2
N2295 G1 X59.458
N2300 G3 X59.658 Y33.948 J0.2
N2305 G1 X59.672 Y43.418
N2310 G3 X59.471 Y43.618 I-0.2
N2315 G1 X48.489 Y43.604
N2320 G3 X48.49 Y42.406 I0.001 J-0.599
N2325 G1 X53.916 Y42.409
N2330 X53.938
N2335 X53.96 Y42.411
N2340 X53.982 Y42.413
N2345 X59.472 Y43.019
N2350 G3 X60.005 Y43.595 I-0.066 J0.596
N2355 G1 X60.065 Y45.431
N2360 G3 X59.466 Y46.05 I-0.599 J0.019
N2365 G1 X47.067
N2370 X47.013 Y46.043
N2375 X46.963 Y46.021
N2380 X46.921 Y45.986
N2385 X46.889 Y45.942
N2390 X39.5 Y31.643
N2395 G3 X39.678 Y31.352 I0.178 J-0.092
N2400 G1 X59.468
N2405 G2 X59.484 Y30.952 J-0.2
N2410 G1 X39.667 Y29.349
N2415 G3 X39.683 Y28.95 I0.016 J-0.199
N2420 G1 X45.471
N2425 X45.494 Y28.954
N2430 X45.513 Y28.965
N2435 X45.528 Y28.981
N2440 X45.617 Y29.122
N2445 X45.632 Y29.138
N2450 X45.652 Y29.149
N2455 X45.674 Y29.153
N2460 X50.115
N2465 X50.137 Y29.149
N2470 X50.157 Y29.138
N2475 X50.172 Y29.122
N2480 X50.261 Y28.981
N2485 X50.276 Y28.965
N2490 X50.296 Y28.954
N2495 X50.318 Y28.95
N2500 X59.471
N2505 G3 X60.896 Y30.374 Z-0.019 J1.425 F100
N2510 G1 X60.901 Y37.401 Z-0.081
N2515 G3 X59.474 Y38.827 Z-0.1 I-1.425 J0.001
N2520 G1 X47.841 Y38.81 F800
N2525 X39.679 Y38.823
N2530 G3 X39.479 Y38.624 J-0.2
N2535 G1 X39.475 Y36.371
N2540 G3 X39.675 Y36.171 I0.2
N2545 G1 X54.501 Y36.19
N2550 X59.466 Y36.181
N2555 G3 X59.666 Y36.381 J0.2
N2560 G1 X59.664 Y41.052
N2565 G3 X59.464 Y41.252 I-0.2
N2570 G1 X49.855
N2575 X45.463
N2580 X39.691
N2585 G3 X39.688 Y40.053 J-0.599
N2590 G1 X42.452 Y40.041
N2595 X42.515 Y40.044
N2600 X42.577 Y40.053
N2605 X45.463 Y40.653
N2610 G3 X45.939 Y41.196 I-0.122 J0.587
N2615 G1 X46.065 Y42.965
N2620 G3 X45.468 Y43.607 I-0.598 J0.043
N2625 G1 X39.679 Y43.615
N2630 G3 X39.675 Y42.416 I-0.001 J-0.599
N2635 G1 X42.448 Y42.4
N2640 X42.51 Y42.403
N2645 X42.572 Y42.412
N2650 X45.468 Y43.007
N2655 G3 X45.945 Y43.555 I-0.121 J0.587
N2660 G1 X46.066 Y45.412
N2665 G3 X45.468 Y46.05 I-0.598 J0.039
N2670 G1 X39.678
N2675 G3 X39.478 Y45.85 J-0.2
N2680 G1 X39.485 Y33.948
N2685 G3 X39.685 Y33.748 I0.2
N2690 G1 X59.458
N2695 G3 X59.658 Y33.948 J0.2
N2700 G1 X59.672 Y43.418
N2705 G3 X59.471 Y43.618 I-0.2
N2710 G1 X48.489 Y43.604
N2715 G3 X48.49 Y42.406 I0.001 J-0.599
N2720 G1 X53.916 Y42.409
N2725 X53.938
N2730 X53.96 Y42.411
N2735 X53.982 Y42.413
N2740 X59.472 Y43.019
N2745 G3 X60.005 Y43.595 I-0.066 J0.596
N2750 G1 X60.065 Y45.431
N2755 G3 X59.466 Y46.05 I-0.599 J0.019
N2760 G1 X47.067
N2765 X47.013 Y46.043
N2770 X46.963 Y46.021
N2775 X46.921 Y45.986
N2780 X46.889 Y45.942
N2785 X39.5 Y31.643
N2790 G3 X39.678 Y31.352 I0.178 J-0.092
N2795 G1 X59.468
N2800 G2 X59.484 Y30.952 J-0.2
N2805 G1 X39.667 Y29.349
N2810 G3 X39.683 Y28.95 I0.016 J-0.199
N2815 G1 X45.471
N2820 X45.494 Y28.954
N2825 X45.513 Y28.965
N2830 X45.528 Y28.981
N2835 X45.617 Y29.122
N2840 X45.632 Y29.138
N2845 X45.652 Y29.149
N2850 X45.674 Y29.153
N2855 X50.115
N2860 X50.137 Y29.149
N2865 X50.157 Y29.138
N2870 X50.172 Y29.122
N2875 X50.261 Y28.981
N2880 X50.276 Y28.965
N2885 X50.296 Y28.954
N2890 X50.318 Y28.95
N2895 X59.471
N2900 G3 X60.896 Y30.374 Z-0.119 J1.425 F100
N2905 G1 X60.901 Y37.401 Z-0.181
N2910 G3 X59.474 Y38.827 Z-0.2 I-1.425 J0.001
N2915 G1 X47.841 Y38.81 F800
N2920 X39.679 Y38.823
N2925 G3 X39.479 Y38.624 J-0.2
N2930 G1 X39.475 Y36.371
N2935 G3 X39.675 Y36.171 I0.2
N2940 G1 X54.501 Y36.19
N2945 X59.466 Y36.181
N2950 G3 X59.666 Y36.381 J0.2
N2955 G1 X59.664 Y41.052
N2960 G3 X59.464 Y41.252 I-0.2
N2965 G1 X49.855
N2970 X45.463
N2975 X39.691
N2980 G3 X39.688 Y40.053 J-0.599
N2985 G1 X42.452 Y40.041
N2990 X42.515 Y40.044
N2995 X42.577 Y40.053
N3000 X45.463 Y40.653
N3005 G3 X45.939 Y41.196 I-0.122 J0.587
N3010 G1 X46.065 Y42.965
N3015 G3 X45.468 Y43.607 I-0.598 J0.043
N3020 G1 X39.679 Y43.615
N3025 G3 X39.675 Y42.416 I-0.001 J-0.599
N3030 G1 X42.448 Y42.4
N3035 X42.51 Y42.403
N3040 X42.572 Y42.412
N3045 X45.468 Y43.007
N3050 G3 X45.945 Y43.555 I-0.121 J0.587
N3055 G1 X46.066 Y45.412
N3060 G3 X45.468 Y46.05 I-0.598 J0.039
N3065 G1 X39.678
N3070 G3 X39.478 Y45.85 J-0.2
N3075 G1 X39.485 Y33.948
N3080 G3 X39.685 Y33.748 I0.2
N3085 G1 X59.458
N3090 G3 X59.658 Y33.948 J0.2
N3095 G1 X59.672 Y43.418
N3100 G3 X59.471 Y43.618 I-0.2
N3105 G1 X48.489 Y43.604
N3110 G3 X48.49 Y42.406 I0.001 J-0.599
N3115 G1 X53.916 Y42.409
N3120 X53.938
N3125 X53.96 Y42.411
N3130 X53.982 Y42.413
N3135 X59.472 Y43.019
N3140 G3 X60.005 Y43.595 I-0.066 J0.596
N3145 G1 X60.065 Y45.431
N3150 G3 X59.466 Y46.05 I-0.599 J0.019
N3155 G1 X47.067
N3160 X47.013 Y46.043
N3165 X46.963 Y46.021
N3170 X46.921 Y45.986
N3175 X46.889 Y45.942
N3180 X39.5 Y31.643
N3185 G3 X39.678 Y31.352 I0.178 J-0.092
N3190 G1 X59.468
N3195 G2 X59.484 Y30.952 J-0.2
N3200 G1 X39.667 Y29.349
N3205 G3 X39.683 Y28.95 I0.016 J-0.199
N3210 G1 X45.471
N3215 X45.494 Y28.954
N3220 X45.513 Y28.965
N3225 X45.528 Y28.981
N3230 X45.617 Y29.122
N3235 X45.632 Y29.138
N3240 X45.652 Y29.149
N3245 X45.674 Y29.153
N3250 X50.115
N3255 X50.137 Y29.149
N3260 X50.157 Y29.138
N3265 X50.172 Y29.122
N3270 X50.261 Y28.981
N3275 X50.276 Y28.965
N3280 X50.296 Y28.954
N3285 X50.318 Y28.95
N3290 X59.471
N3295 G3 X60.896 Y30.374 Z-0.219 J1.425 F100
N3300 G1 X60.901 Y37.401 Z-0.281
N3305 G3 X59.474 Y38.827 Z-0.3 I-1.425 J0.001
N3310 G1 X47.841 Y38.81 F800
N3315 X39.679 Y38.823
N3320 G3 X39.479 Y38.624 J-0.2
N3325 G1 X39.475 Y36.371
N3330 G3 X39.675 Y36.171 I0.2
N3335 G1 X54.501 Y36.19
N3340 X59.466 Y36.181
N3345 G3 X59.666 Y36.381 J0.2
N3350 G1 X59.664 Y41.052
N3355 G3 X59.464 Y41.252 I-0.2
N3360 G1 X49.855
N3365 X45.463
N3370 X39.691
N3375 G3 X39.688 Y40.053 J-0.599
N3380 G1 X42.452 Y40.041
N3385 X42.515 Y40.044
N3390 X42.577 Y40.053
N3395 X45.463 Y40.653
N3400 G3 X45.939 Y41.196 I-0.122 J0.587
N3405 G1 X46.065 Y42.965
N3410 G3 X45.468 Y43.607 I-0.598 J0.043
N3415 G1 X39.679 Y43.615
N3420 G3 X39.675 Y42.416 I-0.001 J-0.599
N3425 G1 X42.448 Y42.4
N3430 X42.51 Y42.403
N3435 X42.572 Y42.412
N3440 X45.468 Y43.007
N3445 G3 X45.945 Y43.555 I-0.121 J0.587
N3450 G1 X46.066 Y45.412
N3455 G3 X45.468 Y46.05 I-0.598 J0.039
N3460 G1 X39.678
N3465 G3 X39.478 Y45.85 J-0.2
N3470 G1 X39.485 Y33.948
N3475 G3 X39.685 Y33.748 I0.2
N3480 G1 X59.458
N3485 G3 X59.658 Y33.948 J0.2
N3490 G1 X59.672 Y43.418
N3495 G3 X59.471 Y43.618 I-0.2
N3500 G1 X48.489 Y43.604
N3505 G3 X48.49 Y42.406 I0.001 J-0.599
N3510 G1 X53.916 Y42.409
N3515 X53.938
N3520 X53.96 Y42.411
N3525 X53.982 Y42.413
N3530 X59.472 Y43.019
N3535 G3 X60.005 Y43.595 I-0.066 J0.596
N3540 G1 X60.065 Y45.431
N3545 G3 X59.466 Y46.05 I-0.599 J0.019
N3550 G1 X47.067
N3555 X47.013 Y46.043
N3560 X46.963 Y46.021
N3565 X46.921 Y45.986
N3570 X46.889 Y45.942
N3575 X39.5 Y31.643
N3580 G3 X39.678 Y31.352 I0.178 J-0.092
N3585 G1 X59.468
N3590 G2 X59.484 Y30.952 J-0.2
N3595 G1 X39.667 Y29.349
N3600 G3 X39.683 Y28.95 I0.016 J-0.199
N3605 G1 X45.471
N3610 X45.494 Y28.954
N3615 X45.513 Y28.965
N3620 X45.528 Y28.981
N3625 X45.617 Y29.122
N3630 X45.632 Y29.138
N3635 X45.652 Y29.149
N3640 X45.674 Y29.153
N3645 X50.115
N3650 X50.137 Y29.149
N3655 X50.157 Y29.138
N3660 X50.172 Y29.122
N3665 X50.261 Y28.981
N3670 X50.276 Y28.965
N3675 X50.296 Y28.954
N3680 X50.318 Y28.95
N3685 X59.471
N3690 G3 X60.896 Y30.374 Z-0.319 J1.425 F100
N3695 G1 X60.901 Y37.401 Z-0.381
N3700 G3 X59.474 Y38.827 Z-0.4 I-1.425 J0.001
N3705 G1 X47.841 Y38.81 F800
N3710 X39.679 Y38.823
N3715 G3 X39.479 Y38.624 J-0.2
N3720 G1 X39.475 Y36.371
N3725 G3 X39.675 Y36.171 I0.2
N3730 G1 X54.501 Y36.19
N3735 X59.466 Y36.181
N3740 G3 X59.666 Y36.381 J0.2
N3745 G1 X59.664 Y41.052
N3750 G3 X59.464 Y41.252 I-0.2
N3755 G1 X49.855
N3760 X45.463
N3765 X39.691
N3770 G3 X39.688 Y40.053 J-0.599
N3775 G1 X42.452 Y40.041
N3780 X42.515 Y40.044
N3785 X42.577 Y40.053
N3790 X45.463 Y40.653
N3795 G3 X45.939 Y41.196 I-0.122 J0.587
N3800 G1 X46.065 Y42.965
N3805 G3 X45.468 Y43.607 I-0.598 J0.043
N3810 G1 X39.679 Y43.615
N3815 G3 X39.675 Y42.416 I-0.001 J-0.599
N3820 G1 X42.448 Y42.4
N3825 X42.51 Y42.403
N3830 X42.572 Y42.412
N3835 X45.468 Y43.007
N3840 G3 X45.945 Y43.555 I-0.121 J0.587
N3845 G1 X46.066 Y45.412
N3850 G3 X45.468 Y46.05 I-0.598 J0.039
N3855 G1 X39.678
N3860 G3 X39.478 Y45.85 J-0.2
N3865 G1 X39.485 Y33.948
N3870 G3 X39.685 Y33.748 I0.2
N3875 G1 X59.458
N3880 G3 X59.658 Y33.948 J0.2
N3885 G1 X59.672 Y43.418
N3890 G3 X59.471 Y43.618 I-0.2
N3895 G1 X48.489 Y43.604
N3900 G3 X48.49 Y42.406 I0.001 J-0.599
N3905 G1 X53.916 Y42.409
N3910 X53.938
N3915 X53.96 Y42.411
N3920 X53.982 Y42.413
N3925 X59.472 Y43.019
N3930 G3 X60.005 Y43.595 I-0.066 J0.596
N3935 G1 X60.065 Y45.431
N3940 G3 X59.466 Y46.05 I-0.599 J0.019
N3945 G1 X47.067
N3950 X47.013 Y46.043
N3955 X46.963 Y46.021
N3960 X46.921 Y45.986
N3965 X46.889 Y45.942
N3970 X39.5 Y31.643
N3975 G3 X39.678 Y31.352 I0.178 J-0.092
N3980 G1 X59.468
N3985 G2 X59.484 Y30.952 J-0.2
N3990 G1 X39.667 Y29.349
N3995 G3 X39.683 Y28.95 I0.016 J-0.199
N4000 G1 X45.471
N4005 X45.494 Y28.954
N4010 X45.513 Y28.965
N4015 X45.528 Y28.981
N4020 X45.617 Y29.122
N4025 X45.632 Y29.138
N4030 X45.652 Y29.149
N4035 X45.674 Y29.153
N4040 X50.115
N4045 X50.137 Y29.149
N4050 X50.157 Y29.138
N4055 X50.172 Y29.122
N4060 X50.261 Y28.981
N4065 X50.276 Y28.965
N4070 X50.296 Y28.954
N4075 X50.318 Y28.95
N4080 X59.471
N4085 G3 X60.896 Y30.374 Z-0.419 J1.425 F100
N4090 G1 X60.901 Y37.401 Z-0.481
N4095 G3 X59.474 Y38.827 Z-0.5 I-1.425 J0.001
N4100 G1 X47.841 Y38.81 F800
N4105 X39.679 Y38.823
N4110 G3 X39.479 Y38.624 J-0.2
N4115 G1 X39.475 Y36.371
N4120 G3 X39.675 Y36.171 I0.2
N4125 G1 X54.501 Y36.19
N4130 X59.466 Y36.181
N4135 G3 X59.666 Y36.381 J0.2
N4140 G1 X59.664 Y41.052
N4145 G3 X59.464 Y41.252 I-0.2
N4150 G1 X49.855
N4155 X45.463
N4160 X39.691
N4165 G3 X39.688 Y40.053 J-0.599
N4170 G1 X42.452 Y40.041
N4175 X42.515 Y40.044
N4180 X42.577 Y40.053
N4185 X45.463 Y40.653
N4190 G3 X45.939 Y41.196 I-0.122 J0.587
N4195 G1 X46.065 Y42.965
N4200 G3 X45.468 Y43.607 I-0.598 J0.043
N4205 G1 X39.679 Y43.615
N4210 G3 X39.675 Y42.416 I-0.001 J-0.599
N4215 G1 X42.448 Y42.4
N4220 X42.51 Y42.403
N4225 X42.572 Y42.412
N4230 X45.468 Y43.007
N4235 G3 X45.945 Y43.555 I-0.121 J0.587
N4240 G1 X46.066 Y45.412
N4245 G3 X45.468 Y46.05 I-0.598 J0.039
N4250 G1 X39.678
N4255 G3 X39.478 Y45.85 J-0.2
N4260 G1 X39.485 Y33.948
N4265 G3 X39.685 Y33.748 I0.2
N4270 G1 X59.458
N4275 G3 X59.658 Y33.948 J0.2
N4280 G1 X59.672 Y43.418
N4285 G3 X59.471 Y43.618 I-0.2
N4290 G1 X48.489 Y43.604
N4295 G3 X48.49 Y42.406 I0.001 J-0.599
N4300 G1 X53.916 Y42.409
N4305 X53.938
N4310 X53.96 Y42.411
N4315 X53.982 Y42.413
N4320 X59.472 Y43.019
N4325 G3 X60.005 Y43.595 I-0.066 J0.596
N4330 G1 X60.065 Y45.431
N4335 G3 X59.466 Y46.05 I-0.599 J0.019
N4340 G1 X47.067
N4345 X47.013 Y46.043
N4350 X46.963 Y46.021
N4355 X46.921 Y45.986
N4360 X46.889 Y45.942
N4365 X39.5 Y31.643
N4370 G3 X39.678 Y31.352 I0.178 J-0.092
N4375 G1 X59.468
N4380 G2 X59.484 Y30.952 J-0.2
N4385 G1 X39.667 Y29.349
N4390 G3 X39.683 Y28.95 I0.016 J-0.199
N4395 G1 X45.471
N4400 X45.494 Y28.954
N4405 X45.513 Y28.965
N4410 X45.528 Y28.981
N4415 X45.617 Y29.122
N4420 X45.632 Y29.138
N4425 X45.652 Y29.149
N4430 X45.674 Y29.153
N4435 X50.115
N4440 X50.137 Y29.149
N4445 X50.157 Y29.138
N4450 X50.172 Y29.122
N4455 X50.261 Y28.981
N4460 X50.276 Y28.965
N4465 X50.296 Y28.954
N4470 X50.318 Y28.95
N4475 X59.471
N4480 G3 X60.896 Y30.374 Z-0.519 J1.425 F100
N4485 G1 X60.901 Y37.401 Z-0.581
N4490 G3 X59.474 Y38.827 Z-0.6 I-1.425 J0.001
N4495 G1 X47.841 Y38.81 F800
N4500 X39.679 Y38.823
N4505 G3 X39.479 Y38.624 J-0.2
N4510 G1 X39.475 Y36.371
N4515 G3 X39.675 Y36.171 I0.2
N4520 G1 X54.501 Y36.19
N4525 X59.466 Y36.181
N4530 G3 X59.666 Y36.381 J0.2
N4535 G1 X59.664 Y41.052
N4540 G3 X59.464 Y41.252 I-0.2
N4545 G1 X49.855
N4550 X45.463
N4555 X39.691
N4560 G3 X39.688 Y40.053 J-0.599
N4565 G1 X42.452 Y40.041
N4570 X42.515 Y40.044
N4575 X42.577 Y40.053
N4580 X45.463 Y40.653
N4585 G3 X45.939 Y41.196 I-0.122 J0.587
N4590 G1 X46.065 Y42.965
N4595 G3 X45.468 Y43.607 I-0.598 J0.043
N4600 G1 X39.679 Y43.615
N4605 G3 X39.675 Y42.416 I-0.001 J-0.599
N4610 G1 X42.448 Y42.4
N4615 X42.51 Y42.403
N4620 X42.572 Y42.412
N4625 X45.468 Y43.007
N4630 G3 X45.945 Y43.555 I-0.121 J0.587
N4635 G1 X46.066 Y45.412
N4640 G3 X45.468 Y46.05 I-0.598 J0.039
N4645 G1 X39.678
N4650 G3 X39.478 Y45.85 J-0.2
N4655 G1 X39.485 Y33.948
N4660 G3 X39.685 Y33.748 I0.2
N4665 G1 X59.458
N4670 G3 X59.658 Y33.948 J0.2
N4675 G1 X59.672 Y43.418
N4680 G3 X59.471 Y43.618 I-0.2
N4685 G1 X48.489 Y43.604
N4690 G3 X48.49 Y42.406 I0.001 J-0.599
N4695 G1 X53.916 Y42.409
N4700 X53.938
N4705 X53.96 Y42.411
N4710 X53.982 Y42.413
N4715 X59.472 Y43.019
N4720 G3 X60.005 Y43.595 I-0.066 J0.596
N4725 G1 X60.065 Y45.431
N4730 G3 X59.466 Y46.05 I-0.599 J0.019
N4735 G1 X47.067
N4740 X47.013 Y46.043
N4745 X46.963 Y46.021
N4750 X46.921 Y45.986
N4755 X46.889 Y45.942
N4760 X39.5 Y31.643
N4765 G3 X39.678 Y31.352 I0.178 J-0.092
N4770 G1 X59.468
N4775 G2 X59.484 Y30.952 J-0.2
N4780 G1 X39.667 Y29.349
N4785 G3 X39.683 Y28.95 I0.016 J-0.199
N4790 G1 X45.471
N4795 X45.494 Y28.954
N4800 X45.513 Y28.965
N4805 X45.528 Y28.981
N4810 X45.617 Y29.122
N4815 X45.632 Y29.138
N4820 X45.652 Y29.149
N4825 X45.674 Y29.153
N4830 X50.115
N4835 X50.137 Y29.149
N4840 X50.157 Y29.138
N4845 X50.172 Y29.122
N4850 X50.261 Y28.981
N4855 X50.276 Y28.965
N4860 X50.296 Y28.954
N4865 X50.318 Y28.95
N4870 X59.471
N4875 G3 X60.896 Y30.374 Z-0.619 J1.425 F100
N4880 G1 X60.901 Y37.401 Z-0.681
N4885 G3 X59.474 Y38.827 Z-0.7 I-1.425 J0.001
N4890 G1 X47.841 Y38.81 F800
N4895 X39.679 Y38.823
N4900 G3 X39.479 Y38.624 J-0.2
N4905 G1 X39.475 Y36.371
N4910 G3 X39.675 Y36.171 I0.2
N4915 G1 X54.501 Y36.19
N4920 X59.466 Y36.181
N4925 G3 X59.666 Y36.381 J0.2
N4930 G1 X59.664 Y41.052
N4935 G3 X59.464 Y41.252 I-0.2
N4940 G1 X49.855
N4945 X45.463
N4950 X39.691
N4955 G3 X39.688 Y40.053 J-0.599
N4960 G1 X42.452 Y40.041
N4965 X42.515 Y40.044
N4970 X42.577 Y40.053
N4975 X45.463 Y40.653
N4980 G3 X45.939 Y41.196 I-0.122 J0.587
N4985 G1 X46.065 Y42.965
N4990 G3 X45.468 Y43.607 I-0.598 J0.043
N4995 G1 X39.679 Y43.615
N5000 G3 X39.675 Y42.416 I-0.001 J-0.599
N5005 G1 X42.448 Y42.4
N5010 X42.51 Y42.403
N5015 X42.572 Y42.412
N5020 X45.468 Y43.007
N5025 G3 X45.945 Y43.555 I-0.121 J0.587
N5030 G1 X46.066 Y45.412
N5035 G3 X45.468 Y46.05 I-0.598 J0.039
N5040 G1 X39.678
N5045 G3 X39.478 Y45.85 J-0.2
N5050 G1 X39.485 Y33.948
N5055 G3 X39.685 Y33.748 I0.2
N5060 G1 X59.458
N5065 G3 X59.658 Y33.948 J0.2
N5070 G1 X59.672 Y43.418
N5075 G3 X59.471 Y43.618 I-0.2
N5080 G1 X48.489 Y43.604
N5085 G3 X48.49 Y42.406 I0.001 J-0.599
N5090 G1 X53.916 Y42.409
N5095 X53.938
N5100 X53.96 Y42.411
N5105 X53.982 Y42.413
N5110 X59.472 Y43.019
N5115 G3 X60.005 Y43.595 I-0.066 J0.596
N5120 G1 X60.065 Y45.431
N5125 G3 X59.466 Y46.05 I-0.599 J0.019
N5130 G1 X47.067
N5135 X47.013 Y46.043
N5140 X46.963 Y46.021
N5145 X46.921 Y45.986
N5150 X46.889 Y45.942
N5155 X39.5 Y31.643
N5160 G3 X39.678 Y31.352 I0.178 J-0.092
N5165 G1 X59.468
N5170 G2 X59.484 Y30.952 J-0.2
N5175 G1 X39.667 Y29.349
N5180 G3 X39.683 Y28.95 I0.016 J-0.199
N5185 G1 X45.471
N5190 X45.494 Y28.954
N5195 X45.513 Y28.965
N5200 X45.528 Y28.981
N5205 X45.617 Y29.122
N5210 X45.632 Y29.138
N5215 X45.652 Y29.149
N5220 X45.674 Y29.153
N5225 X50.115
N5230 X50.137 Y29.149
N5235 X50.157 Y29.138
N5240 X50.172 Y29.122
N5245 X50.261 Y28.981
N5250 X50.276 Y28.965
N5255 X50.296 Y28.954
N5260 X50.318 Y28.95
N5265 X59.471
N5270 G3 X60.896 Y30.374 Z-0.719 J1.425 F100
N5275 G1 X60.901 Y37.401 Z-0.781
N5280 G3 X59.474 Y38.827 Z-0.8 I-1.425 J0.001
N5285 G1 X47.841 Y38.81 F800
N5290 X39.679 Y38.823
N5295 G3 X39.479 Y38.624 J-0.2
N5300 G1 X39.475 Y36.371
N5305 G3 X39.675 Y36.171 I0.2
N5310 G1 X54.501 Y36.19
N5315 X59.466 Y36.181
N5320 G3 X59.666 Y36.381 J0.2
N5325 G1 X59.664 Y41.052
N5330 G3 X59.464 Y41.252 I-0.2
N5335 G1 X49.855
N5340 X45.463
N5345 X39.691
N5350 G3 X39.688 Y40.053 J-0.599
N5355 G1 X42.452 Y40.041
N5360 X42.515 Y40.044
N5365 X42.577 Y40.053
N5370 X45.463 Y40.653
N5375 G3 X45.939 Y41.196 I-0.122 J0.587
N5380 G1 X46.065 Y42.965
N5385 G3 X45.468 Y43.607 I-0.598 J0.043
N5390 G1 X39.679 Y43.615
N5395 G3 X39.675 Y42.416 I-0.001 J-0.599
N5400 G1 X42.448 Y42.4
N5405 X42.51 Y42.403
N5410 X42.572 Y42.412
N5415 X45.468 Y43.007
N5420 G3 X45.945 Y43.555 I-0.121 J0.587
N5425 G1 X46.066 Y45.412
N5430 G3 X45.468 Y46.05 I-0.598 J0.039
N5435 G1 X39.678
N5440 G3 X39.478 Y45.85 J-0.2
N5445 G1 X39.485 Y33.948
N5450 G3 X39.685 Y33.748 I0.2
N5455 G1 X59.458
N5460 G3 X59.658 Y33.948 J0.2
N5465 G1 X59.672 Y43.418
N5470 G3 X59.471 Y43.618 I-0.2
N5475 G1 X48.489 Y43.604
N5480 G3 X48.49 Y42.406 I0.001 J-0.599
N5485 G1 X53.916 Y42.409
N5490 X53.938
N5495 X53.96 Y42.411
N5500 X53.982 Y42.413
N5505 X59.472 Y43.019
N5510 G3 X60.005 Y43.595 I-0.066 J0.596
N5515 G1 X60.065 Y45.431
N5520 G3 X59.466 Y46.05 I-0.599 J0.019
N5525 G1 X47.067
N5530 X47.013 Y46.043
N5535 X46.963 Y46.021
N5540 X46.921 Y45.986
N5545 X46.889 Y45.942
N5550 X39.5 Y31.643
N5555 G3 X39.678 Y31.352 I0.178 J-0.092
N5560 G1 X59.468
N5565 G2 X59.484 Y30.952 J-0.2
N5570 G1 X39.667 Y29.349
N5575 G3 X39.683 Y28.95 I0.016 J-0.199
N5580 G1 X45.471
N5585 X45.494 Y28.954
N5590 X45.513 Y28.965
N5595 X45.528 Y28.981
N5600 X45.617 Y29.122
N5605 X45.632 Y29.138
N5610 X45.652 Y29.149
N5615 X45.674 Y29.153
N5620 X50.115
N5625 X50.137 Y29.149
N5630 X50.157 Y29.138
N5635 X50.172 Y29.122
N5640 X50.261 Y28.981
N5645 X50.276 Y28.965
N5650 X50.296 Y28.954
N5655 X50.318 Y28.95
N5660 X59.471
N5665 G3 X60.896 Y30.374 Z-0.819 J1.425 F100
N5670 G1 X60.901 Y37.401 Z-0.881
N5675 G3 X59.474 Y38.827 Z-0.9 I-1.425 J0.001
N5680 G1 X47.841 Y38.81 F800
N5685 X39.679 Y38.823
N5690 G3 X39.479 Y38.624 J-0.2
N5695 G1 X39.475 Y36.371
N5700 G3 X39.675 Y36.171 I0.2
N5705 G1 X54.501 Y36.19
N5710 X59.466 Y36.181
N5715 G3 X59.666 Y36.381 J0.2
N5720 G1 X59.664 Y41.052
N5725 G3 X59.464 Y41.252 I-0.2
N5730 G1 X49.855
N5735 X45.463
N5740 X39.691
N5745 G3 X39.688 Y40.053 J-0.599
N5750 G1 X42.452 Y40.041
N5755 X42.515 Y40.044
N5760 X42.577 Y40.053
N5765 X45.463 Y40.653
N5770 G3 X45.939 Y41.196 I-0.122 J0.587
N5775 G1 X46.065 Y42.965
N5780 G3 X45.468 Y43.607 I-0.598 J0.043
N5785 G1 X39.679 Y43.615
N5790 G3 X39.675 Y42.416 I-0.001 J-0.599
N5795 G1 X42.448 Y42.4
N5800 X42.51 Y42.403
N5805 X42.572 Y42.412
N5810 X45.468 Y43.007
N5815 G3 X45.945 Y43.555 I-0.121 J0.587
N5820 G1 X46.066 Y45.412
N5825 G3 X45.468 Y46.05 I-0.598 J0.039
N5830 G1 X39.678
N5835 G3 X39.478 Y45.85 J-0.2
N5840 G1 X39.485 Y33.948
N5845 G3 X39.685 Y33.748 I0.2
N5850 G1 X59.458
N5855 G3 X59.658 Y33.948 J0.2
N5860 G1 X59.672 Y43.418
N5865 G3 X59.471 Y43.618 I-0.2
N5870 G1 X48.489 Y43.604
N5875 G3 X48.49 Y42.406 I0.001 J-0.599
N5880 G1 X53.916 Y42.409
N5885 X53.938
N5890 X53.96 Y42.411
N5895 X53.982 Y42.413
N5900 X59.472 Y43.019
N5905 G3 X60.005 Y43.595 I-0.066 J0.596
N5910 G1 X60.065 Y45.431
N5915 G3 X59.466 Y46.05 I-0.599 J0.019
N5920 G1 X47.067
N5925 X47.013 Y46.043
N5930 X46.963 Y46.021
N5935 X46.921 Y45.986
N5940 X46.889 Y45.942
N5945 X39.5 Y31.643
N5950 G3 X39.678 Y31.352 I0.178 J-0.092
N5955 G1 X59.468
N5960 G2 X59.484 Y30.952 J-0.2
N5965 G1 X39.667 Y29.349
N5970 G3 X39.683 Y28.95 I0.016 J-0.199
N5975 G1 X45.471
N5980 X45.494 Y28.954
N5985 X45.513 Y28.965
N5990 X45.528 Y28.981
N5995 X45.617 Y29.122
N6000 X45.632 Y29.138
N6005 X45.652 Y29.149
N6010 X45.674 Y29.153
N6015 X50.115
N6020 X50.137 Y29.149
N6025 X50.157 Y29.138
N6030 X50.172 Y29.122
N6035 X50.261 Y28.981
N6040 X50.276 Y28.965
N6045 X50.296 Y28.954
N6050 X50.318 Y28.95
N6055 X59.471
N6060 G3 X60.896 Y30.374 Z-0.919 J1.425 F100
N6065 G1 X60.901 Y37.401 Z-0.981
N6070 G3 X59.474 Y38.827 Z-1 I-1.425 J0.001
N6075 G1 X47.841 Y38.81 F800
N6080 X39.679 Y38.823
N6085 G3 X39.479 Y38.624 J-0.2
N6090 G1 X39.475 Y36.371
N6095 G3 X39.675 Y36.171 I0.2
N6100 G1 X54.501 Y36.19
N6105 X59.466 Y36.181
N6110 G3 X59.666 Y36.381 J0.2
N6115 G1 X59.664 Y41.052
N6120 G3 X59.464 Y41.252 I-0.2
N6125 G1 X49.855
N6130 X45.463
N6135 X39.691
N6140 G3 X39.688 Y40.053 J-0.599
N6145 G1 X42.452 Y40.041
N6150 X42.515 Y40.044
N6155 X42.577 Y40.053
N6160 X45.463 Y40.653
N6165 G3 X45.939 Y41.196 I-0.122 J0.587
N6170 G1 X46.065 Y42.965
N6175 G3 X45.468 Y43.607 I-0.598 J0.043
N6180 G1 X39.679 Y43.615
N6185 G3 X39.675 Y42.416 I-0.001 J-0.599
N6190 G1 X42.448 Y42.4
N6195 X42.51 Y42.403
N6200 X42.572 Y42.412
N6205 X45.468 Y43.007
N6210 G3 X45.945 Y43.555 I-0.121 J0.587
N6215 G1 X46.066 Y45.412
N6220 G3 X45.468 Y46.05 I-0.598 J0.039
N6225 G1 X39.678
N6230 G3 X39.478 Y45.85 J-0.2
N6235 G1 X39.485 Y33.948
N6240 G3 X39.685 Y33.748 I0.2
N6245 G1 X59.458
N6250 G3 X59.658 Y33.948 J0.2
N6255 G1 X59.672 Y43.418
N6260 G3 X59.471 Y43.618 I-0.2
N6265 G1 X48.489 Y43.604
N6270 G3 X48.49 Y42.406 I0.001 J-0.599
N6275 G1 X53.916 Y42.409
N6280 X53.938
N6285 X53.96 Y42.411
N6290 X53.982 Y42.413
N6295 X59.472 Y43.019
N6300 G3 X60.005 Y43.595 I-0.066 J0.596
N6305 G1 X60.065 Y45.431
N6310 G3 X59.466 Y46.05 I-0.599 J0.019
N6315 G1 X47.067
N6320 X47.013 Y46.043
N6325 X46.963 Y46.021
N6330 X46.921 Y45.986
N6335 X46.889 Y45.942
N6340 X39.5 Y31.643
N6345 G3 X39.678 Y31.352 I0.178 J-0.092
N6350 G1 X59.468
N6355 G2 X59.484 Y30.952 J-0.2
N6360 G1 X39.667 Y29.349
N6365 G3 X39.683 Y28.95 I0.016 J-0.199
N6370 G1 X45.471
N6375 X45.494 Y28.954
N6380 X45.513 Y28.965
N6385 X45.528 Y28.981
N6390 X45.617 Y29.122
N6395 X45.632 Y29.138
N6400 X45.652 Y29.149
N6405 X45.674 Y29.153
N6410 X50.115
N6415 X50.137 Y29.149
N6420 X50.157 Y29.138
N6425 X50.172 Y29.122
N6430 X50.261 Y28.981
N6435 X50.276 Y28.965
N6440 X50.296 Y28.954
N6445 X50.318 Y28.95
N6450 X59.471
N6455 G3 X60.896 Y30.374 Z-1.019 J1.425 F100
N6460 G1 X60.901 Y37.401 Z-1.081
N6465 G3 X59.474 Y38.827 Z-1.1 I-1.425 J0.001
N6470 G1 X47.841 Y38.81 F800
N6475 X39.679 Y38.823
N6480 G3 X39.479 Y38.624 J-0.2
N6485 G1 X39.475 Y36.371
N6490 G3 X39.675 Y36.171 I0.2
N6495 G1 X54.501 Y36.19
N6500 X59.466 Y36.181
N6505 G3 X59.666 Y36.381 J0.2
N6510 G1 X59.664 Y41.052
N6515 G3 X59.464 Y41.252 I-0.2
N6520 G1 X49.855
N6525 X45.463
N6530 X39.691
N6535 G3 X39.688 Y40.053 J-0.599
N6540 G1 X42.452 Y40.041
N6545 X42.515 Y40.044
N6550 X42.577 Y40.053
N6555 X45.463 Y40.653
N6560 G3 X45.939 Y41.196 I-0.122 J0.587
N6565 G1 X46.065 Y42.965
N6570 G3 X45.468 Y43.607 I-0.598 J0.043
N6575 G1 X39.679 Y43.615
N6580 G3 X39.675 Y42.416 I-0.001 J-0.599
N6585 G1 X42.448 Y42.4
N6590 X42.51 Y42.403
N6595 X42.572 Y42.412
N6600 X45.468 Y43.007
N6605 G3 X45.945 Y43.555 I-0.121 J0.587
N6610 G1 X46.066 Y45.412
N6615 G3 X45.468 Y46.05 I-0.598 J0.039
N6620 G1 X39.678
N6625 G3 X39.478 Y45.85 J-0.2
N6630 G1 X39.485 Y33.948
N6635 G3 X39.685 Y33.748 I0.2
N6640 G1 X59.458
N6645 G3 X59.658 Y33.948 J0.2
N6650 G1 X59.672 Y43.418
N6655 G3 X59.471 Y43.618 I-0.2
N6660 G1 X48.489 Y43.604
N6665 G3 X48.49 Y42.406 I0.001 J-0.599
N6670 G1 X53.916 Y42.409
N6675 X53.938
N6680 X53.96 Y42.411
N6685 X53.982 Y42.413
N6690 X59.472 Y43.019
N6695 G3 X60.005 Y43.595 I-0.066 J0.596
N6700 G1 X60.065 Y45.431
N6705 G3 X59.466 Y46.05 I-0.599 J0.019
N6710 G1 X47.067
N6715 X47.013 Y46.043
N6720 X46.963 Y46.021
N6725 X46.921 Y45.986
N6730 X46.889 Y45.942
N6735 X39.5 Y31.643
N6740 G3 X39.678 Y31.352 I0.178 J-0.092
N6745 G1 X59.468
N6750 G2 X59.484 Y30.952 J-0.2
N6755 G1 X39.667 Y29.349
N6760 G3 X39.683 Y28.95 I0.016 J-0.199
N6765 G1 X45.471
N6770 X45.494 Y28.954
N6775 X45.513 Y28.965
N6780 X45.528 Y28.981
N6785 X45.617 Y29.122
N6790 X45.632 Y29.138
N6795 X45.652 Y29.149
N6800 X45.674 Y29.153
N6805 X50.115
N6810 X50.137 Y29.149
N6815 X50.157 Y29.138
N6820 X50.172 Y29.122
N6825 X50.261 Y28.981
N6830 X50.276 Y28.965
N6835 X50.296 Y28.954
N6840 X50.318 Y28.95
N6845 X59.471
N6850 G3 X60.896 Y30.374 Z-1.119 J1.425 F100
N6855 G1 X60.901 Y37.401 Z-1.181
N6860 G3 X59.474 Y38.827 Z-1.2 I-1.425 J0.001
N6865 G1 X47.841 Y38.81 F800
N6870 X39.679 Y38.823
N6875 G3 X39.479 Y38.624 J-0.2
N6880 G1 X39.475 Y36.371
N6885 G3 X39.675 Y36.171 I0.2
N6890 G1 X54.501 Y36.19
N6895 X59.466 Y36.181
N6900 G3 X59.666 Y36.381 J0.2
N6905 G1 X59.664 Y41.052
N6910 G3 X59.464 Y41.252 I-0.2
N6915 G1 X49.855
N6920 X45.463
N6925 X39.691
N6930 G3 X39.688 Y40.053 J-0.599
N6935 G1 X42.452 Y40.041
N6940 X42.515 Y40.044
N6945 X42.577 Y40.053
N6950 X45.463 Y40.653
N6955 G3 X45.939 Y41.196 I-0.122 J0.587
N6960 G1 X46.065 Y42.965
N6965 G3 X45.468 Y43.607 I-0.598 J0.043
N6970 G1 X39.679 Y43.615
N6975 G3 X39.675 Y42.416 I-0.001 J-0.599
N6980 G1 X42.448 Y42.4
N6985 X42.51 Y42.403
N6990 X42.572 Y42.412
N6995 X45.468 Y43.007
N7000 G3 X45.945 Y43.555 I-0.121 J0.587
N7005 G1 X46.066 Y45.412
N7010 G3 X45.468 Y46.05 I-0.598 J0.039
N7015 G1 X39.678
N7020 G3 X39.478 Y45.85 J-0.2
N7025 G1 X39.485 Y33.948
N7030 G3 X39.685 Y33.748 I0.2
N7035 G1 X59.458
N7040 G3 X59.658 Y33.948 J0.2
N7045 G1 X59.672 Y43.418
N7050 G3 X59.471 Y43.618 I-0.2
N7055 G1 X48.489 Y43.604
N7060 G3 X48.49 Y42.406 I0.001 J-0.599
N7065 G1 X53.916 Y42.409
N7070 X53.938
N7075 X53.96 Y42.411
N7080 X53.982 Y42.413
N7085 X59.472 Y43.019
N7090 G3 X60.005 Y43.595 I-0.066 J0.596
N7095 G1 X60.065 Y45.431
N7100 G3 X59.466 Y46.05 I-0.599 J0.019
N7105 G1 X47.067
N7110 X47.013 Y46.043
N7115 X46.963 Y46.021
N7120 X46.921 Y45.986
N7125 X46.889 Y45.942
N7130 X39.5 Y31.643
N7135 G3 X39.678 Y31.352 I0.178 J-0.092
N7140 G1 X59.468
N7145 G2 X59.484 Y30.952 J-0.2
N7150 G1 X39.667 Y29.349
N7155 G3 X39.683 Y28.95 I0.016 J-0.199
N7160 G1 X45.471
N7165 X45.494 Y28.954
N7170 X45.513 Y28.965
N7175 X45.528 Y28.981
N7180 X45.617 Y29.122
N7185 X45.632 Y29.138
N7190 X45.652 Y29.149
N7195 X45.674 Y29.153
N7200 X50.115
N7205 X50.137 Y29.149
N7210 X50.157 Y29.138
N7215 X50.172 Y29.122
N7220 X50.261 Y28.981
N7225 X50.276 Y28.965
N7230 X50.296 Y28.954
N7235 X50.318 Y28.95
N7240 X59.471
N7245 G3 X60.896 Y30.374 Z-1.219 J1.425 F100
N7250 G1 X60.901 Y37.401 Z-1.281
N7255 G3 X59.474 Y38.827 Z-1.3 I-1.425 J0.001
N7260 G1 X47.841 Y38.81 F800
N7265 X39.679 Y38.823
N7270 G3 X39.479 Y38.624 J-0.2
N7275 G1 X39.475 Y36.371
N7280 G3 X39.675 Y36.171 I0.2
N7285 G1 X54.501 Y36.19
N7290 X59.466 Y36.181
N7295 G3 X59.666 Y36.381 J0.2
N7300 G1 X59.664 Y41.052
N7305 G3 X59.464 Y41.252 I-0.2
N7310 G1 X49.855
N7315 X45.463
N7320 X39.691
N7325 G3 X39.688 Y40.053 J-0.599
N7330 G1 X42.452 Y40.041
N7335 X42.515 Y40.044
N7340 X42.577 Y40.053
N7345 X45.463 Y40.653
N7350 G3 X45.939 Y41.196 I-0.122 J0.587
N7355 G1 X46.065 Y42.965
N7360 G3 X45.468 Y43.607 I-0.598 J0.043
N7365 G1 X39.679 Y43.615
N7370 G3 X39.675 Y42.416 I-0.001 J-0.599
N7375 G1 X42.448 Y42.4
N7380 X42.51 Y42.403
N7385 X42.572 Y42.412
N7390 X45.468 Y43.007
N7395 G3 X45.945 Y43.555 I-0.121 J0.587
N7400 G1 X46.066 Y45.412
N7405 G3 X45.468 Y46.05 I-0.598 J0.039
N7410 G1 X39.678
N7415 G3 X39.478 Y45.85 J-0.2
N7420 G1 X39.485 Y33.948
N7425 G3 X39.685 Y33.748 I0.2
N7430 G1 X59.458
N7435 G3 X59.658 Y33.948 J0.2
N7440 G1 X59.672 Y43.418
N7445 G3 X59.471 Y43.618 I-0.2
N7450 G1 X48.489 Y43.604
N7455 G3 X48.49 Y42.406 I0.001 J-0.599
N7460 G1 X53.916 Y42.409
N7465 X53.938
N7470 X53.96 Y42.411
N7475 X53.982 Y42.413
N7480 X59.472 Y43.019
N7485 G3 X60.005 Y43.595 I-0.066 J0.596
N7490 G1 X60.065 Y45.431
N7495 G3 X59.466 Y46.05 I-0.599 J0.019
N7500 G1 X47.067
N7505 X47.013 Y46.043
N7510 X46.963 Y46.021
N7515 X46.921 Y45.986
N7520 X46.889 Y45.942
N7525 X39.5 Y31.643
N7530 G3 X39.678 Y31.352 I0.178 J-0.092
N7535 G1 X59.468
N7540 G2 X59.484 Y30.952 J-0.2
N7545 G1 X39.667 Y29.349
N7550 G3 X39.683 Y28.95 I0.016 J-0.199
N7555 G1 X45.471
N7560 X45.494 Y28.954
N7565 X45.513 Y28.965
N7570 X45.528 Y28.981
N7575 X45.617 Y29.122
N7580 X45.632 Y29.138
N7585 X45.652 Y29.149
N7590 X45.674 Y29.153
N7595 X50.115
N7600 X50.137 Y29.149
N7605 X50.157 Y29.138
N7610 X50.172 Y29.122
N7615 X50.261 Y28.981
N7620 X50.276 Y28.965
N7625 X50.296 Y28.954
N7630 X50.318 Y28.95
N7635 X59.471
N7640 G3 X60.896 Y30.374 Z-1.319 J1.425 F100
N7645 G1 X60.901 Y37.401 Z-1.381
N7650 G3 X59.474 Y38.827 Z-1.4 I-1.425 J0.001
N7655 G1 X47.841 Y38.81 F800
N7660 X39.679 Y38.823
N7665 G3 X39.479 Y38.624 J-0.2
N7670 G1 X39.475 Y36.371
N7675 G3 X39.675 Y36.171 I0.2
N7680 G1 X54.501 Y36.19
N7685 X59.466 Y36.181
N7690 G3 X59.666 Y36.381 J0.2
N7695 G1 X59.664 Y41.052
N7700 G3 X59.464 Y41.252 I-0.2
N7705 G1 X49.855
N7710 X45.463
N7715 X39.691
N7720 G3 X39.688 Y40.053 J-0.599
N7725 G1 X42.452 Y40.041
N7730 X42.515 Y40.044
N7735 X42.577 Y40.053
N7740 X45.463 Y40.653
N7745 G3 X45.939 Y41.196 I-0.122 J0.587
N7750 G1 X46.065 Y42.965
N7755 G3 X45.468 Y43.607 I-0.598 J0.043
N7760 G1 X39.679 Y43.615
N7765 G3 X39.675 Y42.416 I-0.001 J-0.599
N7770 G1 X42.448 Y42.4
N7775 X42.51 Y42.403
N7780 X42.572 Y42.412
N7785 X45.468 Y43.007
N7790 G3 X45.945 Y43.555 I-0.121 J0.587
N7795 G1 X46.066 Y45.412
N7800 G3 X45.468 Y46.05 I-0.598 J0.039
N7805 G1 X39.678
N7810 G3 X39.478 Y45.85 J-0.2
N7815 G1 X39.485 Y33.948
N7820 G3 X39.685 Y33.748 I0.2
N7825 G1 X59.458
N7830 G3 X59.658 Y33.948 J0.2
N7835 G1 X59.672 Y43.418
N7840 G3 X59.471 Y43.618 I-0.2
N7845 G1 X48.489 Y43.604
N7850 G3 X48.49 Y42.406 I0.001 J-0.599
N7855 G1 X53.916 Y42.409
N7860 X53.938
N7865 X53.96 Y42.411
N7870 X53.982 Y42.413
N7875 X59.472 Y43.019
N7880 G3 X60.005 Y43.595 I-0.066 J0.596
N7885 G1 X60.065 Y45.431
N7890 G3 X59.466 Y46.05 I-0.599 J0.019
N7895 G1 X47.067
N7900 X47.013 Y46.043
N7905 X46.963 Y46.021
N7910 X46.921 Y45.986
N7915 X46.889 Y45.942
N7920 X39.5 Y31.643
N7925 G3 X39.678 Y31.352 I0.178 J-0.092
N7930 G1 X59.468
N7935 G2 X59.484 Y30.952 J-0.2
N7940 G1 X39.667 Y29.349
N7945 G3 X39.683 Y28.95 I0.016 J-0.199
N7950 G1 X45.471
N7955 X45.494 Y28.954
N7960 X45.513 Y28.965
N7965 X45.528 Y28.981
N7970 X45.617 Y29.122
N7975 X45.632 Y29.138
N7980 X45.652 Y29.149
N7985 X45.674 Y29.153
N7990 X50.115
N7995 X50.137 Y29.149
N8000 X50.157 Y29.138
N8005 X50.172 Y29.122
N8010 X50.261 Y28.981
N8015 X50.276 Y28.965
N8020 X50.296 Y28.954
N8025 X50.318 Y28.95
N8030 X59.471
N8035 G3 X60.896 Y30.374 Z-1.419 J1.425 F100
N8040 G1 X60.901 Y37.401 Z-1.481
N8045 G3 X59.474 Y38.827 Z-1.5 I-1.425 J0.001
N8050 G1 X47.841 Y38.81 F800
N8055 X39.679 Y38.823
N8060 G3 X39.479 Y38.624 J-0.2
N8065 G1 X39.475 Y36.371
N8070 G3 X39.675 Y36.171 I0.2
N8075 G1 X54.501 Y36.19
N8080 X59.466 Y36.181
N8085 G3 X59.666 Y36.381 J0.2
N8090 G1 X59.664 Y41.052
N8095 G3 X59.464 Y41.252 I-0.2
N8100 G1 X49.855
N8105 X45.463
N8110 X39.691
N8115 G3 X39.688 Y40.053 J-0.599
N8120 G1 X42.452 Y40.041
N8125 X42.515 Y40.044
N8130 X42.577 Y40.053
N8135 X45.463 Y40.653
N8140 G3 X45.939 Y41.196 I-0.122 J0.587
N8145 G1 X46.065 Y42.965
N8150 G3 X45.468 Y43.607 I-0.598 J0.043
N8155 G1 X39.679 Y43.615
N8160 G3 X39.675 Y42.416 I-0.001 J-0.599
N8165 G1 X42.448 Y42.4
N8170 X42.51 Y42.403
N8175 X42.572 Y42.412
N8180 X45.468 Y43.007
N8185 G3 X45.945 Y43.555 I-0.121 J0.587
N8190 G1 X46.066 Y45.412
N8195 G3 X45.468 Y46.05 I-0.598 J0.039
N8200 G1 X39.678
N8205 G3 X39.478 Y45.85 J-0.2
N8210 G1 X39.485 Y33.948
N8215 G3 X39.685 Y33.748 I0.2
N8220 G1 X59.458
N8225 G3 X59.658 Y33.948 J0.2
N8230 G1 X59.672 Y43.418
N8235 G3 X59.471 Y43.618 I-0.2
N8240 G1 X48.489 Y43.604
N8245 G3 X48.49 Y42.406 I0.001 J-0.599
N8250 G1 X53.916 Y42.409
N8255 X53.938
N8260 X53.96 Y42.411
N8265 X53.982 Y42.413
N8270 X59.472 Y43.019
N8275 G3 X60.005 Y43.595 I-0.066 J0.596
N8280 G1 X60.065 Y45.431
N8285 G3 X59.466 Y46.05 I-0.599 J0.019
N8290 G1 X47.067
N8295 X47.013 Y46.043
N8300 X46.963 Y46.021
N8305 X46.921 Y45.986
N8310 X46.889 Y45.942
N8315 X39.5 Y31.643
N8320 G3 X39.678 Y31.352 I0.178 J-0.092
N8325 G1 X59.468
N8330 G2 X59.484 Y30.952 J-0.2
N8335 G1 X39.667 Y29.349
N8340 G3 X39.683 Y28.95 I0.016 J-0.199
N8345 G1 X45.471
N8350 X45.494 Y28.954
N8355 X45.513 Y28.965
N8360 X45.528 Y28.981
N8365 X45.617 Y29.122
N8370 X45.632 Y29.138
N8375 X45.652 Y29.149
N8380 X45.674 Y29.153
N8385 X50.115
N8390 X50.137 Y29.149
N8395 X50.157 Y29.138
N8400 X50.172 Y29.122
N8405 X50.261 Y28.981
N8410 X50.276 Y28.965
N8415 X50.296 Y28.954
N8420 X50.318 Y28.95
N8425 X59.471
N8430 X59.518 Y28.954
N8435 X60.271 Y29.073
N8440 X60.336 Y29.083 Z-1.492
N8445 X60.399 Y29.093 Z-1.47
N8450 X60.455 Y29.102 Z-1.435
N8455 X60.502 Y29.11 Z-1.387
N8460 X60.538 Y29.115 Z-1.33
N8465 X60.559 Y29.119 Z-1.267
N8470 X60.567 Y29.12 Z-1.2
N8475 G0 Z2.3

(??3)
N8480 X36.139 Y94.435
N8485 Z2.3
N8490 Z0
N8495 G1 Z-1.7 F50
N8500 X36.114 Y94.41
N8505 X36.122 Y94.392
N8510 X36.139 Y94.385
N8515 X36.166 Y94.393 Z-1.709 F800
N8520 X36.185 Y94.414 Z-1.718
N8525 X36.189 Y94.441 Z-1.727
N8530 X36.178 Y94.467 Z-1.736
N8535 X36.155 Y94.482 Z-1.745
N8540 X36.127 Y94.484 Z-1.754
N8545 X36.103 Y94.47 Z-1.763
N8550 X36.09 Y94.445 Z-1.772
N8555 X36.093 Y94.417 Z-1.781
N8560 X36.11 Y94.395 Z-1.79
N8565 X36.136 Y94.385 Z-1.799
N8570 X36.163 Y94.391 Z-1.808
N8575 X36.183 Y94.41 Z-1.817
N8580 X36.189 Y94.437 Z-1.826
N8585 X36.18 Y94.464 Z-1.835
N8590 X36.159 Y94.481 Z-1.844
N8595 X36.131 Y94.484 Z-1.853
N8600 X36.106 Y94.472 Z-1.862
N8605 X36.091 Y94.448 Z-1.871
N8610 X36.092 Y94.421 Z-1.88
N8615 X36.107 Y94.397 Z-1.889
N8620 X36.132 Y94.386 Z-1.898
N8625 X36.16 Y94.389 Z-1.907
N8630 X36.181 Y94.407 Z-1.916
N8635 X36.189 Y94.434 Z-1.925
N8640 X36.182 Y94.461 Z-1.934
N8645 X36.162 Y94.48 Z-1.943
N8650 X36.135 Y94.485 Z-1.951
N8655 X36.109 Y94.475 Z-1.96
N8660 X36.092 Y94.452 Z-1.969
N8665 X36.091 Y94.424 Z-1.978
N8670 X36.104 Y94.4 Z-1.987
N8675 X36.128 Y94.386 Z-1.996
N8680 X36.156 Y94.388 Z-2.005
N8685 X36.179 Y94.404 Z-2.014
N8690 X36.189 Y94.43 Z-2.023
N8695 X36.184 Y94.457 Z-2.032
N8700 X36.165 Y94.478 Z-2.041
N8705 X36.139 Y94.485 Z-2.05
N8710 X36.112 Y94.477 Z-2.059
N8715 X36.094 Y94.456 Z-2.068
N8720 X36.09 Y94.428 Z-2.077
N8725 X36.101 Y94.403 Z-2.086
N8730 X36.125 Y94.387 Z-2.095
N8735 X36.152 Z-2.104
N8740 X36.176 Y94.401 Z-2.113
N8745 X36.189 Y94.426 Z-2.122
N8750 X36.186 Y94.454 Z-2.131
N8755 X36.169 Y94.476 Z-2.14
N8760 X36.142 Y94.485 Z-2.149
N8765 X36.115 Y94.479 Z-2.158
N8770 X36.096 Y94.459 Z-2.167
N8775 X36.09 Y94.432 Z-2.176
N8780 X36.099 Y94.406 Z-2.185
N8785 X36.121 Y94.389 Z-2.194
N8790 X36.149 Y94.386 Z-2.203
N8795 X36.174 Y94.399 Z-2.212
N8800 X36.188 Y94.422 Z-2.221
N8805 X36.187 Y94.45 Z-2.23
N8810 X36.171 Y94.473 Z-2.239
N8815 X36.146 Y94.485 Z-2.248
N8820 X36.118 Y94.48 Z-2.257
N8825 X36.097 Y94.462 Z-2.266
N8830 X36.089 Y94.435 Z-2.275
N8835 X36.097 Y94.409 Z-2.284
N8840 X36.118 Y94.39 Z-2.293
N8845 X36.145 Y94.385 Z-2.302
N8850 X36.171 Y94.396 Z-2.311
N8855 X36.187 Y94.419 Z-2.32
N8860 X36.188 Y94.447 Z-2.329
N8865 X36.174 Y94.471 Z-2.338
N8870 X36.15 Y94.484 Z-2.347
N8875 X36.122 Y94.482 Z-2.356
N8880 X36.1 Y94.465 Z-2.365
N8885 X36.09 Y94.439 Z-2.374
N8890 X36.095 Y94.412 Z-2.383
N8895 X36.114 Y94.392 Z-2.392
N8900 X36.141 Y94.385 Z-2.401
N8905 X36.168 Y94.394 Z-2.41
N8910 X36.185 Y94.415 Z-2.419
N8915 X36.189 Y94.443 Z-2.428
N8920 X36.177 Y94.468 Z-2.437
N8925 X36.153 Y94.483 Z-2.446
N8930 X36.126 Z-2.454
N8935 X36.102 Y94.468 Z-2.463
N8940 X36.09 Y94.443 Z-2.472
N8945 X36.093 Y94.415 Z-2.481
N8950 X36.111 Y94.394 Z-2.49
N8955 X36.138 Y94.385 Z-2.499
N8960 X36.165 Y94.392 Z-2.508
N8965 X36.184 Y94.412 Z-2.517
N8970 X36.189 Y94.439 Z-2.526
N8975 X36.179 Y94.465 Z-2.535
N8980 X36.157 Y94.482 Z-2.544
N8985 X36.129 Y94.484 Z-2.553
N8990 X36.105 Y94.471 Z-2.562
N8995 X36.091 Y94.447 Z-2.571
N9000 X36.092 Y94.419 Z-2.58
N9005 X36.108 Y94.396 Z-2.589
N9010 X36.134 Y94.385 Z-2.598
N9015 X36.161 Y94.39 Z-2.607
N9020 X36.182 Y94.409 Z-2.616
N9025 X36.189 Y94.435 Z-2.625
N9030 X36.181 Y94.462 Z-2.634
N9035 X36.16 Y94.48 Z-2.643
N9040 X36.133 Y94.485 Z-2.652
N9045 X36.107 Y94.473 Z-2.661
N9050 X36.092 Y94.45 Z-2.67
N9055 X36.091 Y94.422 Z-2.679
N9060 X36.105 Y94.399 Z-2.688
N9065 X36.13 Y94.386 Z-2.697
N9070 X36.158 Y94.389 Z-2.706
N9075 X36.18 Y94.406 Z-2.715
N9080 X36.189 Y94.432 Z-2.724
N9085 X36.183 Y94.459 Z-2.733
N9090 X36.164 Y94.479 Z-2.742
N9095 X36.137 Y94.485 Z-2.751
N9100 X36.11 Y94.476 Z-2.76
N9105 X36.093 Y94.454 Z-2.769
N9110 X36.09 Y94.426 Z-2.778
N9115 X36.103 Y94.401 Z-2.787
N9120 X36.126 Y94.387 Z-2.796
N9125 X36.154 Z-2.805
N9130 X36.178 Y94.403 Z-2.814
N9135 X36.189 Y94.428 Z-2.823
N9140 X36.185 Y94.456 Z-2.832
N9145 X36.167 Y94.477 Z-2.841
N9150 X36.14 Y94.485 Z-2.85
N9155 X36.114 Y94.478 Z-2.859
N9160 X36.095 Y94.457 Z-2.868
N9165 X36.09 Y94.43 Z-2.877
N9170 X36.1 Y94.404 Z-2.886
N9175 X36.123 Y94.388 Z-2.895
N9180 X36.151 Y94.386 Z-2.904
N9185 X36.175 Y94.4 Z-2.913
N9190 X36.188 Y94.424 Z-2.922
N9195 X36.186 Y94.452 Z-2.931
N9200 X36.17 Y94.475 Z-2.94
N9205 X36.144 Y94.485 Z-2.949
N9210 X36.117 Y94.48 Z-2.957
N9215 X36.096 Y94.461 Z-2.966
N9220 X36.089 Y94.434 Z-2.975
N9225 X36.098 Y94.407 Z-2.984
N9230 X36.119 Y94.389 Z-2.993
N9235 X36.147 Y94.386 Z-3.002
N9240 X36.172 Y94.397 Z-3.011
N9245 X36.187 Y94.421 Z-3.02
N9250 X36.188 Y94.448 Z-3.029
N9255 X36.173 Y94.472 Z-3.038
N9260 X36.148 Y94.484 Z-3.047
N9265 X36.12 Y94.481 Z-3.056
N9270 X36.099 Y94.464 Z-3.065
N9275 X36.09 Y94.437 Z-3.074
N9280 X36.096 Y94.41 Z-3.083
N9285 X36.116 Y94.391 Z-3.092
N9290 X36.143 Y94.385 Z-3.101
N9295 X36.169 Y94.395 Z-3.11
N9300 X36.186 Y94.417 Z-3.119
N9305 X36.188 Y94.445 Z-3.128
N9310 X36.176 Y94.47 Z-3.137
N9315 X36.152 Y94.484 Z-3.146
N9320 X36.124 Y94.482 Z-3.155
N9325 X36.101 Y94.467 Z-3.164
N9330 X36.09 Y94.441 Z-3.173
N9335 X36.094 Y94.414 Z-3.182
N9340 X36.113 Y94.393 Z-3.191
N9345 X36.139 Y94.385 Z-3.2
N9350 G3 Y94.485 J0.05
N9355 Y94.385 J-0.05
N9360 G1 X36.157 Y94.392
N9365 X36.164 Y94.41
N9370 X36.139 Y94.435
N9375 G0 Z2.3
N9380 X63.01
N9385 Z0
N9390 G1 Z-1.7 F50
N9395 X62.985 Y94.41
N9400 X62.992 Y94.392
N9405 X63.01 Y94.385
N9410 X63.036 Y94.393 Z-1.709 F800
N9415 X63.055 Y94.414 Z-1.718
N9420 X63.059 Y94.441 Z-1.727
N9425 X63.048 Y94.467 Z-1.736
N9430 X63.025 Y94.482 Z-1.745
N9435 X62.997 Y94.484 Z-1.754
N9440 X62.973 Y94.47 Z-1.763
N9445 X62.96 Y94.445 Z-1.772
N9450 X62.963 Y94.417 Z-1.781
N9455 X62.98 Y94.395 Z-1.79
N9460 X63.006 Y94.385 Z-1.799
N9465 X63.033 Y94.391 Z-1.808
N9470 X63.053 Y94.41 Z-1.817
N9475 X63.059 Y94.437 Z-1.826
N9480 X63.05 Y94.464 Z-1.835
N9485 X63.029 Y94.481 Z-1.844
N9490 X63.001 Y94.484 Z-1.853
N9495 X62.976 Y94.472 Z-1.862
N9500 X62.961 Y94.448 Z-1.871
N9505 X62.962 Y94.421 Z-1.88
N9510 X62.977 Y94.397 Z-1.889
N9515 X63.002 Y94.386 Z-1.898
N9520 X63.03 Y94.389 Z-1.907
N9525 X63.051 Y94.407 Z-1.916
N9530 X63.059 Y94.434 Z-1.925
N9535 X63.052 Y94.461 Z-1.934
N9540 X63.032 Y94.48 Z-1.943
N9545 X63.005 Y94.485 Z-1.951
N9550 X62.979 Y94.475 Z-1.96
N9555 X62.963 Y94.452 Z-1.969
N9560 X62.961 Y94.424 Z-1.978
N9565 X62.974 Y94.4 Z-1.987
N9570 X62.998 Y94.386 Z-1.996
N9575 X63.026 Y94.388 Z-2.005
N9580 X63.049 Y94.404 Z-2.014
N9585 X63.059 Y94.43 Z-2.023
N9590 X63.054 Y94.457 Z-2.032
N9595 X63.035 Y94.478 Z-2.041
N9600 X63.009 Y94.485 Z-2.05
N9605 X62.982 Y94.477 Z-2.059
N9610 X62.964 Y94.456 Z-2.068
N9615 X62.96 Y94.428 Z-2.077
N9620 X62.971 Y94.403 Z-2.086
N9625 X62.995 Y94.387 Z-2.095
N9630 X63.023 Z-2.104
N9635 X63.046 Y94.401 Z-2.113
N9640 X63.059 Y94.426 Z-2.122
N9645 X63.056 Y94.454 Z-2.131
N9650 X63.039 Y94.476 Z-2.14
N9655 X63.012 Y94.485 Z-2.149
N9660 X62.985 Y94.479 Z-2.158
N9665 X62.966 Y94.459 Z-2.167
N9670 X62.96 Y94.432 Z-2.176
N9675 X62.969 Y94.406 Z-2.185
N9680 X62.991 Y94.389 Z-2.194
N9685 X63.019 Y94.386 Z-2.203
N9690 X63.044 Y94.399 Z-2.212
N9695 X63.058 Y94.422 Z-2.221
N9700 X63.057 Y94.45 Z-2.23
N9705 X63.042 Y94.473 Z-2.239
N9710 X63.016 Y94.485 Z-2.248
N9715 X62.989 Y94.48 Z-2.257
N9720 X62.968 Y94.462 Z-2.266
N9725 X62.96 Y94.435 Z-2.275
N9730 X62.967 Y94.409 Z-2.284
N9735 X62.988 Y94.39 Z-2.293
N9740 X63.015 Y94.385 Z-2.302
N9745 X63.041 Y94.396 Z-2.311
N9750 X63.057 Y94.419 Z-2.32
N9755 X63.058 Y94.447 Z-2.329
N9760 X63.044 Y94.471 Z-2.338
N9765 X63.02 Y94.484 Z-2.347
N9770 X62.992 Y94.482 Z-2.356
N9775 X62.97 Y94.465 Z-2.365
N9780 X62.96 Y94.439 Z-2.374
N9785 X62.965 Y94.412 Z-2.383
N9790 X62.984 Y94.392 Z-2.392
N9795 X63.011 Y94.385 Z-2.401
N9800 X63.038 Y94.394 Z-2.41
N9805 X63.055 Y94.415 Z-2.419
N9810 X63.059 Y94.443 Z-2.428
N9815 X63.047 Y94.468 Z-2.437
N9820 X63.023 Y94.483 Z-2.446
N9825 X62.996 Z-2.454
N9830 X62.972 Y94.468 Z-2.463
N9835 X62.96 Y94.443 Z-2.472
N9840 X62.964 Y94.415 Z-2.481
N9845 X62.981 Y94.394 Z-2.49
N9850 X63.008 Y94.385 Z-2.499
N9855 X63.035 Y94.392 Z-2.508
N9860 X63.054 Y94.412 Z-2.517
N9865 X63.059 Y94.439 Z-2.526
N9870 X63.049 Y94.465 Z-2.535
N9875 X63.027 Y94.482 Z-2.544
N9880 X62.999 Y94.484 Z-2.553
N9885 X62.975 Y94.471 Z-2.562
N9890 X62.961 Y94.447 Z-2.571
N9895 X62.962 Y94.419 Z-2.58
N9900 X62.978 Y94.396 Z-2.589
N9905 X63.004 Y94.385 Z-2.598
N9910 X63.031 Y94.39 Z-2.607
N9915 X63.052 Y94.409 Z-2.616
N9920 X63.059 Y94.435 Z-2.625
N9925 X63.051 Y94.462 Z-2.634
N9930 X63.03 Y94.48 Z-2.643
N9935 X63.003 Y94.485 Z-2.652
N9940 X62.977 Y94.473 Z-2.661
N9945 X62.962 Y94.45 Z-2.67
N9950 X62.961 Y94.422 Z-2.679
N9955 X62.975 Y94.399 Z-2.688
N9960 X63 Y94.386 Z-2.697
N9965 X63.028 Y94.389 Z-2.706
N9970 X63.05 Y94.406 Z-2.715
N9975 X63.059 Y94.432 Z-2.724
N9980 X63.053 Y94.459 Z-2.733
N9985 X63.034 Y94.479 Z-2.742
N9990 X63.007 Y94.485 Z-2.751
N9995 X62.98 Y94.476 Z-2.76
N10000 X62.963 Y94.454 Z-2.769
N10005 X62.96 Y94.426 Z-2.778
N10010 X62.973 Y94.401 Z-2.787
N10015 X62.996 Y94.387 Z-2.796
N10020 X63.024 Z-2.805
N10025 X63.048 Y94.403 Z-2.814
N10030 X63.059 Y94.428 Z-2.823
N10035 X63.055 Y94.456 Z-2.832
N10040 X63.037 Y94.477 Z-2.841
N10045 X63.01 Y94.485 Z-2.85
N10050 X62.984 Y94.478 Z-2.859
N10055 X62.965 Y94.457 Z-2.868
N10060 X62.96 Y94.43 Z-2.877
N10065 X62.97 Y94.404 Z-2.886
N10070 X62.993 Y94.388 Z-2.895
N10075 X63.021 Y94.386 Z-2.904
N10080 X63.045 Y94.4 Z-2.913
N10085 X63.058 Y94.424 Z-2.922
N10090 X63.057 Y94.452 Z-2.931
N10095 X63.04 Y94.475 Z-2.94
N10100 X63.014 Y94.485 Z-2.949
N10105 X62.987 Y94.48 Z-2.957
N10110 X62.967 Y94.461 Z-2.966
N10115 X62.96 Y94.434 Z-2.975
N10120 X62.968 Y94.407 Z-2.984
N10125 X62.989 Y94.389 Z-2.993
N10130 X63.017 Y94.386 Z-3.002
N10135 X63.042 Y94.397 Z-3.011
N10140 X63.057 Y94.421 Z-3.02
N10145 X63.058 Y94.448 Z-3.029
N10150 X63.043 Y94.472 Z-3.038
N10155 X63.018 Y94.484 Z-3.047
N10160 X62.99 Y94.481 Z-3.056
N10165 X62.969 Y94.464 Z-3.065
N10170 X62.96 Y94.437 Z-3.074
N10175 X62.966 Y94.41 Z-3.083
N10180 X62.986 Y94.391 Z-3.092
N10185 X63.013 Y94.385 Z-3.101
N10190 X63.039 Y94.395 Z-3.11
N10195 X63.056 Y94.417 Z-3.119
N10200 X63.059 Y94.445 Z-3.128
N10205 X63.046 Y94.47 Z-3.137
N10210 X63.022 Y94.484 Z-3.146
N10215 X62.994 Y94.482 Z-3.155
N10220 X62.971 Y94.467 Z-3.164
N10225 X62.96 Y94.441 Z-3.173
N10230 X62.964 Y94.414 Z-3.182
N10235 X62.983 Y94.393 Z-3.191
N10240 X63.01 Y94.385 Z-3.2
N10245 G3 Y94.485 J0.05
N10250 Y94.385 J-0.05
N10255 G1 X63.027 Y94.392
N10260 X63.035 Y94.41
N10265 X63.01 Y94.435
N10270 G0 Z2.3
N10275 Y67.565
N10280 Z0
N10285 G1 Z-1.7 F50
N10290 X62.985 Y67.54
N10295 X62.992 Y67.522
N10300 X63.01 Y67.515
N10305 X63.036 Y67.523 Z-1.709 F800
N10310 X63.055 Y67.544 Z-1.718
N10315 X63.059 Y67.571 Z-1.727
N10320 X63.048 Y67.597 Z-1.736
N10325 X63.025 Y67.612 Z-1.745
N10330 X62.997 Y67.613 Z-1.754
N10335 X62.973 Y67.599 Z-1.763
N10340 X62.96 Y67.575 Z-1.772
N10345 X62.963 Y67.547 Z-1.781
N10350 X62.98 Y67.525 Z-1.79
N10355 X63.006 Y67.515 Z-1.799
N10360 X63.033 Y67.521 Z-1.808
N10365 X63.053 Y67.54 Z-1.817
N10370 X63.059 Y67.567 Z-1.826
N10375 X63.05 Y67.594 Z-1.835
N10380 X63.029 Y67.611 Z-1.844
N10385 X63.001 Y67.614 Z-1.853
N10390 X62.976 Y67.602 Z-1.862
N10395 X62.961 Y67.578 Z-1.871
N10400 X62.962 Y67.551 Z-1.88
N10405 X62.977 Y67.527 Z-1.889
N10410 X63.002 Y67.516 Z-1.898
N10415 X63.03 Y67.519 Z-1.907
N10420 X63.051 Y67.537 Z-1.916
N10425 X63.059 Y67.564 Z-1.925
N10430 X63.052 Y67.591 Z-1.934
N10435 X63.032 Y67.61 Z-1.943
N10440 X63.005 Y67.615 Z-1.951
N10445 X62.979 Y67.605 Z-1.96
N10450 X62.962 Y67.582 Z-1.969
N10455 X62.961 Y67.554 Z-1.978
N10460 X62.974 Y67.53 Z-1.987
N10465 X62.998 Y67.516 Z-1.996
N10470 X63.026 Y67.518 Z-2.005
N10475 X63.049 Y67.534 Z-2.014
N10480 X63.059 Y67.56 Z-2.023
N10485 X63.054 Y67.587 Z-2.032
N10490 X63.035 Y67.608 Z-2.041
N10495 X63.009 Y67.615 Z-2.05
N10500 X62.982 Y67.607 Z-2.059
N10505 X62.964 Y67.586 Z-2.068
N10510 X62.96 Y67.558 Z-2.077
N10515 X62.971 Y67.533 Z-2.086
N10520 X62.995 Y67.517 Z-2.095
N10525 X63.023 Z-2.104
N10530 X63.046 Y67.531 Z-2.113
N10535 X63.059 Y67.556 Z-2.122
N10540 X63.056 Y67.584 Z-2.131
N10545 X63.039 Y67.606 Z-2.14
N10550 X63.012 Y67.615 Z-2.149
N10555 X62.985 Y67.609 Z-2.158
N10560 X62.966 Y67.589 Z-2.167
N10565 X62.96 Y67.562 Z-2.176
N10570 X62.969 Y67.536 Z-2.185
N10575 X62.991 Y67.518 Z-2.194
N10580 X63.019 Y67.516 Z-2.203
N10585 X63.044 Y67.528 Z-2.212
N10590 X63.058 Y67.552 Z-2.221
N10595 X63.057 Y67.58 Z-2.23
N10600 X63.042 Y67.603 Z-2.239
N10605 X63.016 Y67.615 Z-2.248
N10610 X62.989 Y67.61 Z-2.257
N10615 X62.968 Y67.592 Z-2.266
N10620 X62.96 Y67.565 Z-2.275
N10625 X62.967 Y67.539 Z-2.284
N10630 X62.988 Y67.52 Z-2.293
N10635 X63.015 Y67.515 Z-2.302
N10640 X63.041 Y67.526 Z-2.311
N10645 X63.057 Y67.549 Z-2.32
N10650 X63.058 Y67.577 Z-2.329
N10655 X63.044 Y67.601 Z-2.338
N10660 X63.02 Y67.614 Z-2.347
N10665 X62.992 Y67.612 Z-2.356
N10670 X62.97 Y67.595 Z-2.365
N10675 X62.96 Y67.569 Z-2.374
N10680 X62.965 Y67.542 Z-2.383
N10685 X62.984 Y67.522 Z-2.392
N10690 X63.011 Y67.515 Z-2.401
N10695 X63.038 Y67.524 Z-2.41
N10700 X63.055 Y67.545 Z-2.419
N10705 X63.059 Y67.573 Z-2.428
N10710 X63.047 Y67.598 Z-2.437
N10715 X63.023 Y67.613 Z-2.446
N10720 X62.996 Z-2.454
N10725 X62.972 Y67.598 Z-2.463
N10730 X62.96 Y67.573 Z-2.472
N10735 X62.964 Y67.545 Z-2.481
N10740 X62.981 Y67.524 Z-2.49
N10745 X63.008 Y67.515 Z-2.499
N10750 X63.035 Y67.522 Z-2.508
N10755 X63.054 Y67.542 Z-2.517
N10760 X63.059 Y67.569 Z-2.526
N10765 X63.049 Y67.595 Z-2.535
N10770 X63.027 Y67.612 Z-2.544
N10775 X62.999 Y67.614 Z-2.553
N10780 X62.975 Y67.601 Z-2.562
N10785 X62.961 Y67.577 Z-2.571
N10790 X62.962 Y67.549 Z-2.58
N10795 X62.978 Y67.526 Z-2.589
N10800 X63.004 Y67.515 Z-2.598
N10805 X63.031 Y67.52 Z-2.607
N10810 X63.052 Y67.539 Z-2.616
N10815 X63.06 Y67.565 Z-2.625
N10820 X63.051 Y67.592 Z-2.634
N10825 X63.03 Y67.61 Z-2.643
N10830 X63.003 Y67.615 Z-2.652
N10835 X62.977 Y67.603 Z-2.661
N10840 X62.962 Y67.58 Z-2.67
N10845 X62.961 Y67.552 Z-2.679
N10850 X62.975 Y67.528 Z-2.688
N10855 X63 Y67.516 Z-2.697
N10860 X63.028 Y67.518 Z-2.706
N10865 X63.05 Y67.536 Z-2.715
N10870 X63.059 Y67.562 Z-2.724
N10875 X63.053 Y67.589 Z-2.733
N10880 X63.034 Y67.609 Z-2.742
N10885 X63.007 Y67.615 Z-2.751
N10890 X62.98 Y67.606 Z-2.76
N10895 X62.963 Y67.584 Z-2.769
N10900 X62.96 Y67.556 Z-2.778
N10905 X62.973 Y67.531 Z-2.787
N10910 X62.996 Y67.517 Z-2.796
N10915 X63.024 Z-2.805
N10920 X63.048 Y67.533 Z-2.814
N10925 X63.059 Y67.558 Z-2.823
N10930 X63.055 Y67.586 Z-2.832
N10935 X63.037 Y67.607 Z-2.841
N10940 X63.01 Y67.615 Z-2.85
N10945 X62.984 Y67.608 Z-2.859
N10950 X62.965 Y67.587 Z-2.868
N10955 X62.96 Y67.56 Z-2.877
N10960 X62.97 Y67.534 Z-2.886
N10965 X62.993 Y67.518 Z-2.895
N10970 X63.021 Y67.516 Z-2.904
N10975 X63.045 Y67.53 Z-2.913
N10980 X63.058 Y67.554 Z-2.922
N10985 X63.057 Y67.582 Z-2.931
N10990 X63.04 Y67.605 Z-2.94
N10995 X63.014 Y67.615 Z-2.949
N11000 X62.987 Y67.61 Z-2.957
N11005 X62.967 Y67.591 Z-2.966
N11010 X62.96 Y67.564 Z-2.975
N11015 X62.968 Y67.537 Z-2.984
N11020 X62.989 Y67.519 Z-2.993
N11025 X63.017 Y67.516 Z-3.002
N11030 X63.042 Y67.527 Z-3.011
N11035 X63.057 Y67.551 Z-3.02
N11040 X63.058 Y67.578 Z-3.029
N11045 X63.043 Y67.602 Z-3.038
N11050 X63.018 Y67.614 Z-3.047
N11055 X62.99 Y67.611 Z-3.056
N11060 X62.969 Y67.594 Z-3.065
N11065 X62.96 Y67.567 Z-3.074
N11070 X62.966 Y67.54 Z-3.083
N11075 X62.986 Y67.521 Z-3.092
N11080 X63.013 Y67.515 Z-3.101
N11085 X63.039 Y67.525 Z-3.11
N11090 X63.056 Y67.547 Z-3.119
N11095 X63.059 Y67.575 Z-3.128
N11100 X63.046 Y67.599 Z-3.137
N11105 X63.022 Y67.613 Z-3.146
N11110 X62.994 Y67.612 Z-3.155
N11115 X62.971 Y67.597 Z-3.164
N11120 X62.96 Y67.571 Z-3.173
N11125 X62.964 Y67.544 Z-3.182
N11130 X62.983 Y67.523 Z-3.191
N11135 X63.01 Y67.515 Z-3.2
N11140 G3 Y67.615 J0.05
N11145 Y67.515 J-0.05
N11150 G1 X63.027 Y67.522
N11155 X63.035 Y67.54
N11160 X63.01 Y67.565
N11165 G0 Z2.3
N11170 X36.139
N11175 Z0
N11180 G1 Z-1.7 F50
N11185 X36.114 Y67.54
N11190 X36.122 Y67.522
N11195 X36.139 Y67.515
N11200 X36.166 Y67.523 Z-1.709 F800
N11205 X36.185 Y67.544 Z-1.718
N11210 X36.189 Y67.571 Z-1.727
N11215 X36.178 Y67.597 Z-1.736
N11220 X36.155 Y67.612 Z-1.745
N11225 X36.127 Y67.613 Z-1.754
N11230 X36.103 Y67.599 Z-1.763
N11235 X36.09 Y67.575 Z-1.772
N11240 X36.093 Y67.547 Z-1.781
N11245 X36.11 Y67.525 Z-1.79
N11250 X36.136 Y67.515 Z-1.799
N11255 X36.163 Y67.521 Z-1.808
N11260 X36.183 Y67.54 Z-1.817
N11265 X36.189 Y67.567 Z-1.826
N11270 X36.18 Y67.594 Z-1.835
N11275 X36.159 Y67.611 Z-1.844
N11280 X36.131 Y67.614 Z-1.853
N11285 X36.106 Y67.602 Z-1.862
N11290 X36.091 Y67.578 Z-1.871
N11295 X36.092 Y67.551 Z-1.88
N11300 X36.107 Y67.527 Z-1.889
N11305 X36.132 Y67.516 Z-1.898
N11310 X36.16 Y67.519 Z-1.907
N11315 X36.181 Y67.537 Z-1.916
N11320 X36.189 Y67.564 Z-1.925
N11325 X36.182 Y67.591 Z-1.934
N11330 X36.162 Y67.61 Z-1.943
N11335 X36.135 Y67.615 Z-1.951
N11340 X36.109 Y67.605 Z-1.96
N11345 X36.092 Y67.582 Z-1.969
N11350 X36.091 Y67.554 Z-1.978
N11355 X36.104 Y67.53 Z-1.987
N11360 X36.128 Y67.516 Z-1.996
N11365 X36.156 Y67.518 Z-2.005
N11370 X36.179 Y67.534 Z-2.014
N11375 X36.189 Y67.56 Z-2.023
N11380 X36.184 Y67.587 Z-2.032
N11385 X36.165 Y67.608 Z-2.041
N11390 X36.139 Y67.615 Z-2.05
N11395 X36.112 Y67.607 Z-2.059
N11400 X36.094 Y67.586 Z-2.068
N11405 X36.09 Y67.558 Z-2.077
N11410 X36.101 Y67.533 Z-2.086
N11415 X36.125 Y67.517 Z-2.095
N11420 X36.152 Z-2.104
N11425 X36.176 Y67.531 Z-2.113
N11430 X36.189 Y67.556 Z-2.122
N11435 X36.186 Y67.584 Z-2.131
N11440 X36.169 Y67.606 Z-2.14
N11445 X36.142 Y67.615 Z-2.149
N11450 X36.115 Y67.609 Z-2.158
N11455 X36.096 Y67.589 Z-2.167
N11460 X36.09 Y67.562 Z-2.176
N11465 X36.099 Y67.536 Z-2.185
N11470 X36.121 Y67.518 Z-2.194
N11475 X36.149 Y67.516 Z-2.203
N11480 X36.174 Y67.528 Z-2.212
N11485 X36.188 Y67.552 Z-2.221
N11490 X36.187 Y67.58 Z-2.23
N11495 X36.172 Y67.603 Z-2.239
N11500 X36.146 Y67.615 Z-2.248
N11505 X36.118 Y67.61 Z-2.257
N11510 X36.097 Y67.592 Z-2.266
N11515 X36.089 Y67.565 Z-2.275
N11520 X36.097 Y67.539 Z-2.284
N11525 X36.118 Y67.52 Z-2.293
N11530 X36.145 Y67.515 Z-2.302
N11535 X36.171 Y67.526 Z-2.311
N11540 X36.187 Y67.549 Z-2.32
N11545 X36.188 Y67.577 Z-2.329
N11550 X36.174 Y67.601 Z-2.338
N11555 X36.15 Y67.614 Z-2.347
N11560 X36.122 Y67.612 Z-2.356
N11565 X36.1 Y67.595 Z-2.365
N11570 X36.09 Y67.569 Z-2.374
N11575 X36.095 Y67.542 Z-2.383
N11580 X36.114 Y67.522 Z-2.392
N11585 X36.141 Y67.515 Z-2.401
N11590 X36.168 Y67.524 Z-2.41
N11595 X36.185 Y67.545 Z-2.419
N11600 X36.189 Y67.573 Z-2.428
N11605 X36.177 Y67.598 Z-2.437
N11610 X36.153 Y67.613 Z-2.446
N11615 X36.126 Z-2.454
N11620 X36.102 Y67.598 Z-2.463
N11625 X36.09 Y67.573 Z-2.472
N11630 X36.093 Y67.545 Z-2.481
N11635 X36.111 Y67.524 Z-2.49
N11640 X36.138 Y67.515 Z-2.499
N11645 X36.165 Y67.522 Z-2.508
N11650 X36.184 Y67.542 Z-2.517
N11655 X36.189 Y67.569 Z-2.526
N11660 X36.179 Y67.595 Z-2.535
N11665 X36.157 Y67.612 Z-2.544
N11670 X36.129 Y67.614 Z-2.553
N11675 X36.105 Y67.601 Z-2.562
N11680 X36.091 Y67.577 Z-2.571
N11685 X36.092 Y67.549 Z-2.58
N11690 X36.108 Y67.526 Z-2.589
N11695 X36.134 Y67.515 Z-2.598
N11700 X36.161 Y67.52 Z-2.607
N11705 X36.182 Y67.539 Z-2.616
N11710 X36.189 Y67.565 Z-2.625
N11715 X36.181 Y67.592 Z-2.634
N11720 X36.16 Y67.61 Z-2.643
N11725 X36.133 Y67.615 Z-2.652
N11730 X36.107 Y67.603 Z-2.661
N11735 X36.092 Y67.58 Z-2.67
N11740 X36.091 Y67.552 Z-2.679
N11745 X36.105 Y67.528 Z-2.688
N11750 X36.13 Y67.516 Z-2.697
N11755 X36.158 Y67.518 Z-2.706
N11760 X36.18 Y67.536 Z-2.715
N11765 X36.189 Y67.562 Z-2.724
N11770 X36.183 Y67.589 Z-2.733
N11775 X36.164 Y67.609 Z-2.742
N11780 X36.137 Y67.615 Z-2.751
N11785 X36.11 Y67.606 Z-2.76
N11790 X36.093 Y67.584 Z-2.769
N11795 X36.09 Y67.556 Z-2.778
N11800 X36.103 Y67.531 Z-2.787
N11805 X36.126 Y67.517 Z-2.796
N11810 X36.154 Z-2.805
N11815 X36.178 Y67.533 Z-2.814
N11820 X36.189 Y67.558 Z-2.823
N11825 X36.185 Y67.586 Z-2.832
N11830 X36.167 Y67.607 Z-2.841
N11835 X36.14 Y67.615 Z-2.85
N11840 X36.113 Y67.608 Z-2.859
N11845 X36.095 Y67.587 Z-2.868
N11850 X36.09 Y67.56 Z-2.877
N11855 X36.1 Y67.534 Z-2.886
N11860 X36.123 Y67.518 Z-2.895
N11865 X36.151 Y67.516 Z-2.904
N11870 X36.175 Y67.53 Z-2.913
N11875 X36.188 Y67.554 Z-2.922
N11880 X36.186 Y67.582 Z-2.931
N11885 X36.17 Y67.605 Z-2.94
N11890 X36.144 Y67.615 Z-2.949
N11895 X36.117 Y67.61 Z-2.957
N11900 X36.096 Y67.591 Z-2.966
N11905 X36.089 Y67.564 Z-2.975
N11910 X36.098 Y67.537 Z-2.984
N11915 X36.119 Y67.519 Z-2.993
N11920 X36.147 Y67.516 Z-3.002
N11925 X36.172 Y67.527 Z-3.011
N11930 X36.187 Y67.551 Z-3.02
N11935 X36.188 Y67.578 Z-3.029
N11940 X36.173 Y67.602 Z-3.038
N11945 X36.148 Y67.614 Z-3.047
N11950 X36.12 Y67.611 Z-3.056
N11955 X36.098 Y67.594 Z-3.065
N11960 X36.089 Y67.567 Z-3.074
N11965 X36.096 Y67.54 Z-3.083
N11970 X36.116 Y67.521 Z-3.092
N11975 X36.143 Y67.515 Z-3.101
N11980 X36.169 Y67.525 Z-3.11
N11985 X36.186 Y67.547 Z-3.119
N11990 X36.188 Y67.575 Z-3.128
N11995 X36.176 Y67.599 Z-3.137
N12000 X36.152 Y67.613 Z-3.146
N12005 X36.124 Y67.612 Z-3.155
N12010 X36.101 Y67.597 Z-3.164
N12015 X36.09 Y67.571 Z-3.173
N12020 X36.094 Y67.544 Z-3.182
N12025 X36.113 Y67.523 Z-3.191
N12030 X36.139 Y67.515 Z-3.2
N12035 G3 Y67.615 J0.05
N12040 Y67.515 J-0.05
N12045 G1 X36.157 Y67.522
N12050 X36.164 Y67.54
N12055 X36.139 Y67.565
N12060 G0 Z2.3
N12065 X32.435 Y51.133
N12070 Z2
N12075 G1 Z0.3 F50
N12080 X32.485 Y51.183
N12085 X32.478 Y51.208
N12090 X32.46 Y51.226
N12095 X32.435 Y51.233
N12100 X32.396 Y51.225 Z0.294 F800
N12105 X32.363 Y51.203 Z0.287
N12110 X32.342 Y51.169 Z0.281
N12115 X32.335 Y51.13 Z0.274
N12120 X32.344 Y51.091 Z0.268
N12125 X32.368 Y51.059 Z0.262
N12130 X32.402 Y51.039 Z0.255
N12135 X32.441 Y51.033 Z0.249
N12140 X32.48 Y51.044 Z0.243
N12145 X32.511 Y51.068 Z0.236
N12150 X32.53 Y51.103 Z0.23
N12155 X32.535 Y51.142 Z0.223
N12160 X32.523 Y51.18 Z0.217
N12165 X32.498 Y51.211 Z0.211
N12170 X32.462 Y51.229 Z0.204
N12175 X32.422 Y51.232 Z0.198
N12180 X32.385 Y51.219 Z0.192
N12185 X32.355 Y51.193 Z0.185
N12190 X32.338 Y51.157 Z0.179
N12195 X32.336 Y51.117 Z0.172
N12200 X32.35 Y51.08 Z0.166
N12205 X32.378 Y51.051 Z0.16
N12210 X32.414 Y51.035 Z0.153
N12215 X32.454 Z0.147
N12220 X32.491 Y51.05 Z0.141
N12225 X32.519 Y51.078 Z0.134
N12230 X32.533 Y51.115 Z0.128
N12235 Y51.155 Z0.121
N12240 X32.516 Y51.191 Z0.115
N12245 X32.487 Y51.218 Z0.109
N12250 X32.45 Y51.232 Z0.102
N12255 X32.41 Y51.23 Z0.096
N12260 X32.374 Y51.212 Z0.09
N12265 X32.348 Y51.182 Z0.083
N12270 X32.336 Y51.145 Z0.077
N12275 X32.339 Y51.105 Z0.07
N12280 X32.358 Y51.07 Z0.064
N12285 X32.388 Y51.045 Z0.058
N12290 X32.426 Y51.033 Z0.051
N12295 X32.466 Y51.038 Z0.045
N12300 X32.501 Y51.057 Z0.039
N12305 X32.525 Y51.089 Z0.032
N12310 X32.535 Y51.128 Z0.026
N12315 X32.529 Y51.167 Z0.019
N12320 X32.508 Y51.201 Z0.013
N12325 X32.476 Y51.224 Z0.007
N12330 X32.437 Y51.233 Z0
N12335 X32.398 Y51.226 Z-0.006
N12340 X32.365 Y51.204 Z-0.012
N12345 X32.343 Y51.171 Z-0.019
N12350 X32.335 Y51.132 Z-0.025
N12355 X32.343 Y51.093 Z-0.032
N12360 X32.366 Y51.061 Z-0.038
N12365 X32.4 Y51.039 Z-0.044
N12370 X32.439 Y51.033 Z-0.051
N12375 X32.478 Y51.043 Z-0.057
N12380 X32.51 Y51.066 Z-0.063
N12385 X32.53 Y51.101 Z-0.07
N12390 X32.535 Y51.14 Z-0.076
N12395 X32.524 Y51.178 Z-0.083
N12400 X32.499 Y51.21 Z-0.089
N12405 X32.464 Y51.229 Z-0.095
N12410 X32.425 Y51.232 Z-0.102
N12415 X32.387 Y51.221 Z-0.108
N12420 X32.356 Y51.195 Z-0.114
N12425 X32.339 Y51.159 Z-0.121
N12430 X32.336 Y51.12 Z-0.127
N12435 X32.349 Y51.082 Z-0.134
N12440 X32.376 Y51.052 Z-0.14
N12445 X32.412 Y51.036 Z-0.146
N12450 X32.452 Y51.034 Z-0.153
N12455 X32.489 Y51.049 Z-0.159
N12460 X32.517 Y51.076 Z-0.165
N12465 X32.533 Y51.113 Z-0.172
N12470 Y51.153 Z-0.178
N12475 X32.518 Y51.189 Z-0.185
N12480 X32.489 Y51.217 Z-0.191
N12485 X32.452 Y51.231 Z-0.197
N12490 X32.412 Y51.23 Z-0.204
N12495 X32.376 Y51.214 Z-0.21
N12500 X32.349 Y51.184 Z-0.216
N12505 X32.336 Y51.147 Z-0.223
N12510 X32.338 Y51.107 Z-0.229
N12515 X32.356 Y51.072 Z-0.236
N12520 X32.386 Y51.046 Z-0.242
N12525 X32.424 Y51.034 Z-0.248
N12530 X32.464 Y51.037 Z-0.255
N12535 X32.499 Y51.056 Z-0.261
N12540 X32.524 Y51.087 Z-0.267
N12545 X32.535 Y51.125 Z-0.274
N12550 X32.53 Y51.165 Z-0.28
N12555 X32.51 Y51.199 Z-0.287
N12560 X32.478 Y51.223 Z-0.293
N12565 X32.44 Y51.233 Z-0.299
N12570 X32.4 Y51.227 Z-0.306
N12575 X32.366 Y51.206 Z-0.312
N12580 X32.344 Y51.173 Z-0.318
N12585 X32.335 Y51.134 Z-0.325
N12590 X32.342 Y51.095 Z-0.331
N12595 X32.364 Y51.062 Z-0.338
N12600 X32.398 Y51.04 Z-0.344
N12605 X32.437 Y51.033 Z-0.35
N12610 X32.476 Y51.042 Z-0.357
N12615 X32.508 Y51.065 Z-0.363
N12620 X32.529 Y51.098 Z-0.369
N12625 X32.535 Y51.138 Z-0.376
N12630 X32.525 Y51.176 Z-0.382
N12635 X32.501 Y51.208 Z-0.389
N12640 X32.467 Y51.228 Z-0.395
N12645 X32.427 Y51.233 Z-0.401
N12650 X32.389 Y51.222 Z-0.408
N12655 X32.358 Y51.197 Z-0.414
N12660 X32.339 Y51.161 Z-0.42
N12665 X32.336 Y51.122 Z-0.427
N12670 X32.348 Y51.084 Z-0.433
N12675 X32.374 Y51.054 Z-0.44
N12680 X32.41 Y51.036 Z-0.446
N12685 X32.449 Y51.034 Z-0.452
N12690 X32.487 Y51.047 Z-0.459
N12695 X32.516 Y51.074 Z-0.465
N12700 X32.532 Y51.111 Z-0.471
N12705 X32.534 Y51.15 Z-0.478
N12710 X32.519 Y51.187 Z-0.484
N12715 X32.491 Y51.216 Z-0.491
N12720 X32.454 Y51.231 Z-0.497
N12725 X32.415 Z-0.503
N12730 X32.378 Y51.215 Z-0.51
N12735 X32.35 Y51.186 Z-0.516
N12740 X32.336 Y51.149 Z-0.522
N12745 X32.338 Y51.109 Z-0.529
N12750 X32.355 Y51.073 Z-0.535
N12755 X32.384 Y51.047 Z-0.542
N12760 X32.422 Y51.034 Z-0.548
N12765 X32.462 Y51.037 Z-0.554
N12770 X32.497 Y51.055 Z-0.561
N12775 X32.523 Y51.085 Z-0.567
N12780 X32.535 Y51.123 Z-0.573
N12785 X32.531 Y51.163 Z-0.58
N12790 X32.511 Y51.197 Z-0.586
N12795 X32.48 Y51.222 Z-0.593
N12800 X32.442 Y51.233 Z-0.599
N12805 X32.402 Y51.228 Z-0.605
N12810 X32.368 Y51.207 Z-0.612
N12815 X32.344 Y51.175 Z-0.618
N12820 X32.335 Y51.137 Z-0.624
N12825 X32.342 Y51.097 Z-0.631
N12830 X32.363 Y51.064 Z-0.637
N12835 X32.396 Y51.041 Z-0.644
N12840 X32.434 Y51.033 Z-0.65
N12845 X32.473 Y51.041 Z-0.656
N12850 X32.506 Y51.063 Z-0.663
N12855 X32.528 Y51.096 Z-0.669
N12860 X32.535 Y51.136 Z-0.675
N12865 X32.526 Y51.174 Z-0.682
N12870 X32.503 Y51.207 Z-0.688
N12875 X32.469 Y51.227 Z-0.695
N12880 X32.429 Y51.233 Z-0.701
N12885 X32.391 Y51.223 Z-0.707
N12890 X32.359 Y51.198 Z-0.714
N12895 X32.34 Y51.164 Z-0.72
N12900 X32.335 Y51.124 Z-0.726
N12905 X32.347 Y51.086 Z-0.733
N12910 X32.372 Y51.055 Z-0.739
N12915 X32.407 Y51.037 Z-0.746
N12920 X32.447 Y51.034 Z-0.752
N12925 X32.485 Y51.046 Z-0.758
N12930 X32.515 Y51.072 Z-0.765
N12935 X32.532 Y51.108 Z-0.771
N12940 X32.534 Y51.148 Z-0.777
N12945 X32.52 Y51.185 Z-0.784
N12950 X32.493 Y51.214 Z-0.79
N12955 X32.457 Y51.231 Z-0.797
N12960 X32.417 Z-0.803
N12965 X32.38 Y51.216 Z-0.809
N12970 X32.352 Y51.188 Z-0.816
N12975 X32.337 Y51.151 Z-0.822
N12980 Y51.112 Z-0.828
N12985 X32.353 Y51.075 Z-0.835
N12990 X32.382 Y51.048 Z-0.841
N12995 X32.42 Y51.034 Z-0.848
N13000 X32.459 Y51.036 Z-0.854
N13005 X32.495 Y51.053 Z-0.86
N13010 X32.522 Y51.083 Z-0.867
N13015 X32.534 Y51.121 Z-0.873
N13020 X32.531 Y51.16 Z-0.879
N13025 X32.513 Y51.196 Z-0.886
N13030 X32.482 Y51.221 Z-0.892
N13035 X32.444 Y51.233 Z-0.899
N13040 X32.405 Y51.228 Z-0.905
N13045 X32.37 Y51.209 Z-0.911
N13050 X32.345 Y51.177 Z-0.918
N13055 X32.335 Y51.139 Z-0.924
N13060 X32.341 Y51.1 Z-0.93
N13065 X32.361 Y51.065 Z-0.937
N13070 X32.393 Y51.042 Z-0.943
N13075 X32.432 Y51.033 Z-0.95
N13080 X32.471 Y51.04 Z-0.956
N13085 X32.505 Y51.061 Z-0.962
N13090 X32.527 Y51.094 Z-0.969
N13095 X32.535 Y51.133 Z-0.975
N13100 X32.527 Y51.172 Z-0.981
N13105 X32.504 Y51.205 Z-0.988
N13110 X32.471 Y51.226 Z-0.994
N13115 X32.432 Y51.233 Z-1.001
N13120 X32.393 Y51.224 Z-1.007
N13125 X32.361 Y51.2 Z-1.013
N13130 X32.341 Y51.166 Z-1.02
N13135 X32.335 Y51.126 Z-1.026
N13140 X32.346 Y51.088 Z-1.032
N13145 X32.37 Y51.057 Z-1.039
N13150 X32.405 Y51.038 Z-1.045
N13155 X32.445 Y51.033 Z-1.052
N13160 X32.483 Y51.045 Z-1.058
N13165 X32.513 Y51.071 Z-1.064
N13170 X32.531 Y51.106 Z-1.071
N13175 X32.534 Y51.146 Z-1.077
N13180 X32.521 Y51.183 Z-1.083
N13185 X32.495 Y51.213 Z-1.09
N13190 X32.459 Y51.23 Z-1.096
N13195 X32.419 Y51.232 Z-1.103
N13200 X32.382 Y51.218 Z-1.109
N13205 X32.353 Y51.19 Z-1.115
N13210 X32.337 Y51.154 Z-1.122
N13215 Y51.114 Z-1.128
N13220 X32.352 Y51.077 Z-1.134
N13225 X32.38 Y51.049 Z-1.141
N13230 X32.417 Y51.035 Z-1.147
N13235 X32.457 Z-1.154
N13240 X32.493 Y51.052 Z-1.16
N13245 X32.52 Y51.081 Z-1.166
N13250 X32.534 Y51.118 Z-1.173
N13255 X32.532 Y51.158 Z-1.179
N13260 X32.514 Y51.194 Z-1.185
N13265 X32.484 Y51.22 Z-1.192
N13270 X32.446 Y51.232 Z-1.198
N13275 X32.407 Y51.229 Z-1.205
N13280 X32.372 Y51.21 Z-1.211
N13285 X32.346 Y51.179 Z-1.217
N13290 X32.335 Y51.141 Z-1.224
N13295 X32.34 Y51.102 Z-1.23
N13300 X32.36 Y51.067 Z-1.236
N13305 X32.391 Y51.043 Z-1.243
N13310 X32.43 Y51.033 Z-1.249
N13315 X32.469 Y51.039 Z-1.256
N13320 X32.503 Y51.06 Z-1.262
N13325 X32.526 Y51.092 Z-1.268
N13330 X32.535 Y51.131 Z-1.275
N13335 X32.528 Y51.17 Z-1.281
N13340 X32.506 Y51.203 Z-1.287
N13345 X32.473 Y51.225 Z-1.294
N13350 X32.434 Y51.233 Z-1.3
N13355 X32.395 Y51.225 Z-1.307
N13360 X32.362 Y51.202 Z-1.313
N13365 X32.341 Y51.168 Z-1.319
N13370 X32.335 Y51.129 Z-1.326
N13375 X32.345 Y51.09 Z-1.332
N13380 X32.369 Y51.058 Z-1.338
N13385 X32.403 Y51.038 Z-1.345
N13390 X32.442 Y51.033 Z-1.351
N13395 X32.481 Y51.044 Z-1.358
N13400 X32.512 Y51.069 Z-1.364
N13405 X32.531 Y51.104 Z-1.37
N13410 X32.534 Y51.144 Z-1.377
N13415 X32.522 Y51.181 Z-1.383
N13420 X32.497 Y51.212 Z-1.389
N13425 X32.461 Y51.23 Z-1.396
N13430 X32.421 Y51.232 Z-1.402
N13435 X32.384 Y51.219 Z-1.409
N13440 X32.354 Y51.192 Z-1.415
N13445 X32.338 Y51.156 Z-1.421
N13450 X32.336 Y51.116 Z-1.428
N13455 X32.351 Y51.079 Z-1.434
N13460 X32.378 Y51.05 Z-1.44
N13465 X32.415 Y51.035 Z-1.447
N13470 X32.455 Z-1.453
N13475 X32.492 Y51.05 Z-1.46
N13480 X32.519 Y51.079 Z-1.466
N13485 X32.534 Y51.116 Z-1.472
N13490 X32.532 Y51.156 Z-1.479
N13495 X32.516 Y51.192 Z-1.485
N13500 X32.486 Y51.219 Z-1.491
N13505 X32.449 Y51.232 Z-1.498
N13510 X32.409 Y51.23 Z-1.504
N13515 X32.373 Y51.212 Z-1.511
N13520 X32.348 Y51.181 Z-1.517
N13525 X32.336 Y51.144 Z-1.523
N13530 X32.339 Y51.104 Z-1.53
N13535 X32.358 Y51.069 Z-1.536
N13540 X32.389 Y51.044 Z-1.542
N13545 X32.428 Y51.033 Z-1.549
N13550 X32.467 Y51.038 Z-1.555
N13555 X32.501 Y51.058 Z-1.562
N13560 X32.525 Y51.09 Z-1.568
N13565 X32.535 Y51.129 Z-1.574
N13570 X32.529 Y51.168 Z-1.581
N13575 X32.508 Y51.202 Z-1.587
N13580 X32.475 Y51.225 Z-1.593
N13585 X32.436 Y51.233 Z-1.6
N13590 X32.397 Y51.225 Z-1.606
N13595 X32.364 Y51.203 Z-1.613
N13600 X32.342 Y51.17 Z-1.619
N13605 X32.335 Y51.131 Z-1.625
N13610 X32.344 Y51.092 Z-1.632
N13615 X32.367 Y51.06 Z-1.638
N13620 X32.401 Y51.039 Z-1.644
N13625 X32.44 Y51.033 Z-1.651
N13630 X32.479 Y51.043 Z-1.657
N13635 X32.51 Y51.067 Z-1.664
N13640 X32.53 Y51.102 Z-1.67
N13645 X32.535 Y51.141 Z-1.676
N13650 X32.524 Y51.179 Z-1.683
N13655 X32.498 Y51.21 Z-1.689
N13660 X32.463 Y51.229 Z-1.695
N13665 X32.424 Y51.232 Z-1.702
N13670 X32.386 Y51.22 Z-1.708
N13675 X32.356 Y51.194 Z-1.715
N13680 X32.338 Y51.158 Z-1.721
N13685 X32.336 Y51.118 Z-1.727
N13690 X32.35 Y51.081 Z-1.734
N13695 X32.377 Y51.052 Z-1.74
N13700 X32.413 Y51.035 Z-1.746
N13705 X32.453 Z-1.753
N13710 X32.49 Y51.049 Z-1.759
N13715 X32.518 Y51.077 Z-1.766
N13720 X32.533 Y51.114 Z-1.772
N13725 Y51.154 Z-1.778
N13730 X32.517 Y51.19 Z-1.785
N13735 X32.488 Y51.218 Z-1.791
N13740 X32.451 Y51.232 Z-1.797
N13745 X32.411 Y51.23 Z-1.804
N13750 X32.375 Y51.213 Z-1.81
N13755 X32.349 Y51.183 Z-1.817
N13760 X32.336 Y51.146 Z-1.823
N13765 X32.339 Y51.106 Z-1.829
N13770 X32.357 Y51.071 Z-1.836
N13775 X32.387 Y51.045 Z-1.842
N13780 X32.425 Y51.033 Z-1.848
N13785 X32.465 Y51.038 Z-1.855
N13790 X32.5 Y51.057 Z-1.861
N13795 X32.524 Y51.088 Z-1.868
N13800 X32.535 Y51.126 Z-1.874
N13805 X32.529 Y51.166 Z-1.88
N13810 X32.509 Y51.2 Z-1.887
N13815 X32.477 Y51.224 Z-1.893
N13820 X32.438 Y51.233 Z-1.899
N13825 X32.399 Y51.226 Z-1.906
N13830 X32.366 Y51.205 Z-1.912
N13835 X32.343 Y51.172 Z-1.919
N13840 X32.335 Y51.133 Z-1.925
N13845 X32.343 Y51.094 Z-1.931
N13850 X32.365 Y51.061 Z-1.938
N13855 X32.399 Y51.04 Z-1.944
N13860 X32.438 Y51.033 Z-1.95
N13865 X32.477 Y51.042 Z-1.957
N13870 X32.509 Y51.065 Z-1.963
N13875 X32.529 Y51.1 Z-1.97
N13880 X32.535 Y51.139 Z-1.976
N13885 X32.525 Y51.177 Z-1.982
N13890 X32.5 Y51.209 Z-1.989
N13895 X32.465 Y51.228 Z-1.995
N13900 X32.426 Y51.233 Z-2.001
N13905 X32.388 Y51.221 Z-2.008
N13910 X32.357 Y51.196 Z-2.014
N13915 X32.339 Y51.16 Z-2.021
N13920 X32.336 Y51.121 Z-2.027
N13925 X32.348 Y51.083 Z-2.033
N13930 X32.375 Y51.053 Z-2.04
N13935 X32.411 Y51.036 Z-2.046
N13940 X32.45 Y51.034 Z-2.052
N13945 X32.488 Y51.048 Z-2.059
N13950 X32.517 Y51.075 Z-2.065
N13955 X32.533 Y51.112 Z-2.072
N13960 Y51.151 Z-2.078
N13965 X32.518 Y51.188 Z-2.084
N13970 X32.49 Y51.216 Z-2.091
N13975 X32.453 Y51.231 Z-2.097
N13980 X32.413 Z-2.103
N13985 X32.377 Y51.214 Z-2.11
N13990 X32.35 Y51.185 Z-2.116
N13995 X32.336 Y51.148 Z-2.123
N14000 X32.338 Y51.108 Z-2.129
N14005 X32.355 Y51.072 Z-2.135
N14010 X32.385 Y51.046 Z-2.142
N14015 X32.423 Y51.034 Z-2.148
N14020 X32.463 Y51.037 Z-2.154
N14025 X32.498 Y51.055 Z-2.161
N14030 X32.523 Y51.086 Z-2.167
N14035 X32.535 Y51.124 Z-2.174
N14040 X32.53 Y51.164 Z-2.18
N14045 X32.511 Y51.198 Z-2.186
N14050 X32.479 Y51.223 Z-2.193
N14055 X32.441 Y51.233 Z-2.199
N14060 X32.401 Y51.227 Z-2.205
N14065 X32.367 Y51.207 Z-2.212
N14070 X32.344 Y51.174 Z-2.218
N14075 X32.335 Y51.136 Z-2.225
N14080 X32.342 Y51.096 Z-2.231
N14085 X32.364 Y51.063 Z-2.237
N14090 X32.397 Y51.041 Z-2.244
N14095 X32.436 Y51.033 Z-2.25
N14100 X32.475 Y51.041 Z-2.256
N14105 X32.507 Y51.064 Z-2.263
N14110 X32.528 Y51.097 Z-2.269
N14115 X32.535 Y51.137 Z-2.276
N14120 X32.526 Y51.175 Z-2.282
N14125 X32.502 Y51.207 Z-2.288
N14130 X32.468 Y51.228 Z-2.295
N14135 X32.428 Y51.233 Z-2.301
N14140 X32.39 Y51.222 Z-2.307
N14145 X32.359 Y51.197 Z-2.314
N14150 X32.34 Y51.163 Z-2.32
N14155 X32.336 Y51.123 Z-2.327
N14160 X32.347 Y51.085 Z-2.333
N14165 X32.373 Y51.055 Z-2.339
N14170 X32.408 Y51.037 Z-2.346
N14175 X32.448 Y51.034 Z-2.352
N14180 X32.486 Y51.047 Z-2.358
N14185 X32.515 Y51.073 Z-2.365
N14190 X32.532 Y51.109 Z-2.371
N14195 X32.534 Y51.149 Z-2.378
N14200 X32.52 Y51.186 Z-2.384
N14205 X32.492 Y51.215 Z-2.39
N14210 X32.455 Y51.231 Z-2.397
N14215 X32.416 Z-2.403
N14220 X32.379 Y51.216 Z-2.409
N14225 X32.351 Y51.187 Z-2.416
N14230 X32.337 Y51.15 Z-2.422
N14235 X32.338 Y51.111 Z-2.429
N14240 X32.354 Y51.074 Z-2.435
N14245 X32.383 Y51.047 Z-2.441
N14250 X32.421 Y51.034 Z-2.448
N14255 X32.46 Y51.036 Z-2.454
N14260 X32.496 Y51.054 Z-2.46
N14265 X32.522 Y51.084 Z-2.467
N14270 X32.534 Y51.122 Z-2.473
N14275 X32.531 Y51.161 Z-2.48
N14280 X32.512 Y51.197 Z-2.486
N14285 X32.481 Y51.222 Z-2.492
N14290 X32.443 Y51.233 Z-2.499
N14295 X32.404 Y51.228 Z-2.505
N14300 X32.369 Y51.208 Z-2.511
N14305 X32.345 Y51.176 Z-2.518
N14310 X32.335 Y51.138 Z-2.524
N14315 X32.341 Y51.098 Z-2.531
N14320 X32.362 Y51.065 Z-2.537
N14325 X32.394 Y51.042 Z-2.543
N14330 X32.433 Y51.033 Z-2.55
N14335 X32.472 Y51.04 Z-2.556
N14340 X32.506 Y51.062 Z-2.562
N14345 X32.528 Y51.095 Z-2.569
N14350 X32.535 Y51.134 Z-2.575
N14355 X32.527 Y51.173 Z-2.582
N14360 X32.504 Y51.206 Z-2.588
N14365 X32.47 Y51.227 Z-2.594
N14370 X32.43 Y51.233 Z-2.601
N14375 X32.392 Y51.223 Z-2.607
N14380 X32.36 Y51.199 Z-2.613
N14385 X32.34 Y51.165 Z-2.62
N14390 X32.335 Y51.125 Z-2.626
N14395 X32.346 Y51.087 Z-2.633
N14400 X32.371 Y51.056 Z-2.639
N14405 X32.406 Y51.037 Z-2.645
N14410 X32.446 Y51.034 Z-2.652
N14415 X32.484 Y51.046 Z-2.658
N14420 X32.514 Y51.072 Z-2.664
N14425 X32.532 Y51.107 Z-2.671
N14430 X32.534 Y51.147 Z-2.677
N14435 X32.521 Y51.184 Z-2.684
N14440 X32.494 Y51.214 Z-2.69
N14445 X32.458 Y51.23 Z-2.696
N14450 X32.418 Y51.231 Z-2.703
N14455 X32.381 Y51.217 Z-2.709
N14460 X32.352 Y51.189 Z-2.715
N14465 X32.337 Y51.153 Z-2.722
N14470 Y51.113 Z-2.728
N14475 X32.353 Y51.076 Z-2.735
N14480 X32.381 Y51.049 Z-2.741
N14485 X32.419 Y51.034 Z-2.747
N14490 X32.458 Y51.036 Z-2.754
N14495 X32.494 Y51.052 Z-2.76
N14500 X32.521 Y51.082 Z-2.766
N14505 X32.534 Y51.12 Z-2.773
N14510 X32.532 Y51.159 Z-2.779
N14515 X32.514 Y51.195 Z-2.786
N14520 X32.483 Y51.221 Z-2.792
N14525 X32.445 Y51.232 Z-2.798
N14530 X32.406 Y51.229 Z-2.805
N14535 X32.371 Y51.21 Z-2.811
N14540 X32.346 Y51.178 Z-2.817
N14545 X32.335 Y51.14 Z-2.824
N14550 X32.34 Y51.101 Z-2.83
N14555 X32.36 Y51.066 Z-2.837
N14560 X32.392 Y51.043 Z-2.843
N14565 X32.431 Y51.033 Z-2.849
N14570 X32.47 Y51.039 Z-2.856
N14575 X32.504 Y51.061 Z-2.862
N14580 X32.527 Y51.093 Z-2.868
N14585 X32.535 Y51.132 Z-2.875
N14590 X32.527 Y51.171 Z-2.881
N14595 X32.505 Y51.204 Z-2.888
N14600 X32.472 Y51.226 Z-2.894
N14605 X32.433 Y51.233 Z-2.9
N14610 X32.394 Y51.224 Z-2.907
N14615 X32.362 Y51.201 Z-2.913
N14620 X32.341 Y51.167 Z-2.919
N14625 X32.335 Y51.128 Z-2.926
N14630 X32.345 Y51.089 Z-2.932
N14635 X32.369 Y51.057 Z-2.939
N14640 X32.404 Y51.038 Z-2.945
N14645 X32.444 Y51.033 Z-2.951
N14650 X32.482 Y51.045 Z-2.958
N14655 X32.513 Y51.07 Z-2.964
N14660 X32.531 Y51.105 Z-2.97
N14665 X32.534 Y51.145 Z-2.977
N14670 X32.522 Y51.182 Z-2.983
N14675 X32.496 Y51.212 Z-2.99
N14680 X32.46 Y51.23 Z-2.996
N14685 X32.42 Y51.232 Z-3.002
N14690 X32.383 Y51.218 Z-3.009
N14695 X32.354 Y51.191 Z-3.015
N14700 X32.337 Y51.155 Z-3.021
N14705 Y51.115 Z-3.028
N14710 X32.351 Y51.078 Z-3.034
N14715 X32.379 Y51.05 Z-3.041
N14720 X32.416 Y51.035 Z-3.047
N14725 X32.456 Z-3.053
N14730 X32.493 Y51.051 Z-3.06
N14735 X32.52 Y51.08 Z-3.066
N14740 X32.534 Y51.117 Z-3.072
N14745 X32.532 Y51.157 Z-3.079
N14750 X32.515 Y51.193 Z-3.085
N14755 X32.485 Y51.219 Z-3.092
N14760 X32.448 Y51.232 Z-3.098
N14765 X32.408 Y51.229 Z-3.104
N14770 X32.373 Y51.211 Z-3.111
N14775 X32.347 Y51.18 Z-3.117
N14780 X32.335 Y51.142 Z-3.123
N14785 X32.34 Y51.103 Z-3.13
N14790 X32.359 Y51.068 Z-3.136
N14795 X32.39 Y51.044 Z-3.143
N14800 X32.429 Y51.033 Z-3.149
N14805 X32.468 Y51.039 Z-3.155
N14810 X32.502 Y51.059 Z-3.162
N14815 X32.526 Y51.091 Z-3.168
N14820 X32.535 Y51.13 Z-3.174
N14825 X32.528 Y51.169 Z-3.181
N14830 X32.507 Y51.203 Z-3.187
N14835 X32.474 Y51.225 Z-3.194
N14840 X32.435 Y51.233 Z-3.2
N14845 G3 Y51.033 J-0.1
N14850 Y51.233 J0.1
N14855 G1 X32.41 Y51.226
N14860 X32.392 Y51.208
N14865 X32.385 Y51.183
N14870 X32.435 Y51.133
N14875 G0 Z2.3
N14880 X5.565
N14885 Z2
N14890 G1 Z0.3 F50
N14895 X5.615 Y51.183
N14900 X5.608 Y51.208
N14905 X5.59 Y51.226
N14910 X5.565 Y51.233
N14915 X5.526 Y51.225 Z0.294 F800
N14920 X5.493 Y51.203 Z0.287
N14925 X5.472 Y51.169 Z0.281
N14930 X5.465 Y51.13 Z0.274
N14935 X5.474 Y51.091 Z0.268
N14940 X5.498 Y51.059 Z0.262
N14945 X5.532 Y51.039 Z0.255
N14950 X5.571 Y51.033 Z0.249
N14955 X5.61 Y51.044 Z0.243
N14960 X5.641 Y51.068 Z0.236
N14965 X5.66 Y51.103 Z0.23
N14970 X5.665 Y51.142 Z0.223
N14975 X5.653 Y51.18 Z0.217
N14980 X5.627 Y51.211 Z0.211
N14985 X5.592 Y51.229 Z0.204
N14990 X5.552 Y51.232 Z0.198
N14995 X5.515 Y51.219 Z0.192
N15000 X5.485 Y51.193 Z0.185
N15005 X5.468 Y51.157 Z0.179
N15010 X5.466 Y51.117 Z0.172
N15015 X5.48 Y51.08 Z0.166
N15020 X5.507 Y51.051 Z0.16
N15025 X5.544 Y51.035 Z0.153
N15030 X5.584 Z0.147
N15035 X5.621 Y51.05 Z0.141
N15040 X5.649 Y51.078 Z0.134
N15045 X5.663 Y51.115 Z0.128
N15050 Y51.155 Z0.121
N15055 X5.646 Y51.191 Z0.115
N15060 X5.617 Y51.218 Z0.109
N15065 X5.58 Y51.232 Z0.102
N15070 X5.54 Y51.23 Z0.096
N15075 X5.504 Y51.212 Z0.09
N15080 X5.478 Y51.182 Z0.083
N15085 X5.466 Y51.145 Z0.077
N15090 X5.469 Y51.105 Z0.07
N15095 X5.487 Y51.07 Z0.064
N15100 X5.518 Y51.045 Z0.058
N15105 X5.556 Y51.033 Z0.051
N15110 X5.596 Y51.038 Z0.045
N15115 X5.631 Y51.057 Z0.039
N15120 X5.655 Y51.089 Z0.032
N15125 X5.665 Y51.128 Z0.026
N15130 X5.659 Y51.167 Z0.019
N15135 X5.638 Y51.201 Z0.013
N15140 X5.606 Y51.224 Z0.007
N15145 X5.567 Y51.233 Z0
N15150 X5.528 Y51.226 Z-0.006
N15155 X5.495 Y51.204 Z-0.012
N15160 X5.473 Y51.171 Z-0.019
N15165 X5.465 Y51.132 Z-0.025
N15170 X5.473 Y51.093 Z-0.032
N15175 X5.496 Y51.061 Z-0.038
N15180 X5.53 Y51.039 Z-0.044
N15185 X5.569 Y51.033 Z-0.051
N15190 X5.608 Y51.043 Z-0.057
N15195 X5.64 Y51.066 Z-0.063
N15200 X5.66 Y51.101 Z-0.07
N15205 X5.665 Y51.14 Z-0.076
N15210 X5.654 Y51.178 Z-0.083
N15215 X5.629 Y51.21 Z-0.089
N15220 X5.594 Y51.229 Z-0.095
N15225 X5.555 Y51.232 Z-0.102
N15230 X5.517 Y51.221 Z-0.108
N15235 X5.486 Y51.195 Z-0.114
N15240 X5.468 Y51.159 Z-0.121
N15245 X5.466 Y51.12 Z-0.127
N15250 X5.479 Y51.082 Z-0.134
N15255 X5.506 Y51.052 Z-0.14
N15260 X5.542 Y51.036 Z-0.146
N15265 X5.581 Y51.034 Z-0.153
N15270 X5.619 Y51.049 Z-0.159
N15275 X5.647 Y51.076 Z-0.165
N15280 X5.663 Y51.113 Z-0.172
N15285 Y51.153 Z-0.178
N15290 X5.648 Y51.189 Z-0.185
N15295 X5.619 Y51.217 Z-0.191
N15300 X5.582 Y51.231 Z-0.197
N15305 X5.542 Y51.23 Z-0.204
N15310 X5.506 Y51.214 Z-0.21
N15315 X5.479 Y51.184 Z-0.216
N15320 X5.466 Y51.147 Z-0.223
N15325 X5.468 Y51.107 Z-0.229
N15330 X5.486 Y51.072 Z-0.236
N15335 X5.516 Y51.046 Z-0.242
N15340 X5.554 Y51.034 Z-0.248
N15345 X5.594 Y51.037 Z-0.255
N15350 X5.629 Y51.056 Z-0.261
N15355 X5.654 Y51.087 Z-0.267
N15360 X5.665 Y51.125 Z-0.274
N15365 X5.66 Y51.165 Z-0.28
N15370 X5.64 Y51.199 Z-0.287
N15375 X5.608 Y51.223 Z-0.293
N15380 X5.57 Y51.233 Z-0.299
N15385 X5.53 Y51.227 Z-0.306
N15390 X5.496 Y51.206 Z-0.312
N15395 X5.473 Y51.173 Z-0.318
N15400 X5.465 Y51.134 Z-0.325
N15405 X5.472 Y51.095 Z-0.331
N15410 X5.494 Y51.062 Z-0.338
N15415 X5.528 Y51.04 Z-0.344
N15420 X5.567 Y51.033 Z-0.35
N15425 X5.606 Y51.042 Z-0.357
N15430 X5.638 Y51.065 Z-0.363
N15435 X5.659 Y51.098 Z-0.369
N15440 X5.665 Y51.138 Z-0.376
N15445 X5.655 Y51.176 Z-0.382
N15450 X5.631 Y51.208 Z-0.389
N15455 X5.596 Y51.228 Z-0.395
N15460 X5.557 Y51.233 Z-0.401
N15465 X5.519 Y51.222 Z-0.408
N15470 X5.488 Y51.197 Z-0.414
N15475 X5.469 Y51.161 Z-0.42
N15480 X5.466 Y51.122 Z-0.427
N15485 X5.478 Y51.084 Z-0.433
N15490 X5.504 Y51.054 Z-0.44
N15495 X5.54 Y51.036 Z-0.446
N15500 X5.579 Y51.034 Z-0.452
N15505 X5.617 Y51.047 Z-0.459
N15510 X5.646 Y51.074 Z-0.465
N15515 X5.662 Y51.111 Z-0.471
N15520 X5.663 Y51.15 Z-0.478
N15525 X5.649 Y51.187 Z-0.484
N15530 X5.621 Y51.216 Z-0.491
N15535 X5.584 Y51.231 Z-0.497
N15540 X5.545 Z-0.503
N15545 X5.508 Y51.215 Z-0.51
N15550 X5.48 Y51.186 Z-0.516
N15555 X5.466 Y51.149 Z-0.522
N15560 X5.468 Y51.109 Z-0.529
N15565 X5.485 Y51.073 Z-0.535
N15570 X5.514 Y51.047 Z-0.542
N15575 X5.552 Y51.034 Z-0.548
N15580 X5.592 Y51.037 Z-0.554
N15585 X5.627 Y51.055 Z-0.561
N15590 X5.653 Y51.085 Z-0.567
N15595 X5.664 Y51.123 Z-0.573
N15600 X5.66 Y51.163 Z-0.58
N15605 X5.641 Y51.197 Z-0.586
N15610 X5.61 Y51.222 Z-0.593
N15615 X5.572 Y51.233 Z-0.599
N15620 X5.532 Y51.228 Z-0.605
N15625 X5.498 Y51.207 Z-0.612
N15630 X5.474 Y51.175 Z-0.618
N15635 X5.465 Y51.137 Z-0.624
N15640 X5.472 Y51.097 Z-0.631
N15645 X5.493 Y51.064 Z-0.637
N15650 X5.525 Y51.041 Z-0.644
N15655 X5.564 Y51.033 Z-0.65
N15660 X5.603 Y51.041 Z-0.656
N15665 X5.636 Y51.063 Z-0.663
N15670 X5.658 Y51.096 Z-0.669
N15675 X5.665 Y51.136 Z-0.675
N15680 X5.656 Y51.174 Z-0.682
N15685 X5.633 Y51.207 Z-0.688
N15690 X5.599 Y51.227 Z-0.695
N15695 X5.559 Y51.233 Z-0.701
N15700 X5.521 Y51.223 Z-0.707
N15705 X5.489 Y51.198 Z-0.714
N15710 X5.47 Y51.164 Z-0.72
N15715 X5.465 Y51.124 Z-0.726
N15720 X5.477 Y51.086 Z-0.733
N15725 X5.502 Y51.055 Z-0.739
N15730 X5.537 Y51.037 Z-0.746
N15735 X5.577 Y51.034 Z-0.752
N15740 X5.615 Y51.046 Z-0.758
N15745 X5.645 Y51.072 Z-0.765
N15750 X5.662 Y51.108 Z-0.771
N15755 X5.664 Y51.148 Z-0.777
N15760 X5.65 Y51.185 Z-0.784
N15765 X5.623 Y51.214 Z-0.79
N15770 X5.587 Y51.231 Z-0.797
N15775 X5.547 Z-0.803
N15780 X5.51 Y51.216 Z-0.809
N15785 X5.482 Y51.188 Z-0.816
N15790 X5.467 Y51.151 Z-0.822
N15795 Y51.112 Z-0.828
N15800 X5.483 Y51.075 Z-0.835
N15805 X5.512 Y51.048 Z-0.841
N15810 X5.55 Y51.034 Z-0.848
N15815 X5.589 Y51.036 Z-0.854
N15820 X5.625 Y51.053 Z-0.86
N15825 X5.652 Y51.083 Z-0.867
N15830 X5.664 Y51.121 Z-0.873
N15835 X5.661 Y51.16 Z-0.879
N15840 X5.643 Y51.196 Z-0.886
N15845 X5.612 Y51.221 Z-0.892
N15850 X5.574 Y51.233 Z-0.899
N15855 X5.535 Y51.228 Z-0.905
N15860 X5.5 Y51.209 Z-0.911
N15865 X5.475 Y51.177 Z-0.918
N15870 X5.465 Y51.139 Z-0.924
N15875 X5.471 Y51.1 Z-0.93
N15880 X5.491 Y51.065 Z-0.937
N15885 X5.523 Y51.042 Z-0.943
N15890 X5.562 Y51.033 Z-0.95
N15895 X5.601 Y51.04 Z-0.956
N15900 X5.635 Y51.061 Z-0.962
N15905 X5.657 Y51.094 Z-0.969
N15910 X5.665 Y51.133 Z-0.975
N15915 X5.657 Y51.172 Z-0.981
N15920 X5.634 Y51.205 Z-0.988
N15925 X5.601 Y51.226 Z-0.994
N15930 X5.562 Y51.233 Z-1.001
N15935 X5.523 Y51.224 Z-1.007
N15940 X5.491 Y51.2 Z-1.013
N15945 X5.471 Y51.166 Z-1.02
N15950 X5.465 Y51.126 Z-1.026
N15955 X5.476 Y51.088 Z-1.032
N15960 X5.5 Y51.057 Z-1.039
N15965 X5.535 Y51.038 Z-1.045
N15970 X5.575 Y51.033 Z-1.052
N15975 X5.613 Y51.045 Z-1.058
N15980 X5.643 Y51.071 Z-1.064
N15985 X5.661 Y51.106 Z-1.071
N15990 X5.664 Y51.146 Z-1.077
N15995 X5.651 Y51.183 Z-1.083
N16000 X5.625 Y51.213 Z-1.09
N16005 X5.589 Y51.23 Z-1.096
N16010 X5.549 Y51.232 Z-1.103
N16015 X5.512 Y51.218 Z-1.109
N16020 X5.483 Y51.19 Z-1.115
N16025 X5.467 Y51.154 Z-1.122
N16030 Y51.114 Z-1.128
N16035 X5.482 Y51.077 Z-1.134
N16040 X5.51 Y51.049 Z-1.141
N16045 X5.547 Y51.035 Z-1.147
N16050 X5.587 Z-1.154
N16055 X5.623 Y51.052 Z-1.16
N16060 X5.65 Y51.081 Z-1.166
N16065 X5.664 Y51.118 Z-1.173
N16070 X5.662 Y51.158 Z-1.179
N16075 X5.644 Y51.194 Z-1.185
N16080 X5.614 Y51.22 Z-1.192
N16085 X5.576 Y51.232 Z-1.198
N16090 X5.537 Y51.229 Z-1.205
N16095 X5.502 Y51.21 Z-1.211
N16100 X5.476 Y51.179 Z-1.217
N16105 X5.465 Y51.141 Z-1.224
N16110 X5.47 Y51.102 Z-1.23
N16115 X5.49 Y51.067 Z-1.236
N16120 X5.521 Y51.043 Z-1.243
N16125 X5.56 Y51.033 Z-1.249
N16130 X5.599 Y51.039 Z-1.256
N16135 X5.633 Y51.06 Z-1.262
N16140 X5.656 Y51.092 Z-1.268
N16145 X5.665 Y51.131 Z-1.275
N16150 X5.658 Y51.17 Z-1.281
N16155 X5.636 Y51.203 Z-1.287
N16160 X5.603 Y51.225 Z-1.294
N16165 X5.564 Y51.233 Z-1.3
N16170 X5.525 Y51.225 Z-1.307
N16175 X5.492 Y51.202 Z-1.313
N16180 X5.471 Y51.168 Z-1.319
N16185 X5.465 Y51.129 Z-1.326
N16190 X5.475 Y51.09 Z-1.332
N16195 X5.499 Y51.058 Z-1.338
N16200 X5.533 Y51.038 Z-1.345
N16205 X5.572 Y51.033 Z-1.351
N16210 X5.611 Y51.044 Z-1.358
N16215 X5.642 Y51.069 Z-1.364
N16220 X5.661 Y51.104 Z-1.37
N16225 X5.664 Y51.144 Z-1.377
N16230 X5.652 Y51.181 Z-1.383
N16235 X5.627 Y51.212 Z-1.389
N16240 X5.591 Y51.23 Z-1.396
N16245 X5.551 Y51.232 Z-1.402
N16250 X5.514 Y51.219 Z-1.409
N16255 X5.484 Y51.192 Z-1.415
N16260 X5.468 Y51.156 Z-1.421
N16265 X5.466 Y51.116 Z-1.428
N16270 X5.481 Y51.079 Z-1.434
N16275 X5.508 Y51.05 Z-1.44
N16280 X5.545 Y51.035 Z-1.447
N16285 X5.585 Z-1.453
N16290 X5.622 Y51.05 Z-1.46
N16295 X5.649 Y51.079 Z-1.466
N16300 X5.664 Y51.116 Z-1.472
N16305 X5.662 Y51.156 Z-1.479
N16310 X5.646 Y51.192 Z-1.485
N16315 X5.616 Y51.219 Z-1.491
N16320 X5.579 Y51.232 Z-1.498
N16325 X5.539 Y51.23 Z-1.504
N16330 X5.503 Y51.212 Z-1.511
N16335 X5.478 Y51.181 Z-1.517
N16340 X5.466 Y51.144 Z-1.523
N16345 X5.469 Y51.104 Z-1.53
N16350 X5.488 Y51.069 Z-1.536
N16355 X5.519 Y51.044 Z-1.542
N16360 X5.558 Y51.033 Z-1.549
N16365 X5.597 Y51.038 Z-1.555
N16370 X5.631 Y51.058 Z-1.562
N16375 X5.655 Y51.09 Z-1.568
N16380 X5.665 Y51.129 Z-1.574
N16385 X5.659 Y51.168 Z-1.581
N16390 X5.638 Y51.202 Z-1.587
N16395 X5.605 Y51.225 Z-1.593
N16400 X5.566 Y51.233 Z-1.6
N16405 X5.527 Y51.225 Z-1.606
N16410 X5.494 Y51.203 Z-1.613
N16415 X5.472 Y51.17 Z-1.619
N16420 X5.465 Y51.131 Z-1.625
N16425 X5.474 Y51.092 Z-1.632
N16430 X5.497 Y51.06 Z-1.638
N16435 X5.531 Y51.039 Z-1.644
N16440 X5.57 Y51.033 Z-1.651
N16445 X5.609 Y51.043 Z-1.657
N16450 X5.64 Y51.067 Z-1.664
N16455 X5.66 Y51.102 Z-1.67
N16460 X5.665 Y51.141 Z-1.676
N16465 X5.654 Y51.179 Z-1.683
N16470 X5.628 Y51.21 Z-1.689
N16475 X5.593 Y51.229 Z-1.695
N16480 X5.554 Y51.232 Z-1.702
N16485 X5.516 Y51.22 Z-1.708
N16490 X5.486 Y51.194 Z-1.715
N16495 X5.468 Y51.158 Z-1.721
N16500 X5.466 Y51.118 Z-1.727
N16505 X5.48 Y51.081 Z-1.734
N16510 X5.507 Y51.052 Z-1.74
N16515 X5.543 Y51.035 Z-1.746
N16520 X5.583 Z-1.753
N16525 X5.62 Y51.049 Z-1.759
N16530 X5.648 Y51.077 Z-1.766
N16535 X5.663 Y51.114 Z-1.772
N16540 Y51.154 Z-1.778
N16545 X5.647 Y51.19 Z-1.785
N16550 X5.618 Y51.218 Z-1.791
N16555 X5.581 Y51.232 Z-1.797
N16560 X5.541 Y51.23 Z-1.804
N16565 X5.505 Y51.213 Z-1.81
N16570 X5.479 Y51.183 Z-1.817
N16575 X5.466 Y51.146 Z-1.823
N16580 X5.469 Y51.106 Z-1.829
N16585 X5.487 Y51.071 Z-1.836
N16590 X5.517 Y51.045 Z-1.842
N16595 X5.555 Y51.033 Z-1.848
N16600 X5.595 Y51.038 Z-1.855
N16605 X5.63 Y51.057 Z-1.861
N16610 X5.654 Y51.088 Z-1.868
N16615 X5.665 Y51.126 Z-1.874
N16620 X5.659 Y51.166 Z-1.88
N16625 X5.639 Y51.2 Z-1.887
N16630 X5.607 Y51.224 Z-1.893
N16635 X5.568 Y51.233 Z-1.899
N16640 X5.529 Y51.226 Z-1.906
N16645 X5.496 Y51.205 Z-1.912
N16650 X5.473 Y51.172 Z-1.919
N16655 X5.465 Y51.133 Z-1.925
N16660 X5.473 Y51.094 Z-1.931
N16665 X5.495 Y51.061 Z-1.938
N16670 X5.529 Y51.04 Z-1.944
N16675 X5.568 Y51.033 Z-1.95
N16680 X5.607 Y51.042 Z-1.957
N16685 X5.639 Y51.065 Z-1.963
N16690 X5.659 Y51.1 Z-1.97
N16695 X5.665 Y51.139 Z-1.976
N16700 X5.655 Y51.177 Z-1.982
N16705 X5.63 Y51.209 Z-1.989
N16710 X5.595 Y51.228 Z-1.995
N16715 X5.556 Y51.233 Z-2.001
N16720 X5.518 Y51.221 Z-2.008
N16725 X5.487 Y51.196 Z-2.014
N16730 X5.469 Y51.16 Z-2.021
N16735 X5.466 Y51.121 Z-2.027
N16740 X5.478 Y51.083 Z-2.033
N16745 X5.505 Y51.053 Z-2.04
N16750 X5.541 Y51.036 Z-2.046
N16755 X5.58 Y51.034 Z-2.052
N16760 X5.618 Y51.048 Z-2.059
N16765 X5.647 Y51.075 Z-2.065
N16770 X5.663 Y51.112 Z-2.072
N16775 Y51.151 Z-2.078
N16780 X5.648 Y51.188 Z-2.084
N16785 X5.62 Y51.216 Z-2.091
N16790 X5.583 Y51.231 Z-2.097
N16795 X5.543 Z-2.103
N16800 X5.507 Y51.214 Z-2.11
N16805 X5.48 Y51.185 Z-2.116
N16810 X5.466 Y51.148 Z-2.123
N16815 X5.468 Y51.108 Z-2.129
N16820 X5.485 Y51.072 Z-2.135
N16825 X5.515 Y51.046 Z-2.142
N16830 X5.553 Y51.034 Z-2.148
N16835 X5.593 Y51.037 Z-2.154
N16840 X5.628 Y51.055 Z-2.161
N16845 X5.653 Y51.086 Z-2.167
N16850 X5.665 Y51.124 Z-2.174
N16855 X5.66 Y51.164 Z-2.18
N16860 X5.641 Y51.198 Z-2.186
N16865 X5.609 Y51.223 Z-2.193
N16870 X5.571 Y51.233 Z-2.199
N16875 X5.531 Y51.227 Z-2.205
N16880 X5.497 Y51.207 Z-2.212
N16885 X5.474 Y51.174 Z-2.218
N16890 X5.465 Y51.136 Z-2.225
N16895 X5.472 Y51.096 Z-2.231
N16900 X5.494 Y51.063 Z-2.237
N16905 X5.527 Y51.041 Z-2.244
N16910 X5.566 Y51.033 Z-2.25
N16915 X5.604 Y51.041 Z-2.256
N16920 X5.637 Y51.064 Z-2.263
N16925 X5.658 Y51.097 Z-2.269
N16930 X5.665 Y51.137 Z-2.276
N16935 X5.656 Y51.175 Z-2.282
N16940 X5.632 Y51.207 Z-2.288
N16945 X5.598 Y51.228 Z-2.295
N16950 X5.558 Y51.233 Z-2.301
N16955 X5.52 Y51.222 Z-2.307
N16960 X5.489 Y51.197 Z-2.314
N16965 X5.469 Y51.163 Z-2.32
N16970 X5.465 Y51.123 Z-2.327
N16975 X5.477 Y51.085 Z-2.333
N16980 X5.503 Y51.055 Z-2.339
N16985 X5.538 Y51.037 Z-2.346
N16990 X5.578 Y51.034 Z-2.352
N16995 X5.616 Y51.047 Z-2.358
N17000 X5.645 Y51.073 Z-2.365
N17005 X5.662 Y51.109 Z-2.371
N17010 X5.664 Y51.149 Z-2.378
N17015 X5.65 Y51.186 Z-2.384
N17020 X5.622 Y51.215 Z-2.39
N17025 X5.585 Y51.231 Z-2.397
N17030 X5.546 Z-2.403
N17035 X5.509 Y51.216 Z-2.409
N17040 X5.481 Y51.187 Z-2.416
N17045 X5.466 Y51.15 Z-2.422
N17050 X5.468 Y51.111 Z-2.429
N17055 X5.484 Y51.074 Z-2.435
N17060 X5.513 Y51.047 Z-2.441
N17065 X5.551 Y51.034 Z-2.448
N17070 X5.59 Y51.036 Z-2.454
N17075 X5.626 Y51.054 Z-2.46
N17080 X5.652 Y51.084 Z-2.467
N17085 X5.664 Y51.122 Z-2.473
N17090 X5.661 Y51.161 Z-2.48
N17095 X5.642 Y51.197 Z-2.486
N17100 X5.611 Y51.222 Z-2.492
N17105 X5.573 Y51.233 Z-2.499
N17110 X5.533 Y51.228 Z-2.505
N17115 X5.499 Y51.208 Z-2.511
N17120 X5.475 Y51.176 Z-2.518
N17125 X5.465 Y51.138 Z-2.524
N17130 X5.471 Y51.098 Z-2.531
N17135 X5.492 Y51.065 Z-2.537
N17140 X5.524 Y51.042 Z-2.543
N17145 X5.563 Y51.033 Z-2.55
N17150 X5.602 Y51.04 Z-2.556
N17155 X5.636 Y51.062 Z-2.562
N17160 X5.658 Y51.095 Z-2.569
N17165 X5.665 Y51.134 Z-2.575
N17170 X5.656 Y51.173 Z-2.582
N17175 X5.634 Y51.206 Z-2.588
N17180 X5.6 Y51.227 Z-2.594
N17185 X5.56 Y51.233 Z-2.601
N17190 X5.522 Y51.223 Z-2.607
N17195 X5.49 Y51.199 Z-2.613
N17200 X5.47 Y51.165 Z-2.62
N17205 X5.465 Y51.125 Z-2.626
N17210 X5.476 Y51.087 Z-2.633
N17215 X5.501 Y51.056 Z-2.639
N17220 X5.536 Y51.037 Z-2.645
N17225 X5.576 Y51.034 Z-2.652
N17230 X5.614 Y51.046 Z-2.658
N17235 X5.644 Y51.072 Z-2.664
N17240 X5.662 Y51.107 Z-2.671
N17245 X5.664 Y51.147 Z-2.677
N17250 X5.651 Y51.184 Z-2.684
N17255 X5.624 Y51.214 Z-2.69
N17260 X5.588 Y51.23 Z-2.696
N17265 X5.548 Y51.231 Z-2.703
N17270 X5.511 Y51.217 Z-2.709
N17275 X5.482 Y51.189 Z-2.715
N17280 X5.467 Y51.153 Z-2.722
N17285 Y51.113 Z-2.728
N17290 X5.483 Y51.076 Z-2.735
N17295 X5.511 Y51.049 Z-2.741
N17300 X5.548 Y51.034 Z-2.747
N17305 X5.588 Y51.036 Z-2.754
N17310 X5.624 Y51.052 Z-2.76
N17315 X5.651 Y51.082 Z-2.766
N17320 X5.664 Y51.12 Z-2.773
N17325 X5.661 Y51.159 Z-2.779
N17330 X5.644 Y51.195 Z-2.786
N17335 X5.613 Y51.221 Z-2.792
N17340 X5.575 Y51.232 Z-2.798
N17345 X5.536 Y51.229 Z-2.805
N17350 X5.501 Y51.21 Z-2.811
N17355 X5.476 Y51.178 Z-2.817
N17360 X5.465 Y51.14 Z-2.824
N17365 X5.47 Y51.101 Z-2.83
N17370 X5.49 Y51.066 Z-2.837
N17375 X5.522 Y51.043 Z-2.843
N17380 X5.561 Y51.033 Z-2.849
N17385 X5.6 Y51.039 Z-2.856
N17390 X5.634 Y51.061 Z-2.862
N17395 X5.657 Y51.093 Z-2.868
N17400 X5.665 Y51.132 Z-2.875
N17405 X5.657 Y51.171 Z-2.881
N17410 X5.635 Y51.204 Z-2.888
N17415 X5.602 Y51.226 Z-2.894
N17420 X5.563 Y51.233 Z-2.9
N17425 X5.524 Y51.224 Z-2.907
N17430 X5.492 Y51.201 Z-2.913
N17435 X5.471 Y51.167 Z-2.919
N17440 X5.465 Y51.128 Z-2.926
N17445 X5.475 Y51.089 Z-2.932
N17450 X5.499 Y51.057 Z-2.939
N17455 X5.534 Y51.038 Z-2.945
N17460 X5.574 Y51.033 Z-2.951
N17465 X5.612 Y51.045 Z-2.958
N17470 X5.642 Y51.07 Z-2.964
N17475 X5.661 Y51.105 Z-2.97
N17480 X5.664 Y51.145 Z-2.977
N17485 X5.652 Y51.182 Z-2.983
N17490 X5.626 Y51.212 Z-2.99
N17495 X5.59 Y51.23 Z-2.996
N17500 X5.55 Y51.232 Z-3.002
N17505 X5.513 Y51.218 Z-3.009
N17510 X5.484 Y51.191 Z-3.015
N17515 X5.467 Y51.155 Z-3.021
N17520 Y51.115 Z-3.028
N17525 X5.481 Y51.078 Z-3.034
N17530 X5.509 Y51.05 Z-3.041
N17535 X5.546 Y51.035 Z-3.047
N17540 X5.586 Z-3.053
N17545 X5.622 Y51.051 Z-3.06
N17550 X5.65 Y51.08 Z-3.066
N17555 X5.664 Y51.117 Z-3.072
N17560 X5.662 Y51.157 Z-3.079
N17565 X5.645 Y51.193 Z-3.085
N17570 X5.615 Y51.219 Z-3.092
N17575 X5.578 Y51.232 Z-3.098
N17580 X5.538 Y51.229 Z-3.104
N17585 X5.502 Y51.211 Z-3.111
N17590 X5.477 Y51.18 Z-3.117
N17595 X5.465 Y51.142 Z-3.123
N17600 X5.47 Y51.103 Z-3.13
N17605 X5.489 Y51.068 Z-3.136
N17610 X5.52 Y51.044 Z-3.143
N17615 X5.559 Y51.033 Z-3.149
N17620 X5.598 Y51.039 Z-3.155
N17625 X5.632 Y51.059 Z-3.162
N17630 X5.656 Y51.091 Z-3.168
N17635 X5.665 Y51.13 Z-3.174
N17640 X5.658 Y51.169 Z-3.181
N17645 X5.637 Y51.203 Z-3.187
N17650 X5.604 Y51.225 Z-3.194
N17655 X5.565 Y51.233 Z-3.2
N17660 G3 Y51.033 J-0.1
N17665 Y51.233 J0.1
N17670 G1 X5.54 Y51.226
N17675 X5.522 Y51.208
N17680 X5.515 Y51.183
N17685 X5.565 Y51.133
N17690 G0 Z2.3
N17695 Y24.263
N17700 Z2
N17705 G1 Z0.3 F50
N17710 X5.615 Y24.313
N17715 X5.608 Y24.338
N17720 X5.59 Y24.356
N17725 X5.565 Y24.363
N17730 X5.526 Y24.355 Z0.294 F800
N17735 X5.493 Y24.332 Z0.287
N17740 X5.472 Y24.299 Z0.281
N17745 X5.465 Y24.26 Z0.274
N17750 X5.474 Y24.221 Z0.268
N17755 X5.498 Y24.189 Z0.262
N17760 X5.532 Y24.169 Z0.255
N17765 X5.571 Y24.163 Z0.249
N17770 X5.61 Y24.173 Z0.243
N17775 X5.641 Y24.198 Z0.236
N17780 X5.66 Y24.233 Z0.23
N17785 X5.665 Y24.272 Z0.223
N17790 X5.653 Y24.31 Z0.217
N17795 X5.627 Y24.341 Z0.211
N17800 X5.592 Y24.359 Z0.204
N17805 X5.552 Y24.362 Z0.198
N17810 X5.515 Y24.349 Z0.192
N17815 X5.485 Y24.323 Z0.185
N17820 X5.468 Y24.287 Z0.179
N17825 X5.466 Y24.247 Z0.172
N17830 X5.48 Y24.21 Z0.166
N17835 X5.507 Y24.181 Z0.16
N17840 X5.544 Y24.165 Z0.153
N17845 X5.584 Z0.147
N17850 X5.621 Y24.18 Z0.141
N17855 X5.649 Y24.208 Z0.134
N17860 X5.663 Y24.245 Z0.128
N17865 Y24.285 Z0.121
N17870 X5.646 Y24.321 Z0.115
N17875 X5.617 Y24.348 Z0.109
N17880 X5.58 Y24.362 Z0.102
N17885 X5.54 Y24.36 Z0.096
N17890 X5.504 Y24.342 Z0.09
N17895 X5.478 Y24.312 Z0.083
N17900 X5.466 Y24.275 Z0.077
N17905 X5.469 Y24.235 Z0.07
N17910 X5.487 Y24.2 Z0.064
N17915 X5.518 Y24.175 Z0.058
N17920 X5.556 Y24.163 Z0.051
N17925 X5.596 Y24.168 Z0.045
N17930 X5.631 Y24.187 Z0.039
N17935 X5.655 Y24.219 Z0.032
N17940 X5.665 Y24.257 Z0.026
N17945 X5.659 Y24.297 Z0.019
N17950 X5.638 Y24.331 Z0.013
N17955 X5.606 Y24.354 Z0.007
N17960 X5.567 Y24.363 Z0
N17965 X5.528 Y24.356 Z-0.006
N17970 X5.495 Y24.334 Z-0.012
N17975 X5.473 Y24.301 Z-0.019
N17980 X5.465 Y24.262 Z-0.025
N17985 X5.473 Y24.223 Z-0.032
N17990 X5.496 Y24.19 Z-0.038
N17995 X5.53 Y24.169 Z-0.044
N18000 X5.569 Y24.163 Z-0.051
N18005 X5.608 Y24.172 Z-0.057
N18010 X5.64 Y24.196 Z-0.063
N18015 X5.66 Y24.231 Z-0.07
N18020 X5.665 Y24.27 Z-0.076
N18025 X5.654 Y24.308 Z-0.083
N18030 X5.629 Y24.34 Z-0.089
N18035 X5.594 Y24.359 Z-0.095
N18040 X5.555 Y24.362 Z-0.102
N18045 X5.517 Y24.35 Z-0.108
N18050 X5.486 Y24.325 Z-0.114
N18055 X5.468 Y24.289 Z-0.121
N18060 X5.466 Y24.249 Z-0.127
N18065 X5.479 Y24.212 Z-0.134
N18070 X5.506 Y24.182 Z-0.14
N18075 X5.542 Y24.166 Z-0.146
N18080 X5.581 Y24.164 Z-0.153
N18085 X5.619 Y24.179 Z-0.159
N18090 X5.647 Y24.206 Z-0.165
N18095 X5.663 Y24.243 Z-0.172
N18100 Y24.283 Z-0.178
N18105 X5.648 Y24.319 Z-0.185
N18110 X5.619 Y24.347 Z-0.191
N18115 X5.582 Y24.361 Z-0.197
N18120 X5.542 Y24.36 Z-0.204
N18125 X5.506 Y24.344 Z-0.21
N18130 X5.479 Y24.314 Z-0.216
N18135 X5.466 Y24.277 Z-0.223
