%
(1001)
(T3 D=3 CR=0 - ZMIN=-1.4 - flat end mill)
N10 G90 G94
N15 G17
N20 G21
N25 G28

(??1)
N30 T3 M6
N35 S20000 M3
N40 G54
N45 M8
N50 G0 X-5 Y15
N55 G43 Z2.3
N60 Z2
N65 G1 Z0.3 F50
N70 X-4.975 Y14.975
N75 X-4.957 Y14.982
N80 X-4.95 Y15
N85 X-4.958 Y15.027 Z0.291 F800
N90 X-4.979 Y15.045 Z0.282
N95 X-5.006 Y15.05 Z0.273
N100 X-5.032 Y15.039 Z0.264
N105 X-5.048 Y15.016 Z0.255
N110 Y14.988 Z0.246
N115 X-5.034 Y14.964 Z0.237
N120 X-5.009 Y14.951 Z0.228
N125 X-4.982 Y14.953 Z0.219
N130 X-4.96 Y14.97 Z0.21
N135 X-4.95 Y14.997 Z0.201
N140 X-4.956 Y15.024 Z0.192
N145 X-4.976 Y15.044 Z0.183
N150 X-5.003 Y15.05 Z0.174
N155 X-5.029 Y15.041 Z0.165
N160 X-5.046 Y15.019 Z0.156
N165 X-5.049 Y14.991 Z0.147
N170 X-5.037 Y14.966 Z0.138
N175 X-5.013 Y14.952 Z0.129
N180 X-4.985 Z0.12
N185 X-4.962 Y14.968 Z0.111
N190 X-4.95 Y14.993 Z0.102
N195 X-4.955 Y15.021 Z0.093
N200 X-4.973 Y15.042 Z0.084
N205 X-5 Y15.05 Z0.075
N210 X-5.026 Y15.042 Z0.066
N215 X-5.045 Y15.022 Z0.057
N220 X-5.05 Y14.994 Z0.048
N225 X-5.039 Y14.969 Z0.039
N230 X-5.016 Y14.953 Z0.03
N235 X-4.988 Y14.951 Z0.021
N240 X-4.964 Y14.965 Z0.012
N245 X-4.951 Y14.99 Z0.003
N250 X-4.953 Y15.018 Z-0.006
N255 X-4.97 Y15.04 Z-0.015
N260 X-4.996 Y15.05 Z-0.024
N265 X-5.024 Y15.044 Z-0.033
N270 X-5.044 Y15.025 Z-0.042
N275 X-5.05 Y14.998 Z-0.051
N280 X-5.041 Y14.971 Z-0.06
N285 X-5.019 Y14.954 Z-0.069
N290 X-4.991 Y14.951 Z-0.078
N295 X-4.966 Y14.963 Z-0.087
N300 X-4.952 Y14.987 Z-0.096
N305 Y15.015 Z-0.105
N310 X-4.968 Y15.038 Z-0.114
N315 X-4.993 Y15.05 Z-0.123
N320 X-5.021 Y15.046 Z-0.132
N325 X-5.042 Y15.027 Z-0.141
N330 X-5.05 Y15.001 Z-0.15
N335 X-5.043 Y14.974 Z-0.159
N340 X-5.022 Y14.955 Z-0.168
N345 X-4.995 Y14.95 Z-0.177
N350 X-4.969 Y14.961 Z-0.186
N355 X-4.953 Y14.984 Z-0.195
N360 X-4.951 Y15.012 Z-0.204
N365 X-4.965 Y15.036 Z-0.213
N370 X-4.99 Y15.049 Z-0.222
N375 X-5.017 Y15.047 Z-0.231
N380 X-5.04 Y15.03 Z-0.24
N385 X-5.05 Y15.004 Z-0.249
N390 X-5.044 Y14.977 Z-0.258
N395 X-5.025 Y14.957 Z-0.267
N400 X-4.998 Y14.95 Z-0.276
N405 X-4.971 Y14.959 Z-0.285
N410 X-4.954 Y14.981 Z-0.294
N415 X-4.951 Y15.008 Z-0.303
N420 X-4.963 Y15.033 Z-0.312
N425 X-4.986 Y15.048 Z-0.321
N430 X-5.014 Z-0.33
N435 X-5.038 Y15.033 Z-0.339
N440 X-5.049 Y15.007 Z-0.348
N445 X-5.046 Y14.98 Z-0.357
N450 X-5.028 Y14.958 Z-0.366
N455 X-5.001 Y14.95 Z-0.375
N460 X-4.974 Y14.957 Z-0.384
N465 X-4.955 Y14.978 Z-0.393
N470 X-4.95 Y15.005 Z-0.402
N475 X-4.961 Y15.031 Z-0.411
N480 X-4.983 Y15.047 Z-0.42
N485 X-5.011 Y15.049 Z-0.429
N490 X-5.036 Y15.035 Z-0.438
N495 X-5.049 Y15.011 Z-0.447
N500 X-5.047 Y14.983 Z-0.456
N505 X-5.031 Y14.96 Z-0.465
N510 X-5.005 Y14.95 Z-0.474
N515 X-4.977 Y14.956 Z-0.483
N520 X-4.957 Y14.975 Z-0.492
N525 X-4.95 Y15.002 Z-0.501
N530 X-4.959 Y15.028 Z-0.51
N535 X-4.98 Y15.046 Z-0.519
N540 X-5.008 Y15.049 Z-0.528
N545 X-5.033 Y15.037 Z-0.537
N550 X-5.048 Y15.014 Z-0.546
N555 Y14.986 Z-0.554
N560 X-5.033 Y14.963 Z-0.563
N565 X-5.008 Y14.951 Z-0.572
N570 X-4.98 Y14.954 Z-0.581
N575 X-4.959 Y14.972 Z-0.59
N580 X-4.95 Y14.998 Z-0.599
N585 X-4.957 Y15.025 Z-0.608
N590 X-4.977 Y15.044 Z-0.617
N595 X-5.005 Y15.05 Z-0.626
N600 X-5.031 Y15.04 Z-0.635
N605 X-5.047 Y15.017 Z-0.644
N610 X-5.049 Y14.989 Z-0.653
N615 X-5.036 Y14.965 Z-0.662
N620 X-5.011 Y14.951 Z-0.671
N625 X-4.983 Y14.953 Z-0.68
N630 X-4.961 Y14.969 Z-0.689
N635 X-4.95 Y14.995 Z-0.698
N640 X-4.955 Y15.022 Z-0.707
N645 X-4.974 Y15.043 Z-0.716
N650 X-5.001 Y15.05 Z-0.725
N655 X-5.028 Y15.042 Z-0.734
N660 X-5.046 Y15.02 Z-0.743
N665 X-5.049 Y14.993 Z-0.752
N670 X-5.038 Y14.967 Z-0.761
N675 X-5.014 Y14.952 Z-0.77
N680 X-4.986 Z-0.779
N685 X-4.963 Y14.967 Z-0.788
N690 X-4.951 Y14.992 Z-0.797
N695 X-4.954 Y15.019 Z-0.806
N700 X-4.971 Y15.041 Z-0.815
N705 X-4.998 Y15.05 Z-0.824
N710 X-5.025 Y15.043 Z-0.833
N715 X-5.044 Y15.023 Z-0.842
N720 X-5.05 Y14.996 Z-0.851
N725 X-5.04 Y14.97 Z-0.86
N730 X-5.017 Y14.953 Z-0.869
N735 X-4.99 Y14.951 Z-0.878
N740 X-4.965 Y14.964 Z-0.887
N745 X-4.951 Y14.988 Z-0.896
N750 X-4.953 Y15.016 Z-0.905
N755 X-4.969 Y15.039 Z-0.914
N760 X-4.995 Y15.05 Z-0.923
N765 X-5.022 Y15.045 Z-0.932
N770 X-5.043 Y15.026 Z-0.941
N775 X-5.05 Y14.999 Z-0.95
N780 X-5.042 Y14.973 Z-0.959
N785 X-5.021 Y14.954 Z-0.968
N790 X-4.993 Y14.95 Z-0.977
N795 X-4.968 Y14.962 Z-0.986
N800 X-4.952 Y14.985 Z-0.995
N805 Y15.013 Z-1.004
N810 X-4.966 Y15.037 Z-1.013
N815 X-4.991 Y15.049 Z-1.022
N820 X-5.019 Y15.046 Z-1.031
N825 X-5.041 Y15.029 Z-1.04
N830 X-5.05 Y15.002 Z-1.049
N835 X-5.044 Y14.975 Z-1.058
N840 X-5.024 Y14.956 Z-1.067
N845 X-4.996 Y14.95 Z-1.076
N850 X-4.97 Y14.96 Z-1.085
N855 X-4.953 Y14.982 Z-1.094
N860 X-4.951 Y15.01 Z-1.103
N865 X-4.964 Y15.035 Z-1.112
N870 X-4.988 Y15.049 Z-1.121
N875 X-5.016 Y15.047 Z-1.13
N880 X-5.039 Y15.031 Z-1.139
N885 X-5.05 Y15.006 Z-1.148
N890 X-5.045 Y14.978 Z-1.157
N895 X-5.026 Y14.958 Z-1.166
N900 X-5 Y14.95 Z-1.175
N905 X-4.973 Y14.958 Z-1.184
N910 X-4.955 Y14.979 Z-1.193
N915 X-4.95 Y15.007 Z-1.202
N920 X-4.962 Y15.032 Z-1.211
N925 X-4.985 Y15.048 Z-1.22
N930 X-5.013 Z-1.229
N935 X-5.037 Y15.034 Z-1.238
N940 X-5.049 Y15.009 Z-1.247
N945 X-5.046 Y14.981 Z-1.256
N950 X-5.029 Y14.959 Z-1.265
N955 X-5.003 Y14.95 Z-1.274
N960 X-4.976 Y14.956 Z-1.283
N965 X-4.956 Y14.976 Z-1.292
N970 X-4.95 Y15.003 Z-1.301
N975 X-4.96 Y15.03 Z-1.31
N980 X-4.982 Y15.047 Z-1.319
N985 X-5.009 Y15.049 Z-1.328
N990 X-5.034 Y15.036 Z-1.337
N995 X-5.048 Y15.012 Z-1.346
N1000 Y14.984 Z-1.355
N1005 X-5.032 Y14.961 Z-1.364
N1010 X-5.006 Y14.95 Z-1.373
N1015 X-4.979 Y14.955 Z-1.382
N1020 X-4.958 Y14.973 Z-1.391
N1025 X-4.95 Y15 Z-1.4
N1030 G3 X-5.05 I-0.05
N1035 X-4.95 I0.05
N1040 G1 X-4.957 Y15.018
N1045 X-4.975 Y15.025
N1050 X-5 Y15
N1055 G0 Z2.3
N1060 Y60
N1065 Z2
N1070 G1 Z0.3 F50
N1075 X-5.025 Y60.025
N1080 X-5.043 Y60.018
N1085 X-5.05 Y60
N1090 X-5.042 Y59.973 Z0.291 F800
N1095 X-5.021 Y59.955 Z0.282
N1100 X-4.994 Y59.95 Z0.273
N1105 X-4.968 Y59.961 Z0.264
N1110 X-4.952 Y59.984 Z0.255
N1115 Y60.012 Z0.246
N1120 X-4.966 Y60.036 Z0.237
N1125 X-4.991 Y60.049 Z0.228
N1130 X-5.018 Y60.047 Z0.219
N1135 X-5.04 Y60.03 Z0.21
N1140 X-5.05 Y60.003 Z0.201
N1145 X-5.044 Y59.976 Z0.192
N1150 X-5.024 Y59.956 Z0.183
N1155 X-4.997 Y59.95 Z0.174
N1160 X-4.971 Y59.959 Z0.165
N1165 X-4.954 Y59.981 Z0.156
N1170 X-4.951 Y60.009 Z0.147
N1175 X-4.963 Y60.034 Z0.138
N1180 X-4.987 Y60.048 Z0.129
N1185 X-5.015 Z0.12
N1190 X-5.038 Y60.032 Z0.111
N1195 X-5.05 Y60.007 Z0.102
N1200 X-5.045 Y59.979 Z0.093
N1205 X-5.027 Y59.958 Z0.084
N1210 X-5 Y59.95 Z0.075
N1215 X-4.974 Y59.958 Z0.066
N1220 X-4.955 Y59.978 Z0.057
N1225 X-4.95 Y60.006 Z0.048
N1230 X-4.961 Y60.031 Z0.039
N1235 X-4.984 Y60.047 Z0.03
N1240 X-5.012 Y60.049 Z0.021
N1245 X-5.036 Y60.035 Z0.012
N1250 X-5.049 Y60.01 Z0.003
N1255 X-5.047 Y59.982 Z-0.006
N1260 X-5.03 Y59.96 Z-0.015
N1265 X-5.004 Y59.95 Z-0.024
N1270 X-4.976 Y59.956 Z-0.033
N1275 X-4.956 Y59.975 Z-0.042
N1280 X-4.95 Y60.002 Z-0.051
N1285 X-4.959 Y60.029 Z-0.06
N1290 X-4.981 Y60.046 Z-0.069
N1295 X-5.009 Y60.049 Z-0.078
N1300 X-5.034 Y60.037 Z-0.087
N1305 X-5.048 Y60.013 Z-0.096
N1310 Y59.985 Z-0.105
N1315 X-5.032 Y59.962 Z-0.114
N1320 X-5.007 Y59.95 Z-0.123
N1325 X-4.979 Y59.954 Z-0.132
N1330 X-4.958 Y59.973 Z-0.141
N1335 X-4.95 Y59.999 Z-0.15
N1340 X-4.957 Y60.026 Z-0.159
N1345 X-4.978 Y60.045 Z-0.168
N1350 X-5.005 Y60.05 Z-0.177
N1355 X-5.031 Y60.039 Z-0.186
N1360 X-5.047 Y60.016 Z-0.195
N1365 X-5.049 Y59.988 Z-0.204
N1370 X-5.035 Y59.964 Z-0.213
N1375 X-5.01 Y59.951 Z-0.222
N1380 X-4.983 Y59.953 Z-0.231
N1385 X-4.96 Y59.97 Z-0.24
N1390 X-4.95 Y59.996 Z-0.249
N1395 X-4.956 Y60.023 Z-0.258
N1400 X-4.975 Y60.043 Z-0.267
N1405 X-5.002 Y60.05 Z-0.276
N1410 X-5.029 Y60.041 Z-0.285
N1415 X-5.046 Y60.019 Z-0.294
N1420 X-5.049 Y59.992 Z-0.303
N1425 X-5.037 Y59.967 Z-0.312
N1430 X-5.014 Y59.952 Z-0.321
N1435 X-4.986 Z-0.33
N1440 X-4.962 Y59.967 Z-0.339
N1445 X-4.951 Y59.993 Z-0.348
N1450 X-4.954 Y60.02 Z-0.357
N1455 X-4.972 Y60.042 Z-0.366
N1460 X-4.999 Y60.05 Z-0.375
N1465 X-5.026 Y60.043 Z-0.384
N1470 X-5.045 Y60.022 Z-0.393
N1475 X-5.05 Y59.995 Z-0.402
N1480 X-5.039 Y59.969 Z-0.411
N1485 X-5.017 Y59.953 Z-0.42
N1490 X-4.989 Y59.951 Z-0.429
N1495 X-4.964 Y59.965 Z-0.438
N1500 X-4.951 Y59.989 Z-0.447
N1505 X-4.953 Y60.017 Z-0.456
N1510 X-4.969 Y60.04 Z-0.465
N1515 X-4.995 Y60.05 Z-0.474
N1520 X-5.023 Y60.044 Z-0.483
N1525 X-5.043 Y60.025 Z-0.492
N1530 X-5.05 Y59.998 Z-0.501
N1535 X-5.041 Y59.972 Z-0.51
N1540 X-5.02 Y59.954 Z-0.519
N1545 X-4.992 Y59.951 Z-0.528
N1550 X-4.967 Y59.963 Z-0.537
N1555 X-4.952 Y59.986 Z-0.546
N1560 Y60.014 Z-0.554
N1565 X-4.967 Y60.037 Z-0.563
N1570 X-4.992 Y60.049 Z-0.572
N1575 X-5.02 Y60.046 Z-0.581
N1580 X-5.041 Y60.028 Z-0.59
N1585 X-5.05 Y60.002 Z-0.599
N1590 X-5.043 Y59.975 Z-0.608
N1595 X-5.023 Y59.956 Z-0.617
N1600 X-4.995 Y59.95 Z-0.626
N1605 X-4.969 Y59.96 Z-0.635
N1610 X-4.953 Y59.983 Z-0.644
N1615 X-4.951 Y60.011 Z-0.653
N1620 X-4.964 Y60.035 Z-0.662
N1625 X-4.989 Y60.049 Z-0.671
N1630 X-5.017 Y60.047 Z-0.68
N1635 X-5.039 Y60.031 Z-0.689
N1640 X-5.05 Y60.005 Z-0.698
N1645 X-5.045 Y59.978 Z-0.707
N1650 X-5.026 Y59.957 Z-0.716
N1655 X-4.999 Y59.95 Z-0.725
N1660 X-4.972 Y59.958 Z-0.734
N1665 X-4.954 Y59.98 Z-0.743
N1670 X-4.951 Y60.007 Z-0.752
N1675 X-4.962 Y60.033 Z-0.761
N1680 X-4.986 Y60.048 Z-0.77
N1685 X-5.014 Z-0.779
N1690 X-5.037 Y60.033 Z-0.788
N1695 X-5.049 Y60.008 Z-0.797
N1700 X-5.046 Y59.981 Z-0.806
N1705 X-5.029 Y59.959 Z-0.815
N1710 X-5.002 Y59.95 Z-0.824
N1715 X-4.975 Y59.957 Z-0.833
N1720 X-4.956 Y59.977 Z-0.842
N1725 X-4.95 Y60.004 Z-0.851
N1730 X-4.96 Y60.03 Z-0.86
N1735 X-4.983 Y60.047 Z-0.869
N1740 X-5.01 Y60.049 Z-0.878
N1745 X-5.035 Y60.036 Z-0.887
N1750 X-5.049 Y60.012 Z-0.896
N1755 X-5.047 Y59.984 Z-0.905
N1760 X-5.031 Y59.961 Z-0.914
N1765 X-5.005 Y59.95 Z-0.923
N1770 X-4.978 Y59.955 Z-0.932
N1775 X-4.957 Y59.974 Z-0.941
N1780 X-4.95 Y60.001 Z-0.95
N1785 X-4.958 Y60.027 Z-0.959
N1790 X-4.979 Y60.046 Z-0.968
N1795 X-5.007 Y60.05 Z-0.977
N1800 X-5.032 Y60.038 Z-0.986
N1805 X-5.048 Y60.015 Z-0.995
N1810 Y59.987 Z-1.004
N1815 X-5.034 Y59.963 Z-1.013
N1820 X-5.009 Y59.951 Z-1.022
N1825 X-4.981 Y59.954 Z-1.031
N1830 X-4.959 Y59.971 Z-1.04
N1835 X-4.95 Y59.998 Z-1.049
N1840 X-4.956 Y60.025 Z-1.058
N1845 X-4.976 Y60.044 Z-1.067
N1850 X-5.004 Y60.05 Z-1.076
N1855 X-5.03 Y60.04 Z-1.085
N1860 X-5.047 Y60.018 Z-1.094
N1865 X-5.049 Y59.99 Z-1.103
N1870 X-5.036 Y59.965 Z-1.112
N1875 X-5.012 Y59.951 Z-1.121
N1880 X-4.984 Y59.953 Z-1.13
N1885 X-4.961 Y59.969 Z-1.139
N1890 X-4.95 Y59.994 Z-1.148
N1895 X-4.955 Y60.022 Z-1.157
N1900 X-4.974 Y60.042 Z-1.166
N1905 X-5 Y60.05 Z-1.175
N1910 X-5.027 Y60.042 Z-1.184
N1915 X-5.045 Y60.021 Z-1.193
N1920 X-5.05 Y59.993 Z-1.202
N1925 X-5.038 Y59.968 Z-1.211
N1930 X-5.015 Y59.952 Z-1.22
N1935 X-4.987 Z-1.229
N1940 X-4.963 Y59.966 Z-1.238
N1945 X-4.951 Y59.991 Z-1.247
N1950 X-4.954 Y60.019 Z-1.256
N1955 X-4.971 Y60.041 Z-1.265
N1960 X-4.997 Y60.05 Z-1.274
N1965 X-5.024 Y60.044 Z-1.283
N1970 X-5.044 Y60.024 Z-1.292
N1975 X-5.05 Y59.997 Z-1.301
N1980 X-5.04 Y59.97 Z-1.31
N1985 X-5.018 Y59.953 Z-1.319
N1990 X-4.991 Y59.951 Z-1.328
N1995 X-4.966 Y59.964 Z-1.337
N2000 X-4.952 Y59.988 Z-1.346
N2005 Y60.016 Z-1.355
N2010 X-4.968 Y60.039 Z-1.364
N2015 X-4.994 Y60.05 Z-1.373
N2020 X-5.021 Y60.045 Z-1.382
N2025 X-5.042 Y60.027 Z-1.391
N2030 X-5.05 Y60 Z-1.4
N2035 G3 X-4.95 I0.05
N2040 X-5.05 I-0.05
N2045 G1 X-5.043 Y59.982
N2050 X-5.025 Y59.975
N2055 X-5 Y60
N2060 G0 Z2.3
N2065 Y118.952
N2070 Z2
N2075 G1 Z0.3 F50
N2080 X-5.025 Y118.977
N2085 X-5.043 Y118.97
N2090 X-5.05 Y118.952
N2095 X-5.042 Y118.925 Z0.291 F800
N2100 X-5.021 Y118.907 Z0.282
N2105 X-4.994 Y118.902 Z0.273
N2110 X-4.968 Y118.913 Z0.264
N2115 X-4.952 Y118.936 Z0.255
N2120 Y118.964 Z0.246
N2125 X-4.966 Y118.988 Z0.237
N2130 X-4.991 Y119.001 Z0.228
N2135 X-5.018 Y118.999 Z0.219
N2140 X-5.04 Y118.982 Z0.21
N2145 X-5.05 Y118.955 Z0.201
N2150 X-5.044 Y118.928 Z0.192
N2155 X-5.024 Y118.908 Z0.183
N2160 X-4.997 Y118.902 Z0.174
N2165 X-4.971 Y118.911 Z0.165
N2170 X-4.954 Y118.933 Z0.156
N2175 X-4.951 Y118.961 Z0.147
N2180 X-4.963 Y118.986 Z0.138
N2185 X-4.987 Y119 Z0.129
N2190 X-5.015 Z0.12
N2195 X-5.038 Y118.984 Z0.111
N2200 X-5.05 Y118.959 Z0.102
N2205 X-5.045 Y118.931 Z0.093
N2210 X-5.027 Y118.91 Z0.084
N2215 X-5 Y118.902 Z0.075
N2220 X-4.974 Y118.91 Z0.066
N2225 X-4.955 Y118.93 Z0.057
N2230 X-4.95 Y118.958 Z0.048
N2235 X-4.961 Y118.984 Z0.039
N2240 X-4.984 Y118.999 Z0.03
N2245 X-5.012 Y119.001 Z0.021
N2250 X-5.036 Y118.987 Z0.012
N2255 X-5.049 Y118.962 Z0.003
N2260 X-5.047 Y118.934 Z-0.006
N2265 X-5.03 Y118.912 Z-0.015
N2270 X-5.004 Y118.902 Z-0.024
N2275 X-4.976 Y118.908 Z-0.033
N2280 X-4.956 Y118.927 Z-0.042
N2285 X-4.95 Y118.954 Z-0.051
N2290 X-4.959 Y118.981 Z-0.06
N2295 X-4.981 Y118.998 Z-0.069
N2300 X-5.009 Y119.001 Z-0.078
N2305 X-5.034 Y118.989 Z-0.087
N2310 X-5.048 Y118.965 Z-0.096
N2315 Y118.937 Z-0.105
N2320 X-5.032 Y118.914 Z-0.114
N2325 X-5.007 Y118.903 Z-0.123
N2330 X-4.979 Y118.906 Z-0.132
N2335 X-4.958 Y118.925 Z-0.141
N2340 X-4.95 Y118.951 Z-0.15
N2345 X-4.957 Y118.978 Z-0.159
N2350 X-4.978 Y118.997 Z-0.168
N2355 X-5.005 Y119.002 Z-0.177
N2360 X-5.031 Y118.991 Z-0.186
N2365 X-5.047 Y118.968 Z-0.195
N2370 X-5.049 Y118.94 Z-0.204
N2375 X-5.035 Y118.916 Z-0.213
N2380 X-5.01 Y118.903 Z-0.222
N2385 X-4.983 Y118.905 Z-0.231
N2390 X-4.96 Y118.922 Z-0.24
N2395 X-4.95 Y118.948 Z-0.249
N2400 X-4.956 Y118.975 Z-0.258
N2405 X-4.975 Y118.995 Z-0.267
N2410 X-5.002 Y119.002 Z-0.276
N2415 X-5.029 Y118.993 Z-0.285
N2420 X-5.046 Y118.971 Z-0.294
N2425 X-5.049 Y118.944 Z-0.303
N2430 X-5.037 Y118.919 Z-0.312
N2435 X-5.014 Y118.904 Z-0.321
N2440 X-4.986 Z-0.33
N2445 X-4.962 Y118.919 Z-0.339
N2450 X-4.951 Y118.945 Z-0.348
N2455 X-4.954 Y118.972 Z-0.357
N2460 X-4.972 Y118.994 Z-0.366
N2465 X-4.999 Y119.002 Z-0.375
N2470 X-5.026 Y118.995 Z-0.384
N2475 X-5.045 Y118.974 Z-0.393
N2480 X-5.05 Y118.947 Z-0.402
N2485 X-5.039 Y118.921 Z-0.411
N2490 X-5.017 Y118.905 Z-0.42
N2495 X-4.989 Y118.903 Z-0.429
N2500 X-4.964 Y118.917 Z-0.438
N2505 X-4.951 Y118.941 Z-0.447
N2510 X-4.953 Y118.969 Z-0.456
N2515 X-4.969 Y118.992 Z-0.465
N2520 X-4.995 Y119.002 Z-0.474
N2525 X-5.023 Y118.996 Z-0.483
N2530 X-5.043 Y118.977 Z-0.492
N2535 X-5.05 Y118.95 Z-0.501
N2540 X-5.041 Y118.924 Z-0.51
N2545 X-5.02 Y118.906 Z-0.519
N2550 X-4.992 Y118.903 Z-0.528
N2555 X-4.967 Y118.915 Z-0.537
N2560 X-4.952 Y118.938 Z-0.546
N2565 Y118.966 Z-0.554
N2570 X-4.967 Y118.989 Z-0.563
N2575 X-4.992 Y119.001 Z-0.572
N2580 X-5.02 Y118.998 Z-0.581
N2585 X-5.041 Y118.98 Z-0.59
N2590 X-5.05 Y118.954 Z-0.599
N2595 X-5.043 Y118.927 Z-0.608
N2600 X-5.023 Y118.908 Z-0.617
N2605 X-4.995 Y118.902 Z-0.626
N2610 X-4.969 Y118.912 Z-0.635
N2615 X-4.953 Y118.935 Z-0.644
N2620 X-4.951 Y118.963 Z-0.653
N2625 X-4.964 Y118.987 Z-0.662
N2630 X-4.989 Y119.001 Z-0.671
N2635 X-5.017 Y118.999 Z-0.68
N2640 X-5.039 Y118.983 Z-0.689
N2645 X-5.05 Y118.957 Z-0.698
N2650 X-5.045 Y118.93 Z-0.707
N2655 X-5.026 Y118.909 Z-0.716
N2660 X-4.999 Y118.902 Z-0.725
N2665 X-4.972 Y118.91 Z-0.734
N2670 X-4.954 Y118.932 Z-0.743
N2675 X-4.951 Y118.959 Z-0.752
N2680 X-4.962 Y118.985 Z-0.761
N2685 X-4.986 Y119 Z-0.77
N2690 X-5.014 Z-0.779
N2695 X-5.037 Y118.985 Z-0.788
N2700 X-5.049 Y118.96 Z-0.797
N2705 X-5.046 Y118.933 Z-0.806
N2710 X-5.029 Y118.911 Z-0.815
N2715 X-5.002 Y118.902 Z-0.824
N2720 X-4.975 Y118.909 Z-0.833
N2725 X-4.956 Y118.929 Z-0.842
N2730 X-4.95 Y118.956 Z-0.851
N2735 X-4.96 Y118.982 Z-0.86
N2740 X-4.983 Y118.999 Z-0.869
N2745 X-5.01 Y119.001 Z-0.878
N2750 X-5.035 Y118.988 Z-0.887
N2755 X-5.049 Y118.964 Z-0.896
N2760 X-5.047 Y118.936 Z-0.905
N2765 X-5.031 Y118.913 Z-0.914
N2770 X-5.005 Y118.902 Z-0.923
N2775 X-4.978 Y118.907 Z-0.932
N2780 X-4.957 Y118.926 Z-0.941
N2785 X-4.95 Y118.953 Z-0.95
N2790 X-4.958 Y118.979 Z-0.959
N2795 X-4.979 Y118.998 Z-0.968
N2800 X-5.007 Y119.002 Z-0.977
N2805 X-5.032 Y118.99 Z-0.986
N2810 X-5.048 Y118.967 Z-0.995
N2815 Y118.939 Z-1.004
N2820 X-5.034 Y118.915 Z-1.013
N2825 X-5.009 Y118.903 Z-1.022
N2830 X-4.981 Y118.906 Z-1.031
N2835 X-4.959 Y118.923 Z-1.04
N2840 X-4.95 Y118.95 Z-1.049
N2845 X-4.956 Y118.977 Z-1.058
N2850 X-4.976 Y118.996 Z-1.067
N2855 X-5.004 Y119.002 Z-1.076
N2860 X-5.03 Y118.992 Z-1.085
N2865 X-5.047 Y118.97 Z-1.094
N2870 X-5.049 Y118.942 Z-1.103
N2875 X-5.036 Y118.917 Z-1.112
N2880 X-5.012 Y118.903 Z-1.121
N2885 X-4.984 Y118.905 Z-1.13
N2890 X-4.961 Y118.921 Z-1.139
N2895 X-4.95 Y118.946 Z-1.148
N2900 X-4.955 Y118.974 Z-1.157
N2905 X-4.974 Y118.994 Z-1.166
N2910 X-5 Y119.002 Z-1.175
N2915 X-5.027 Y118.994 Z-1.184
N2920 X-5.045 Y118.973 Z-1.193
N2925 X-5.05 Y118.945 Z-1.202
N2930 X-5.038 Y118.92 Z-1.211
N2935 X-5.015 Y118.904 Z-1.22
N2940 X-4.987 Z-1.229
N2945 X-4.963 Y118.918 Z-1.238
N2950 X-4.951 Y118.943 Z-1.247
N2955 X-4.954 Y118.971 Z-1.256
N2960 X-4.971 Y118.993 Z-1.265
N2965 X-4.997 Y119.002 Z-1.274
N2970 X-5.024 Y118.996 Z-1.283
N2975 X-5.044 Y118.976 Z-1.292
N2980 X-5.05 Y118.949 Z-1.301
N2985 X-5.04 Y118.922 Z-1.31
N2990 X-5.018 Y118.905 Z-1.319
N2995 X-4.991 Y118.903 Z-1.328
N3000 X-4.966 Y118.916 Z-1.337
N3005 X-4.952 Y118.94 Z-1.346
N3010 Y118.968 Z-1.355
N3015 X-4.968 Y118.991 Z-1.364
N3020 X-4.994 Y119.002 Z-1.373
N3025 X-5.021 Y118.997 Z-1.382
N3030 X-5.042 Y118.979 Z-1.391
N3035 X-5.05 Y118.952 Z-1.4
N3040 G3 X-4.95 I0.05
N3045 X-5.05 I-0.05
N3050 G1 X-5.043 Y118.934
N3055 X-5.025 Y118.927
N3060 X-5 Y118.952
N3065 G0 Z2.3
N3070 Y163.952
N3075 Z2
N3080 G1 Z0.3 F50
N3085 X-5.025 Y163.977
N3090 X-5.043 Y163.97
N3095 X-5.05 Y163.952
N3100 X-5.042 Y163.925 Z0.291 F800
N3105 X-5.021 Y163.907 Z0.282
N3110 X-4.994 Y163.902 Z0.273
N3115 X-4.968 Y163.913 Z0.264
N3120 X-4.952 Y163.936 Z0.255
N3125 Y163.964 Z0.246
N3130 X-4.966 Y163.988 Z0.237
N3135 X-4.991 Y164.001 Z0.228
N3140 X-5.018 Y163.999 Z0.219
N3145 X-5.04 Y163.982 Z0.21
N3150 X-5.05 Y163.955 Z0.201
N3155 X-5.044 Y163.928 Z0.192
N3160 X-5.024 Y163.908 Z0.183
N3165 X-4.997 Y163.902 Z0.174
N3170 X-4.971 Y163.911 Z0.165
N3175 X-4.954 Y163.933 Z0.156
N3180 X-4.951 Y163.961 Z0.147
N3185 X-4.963 Y163.986 Z0.138
N3190 X-4.987 Y164 Z0.129
N3195 X-5.015 Z0.12
N3200 X-5.038 Y163.984 Z0.111
N3205 X-5.05 Y163.959 Z0.102
N3210 X-5.045 Y163.931 Z0.093
N3215 X-5.027 Y163.91 Z0.084
N3220 X-5 Y163.902 Z0.075
N3225 X-4.974 Y163.91 Z0.066
N3230 X-4.955 Y163.93 Z0.057
N3235 X-4.95 Y163.958 Z0.048
N3240 X-4.961 Y163.983 Z0.039
N3245 X-4.984 Y163.999 Z0.03
N3250 X-5.012 Y164.001 Z0.021
N3255 X-5.036 Y163.987 Z0.012
N3260 X-5.049 Y163.962 Z0.003
N3265 X-5.047 Y163.934 Z-0.006
N3270 X-5.03 Y163.912 Z-0.015
N3275 X-5.004 Y163.902 Z-0.024
N3280 X-4.976 Y163.908 Z-0.033
N3285 X-4.956 Y163.927 Z-0.042
N3290 X-4.95 Y163.954 Z-0.051
N3295 X-4.959 Y163.981 Z-0.06
N3300 X-4.981 Y163.998 Z-0.069
N3305 X-5.009 Y164.001 Z-0.078
N3310 X-5.034 Y163.989 Z-0.087
N3315 X-5.048 Y163.965 Z-0.096
N3320 Y163.937 Z-0.105
N3325 X-5.032 Y163.914 Z-0.114
N3330 X-5.007 Y163.902 Z-0.123
N3335 X-4.979 Y163.906 Z-0.132
N3340 X-4.958 Y163.925 Z-0.141
N3345 X-4.95 Y163.951 Z-0.15
N3350 X-4.957 Y163.978 Z-0.159
N3355 X-4.978 Y163.997 Z-0.168
N3360 X-5.005 Y164.002 Z-0.177
N3365 X-5.031 Y163.991 Z-0.186
N3370 X-5.047 Y163.968 Z-0.195
N3375 X-5.049 Y163.94 Z-0.204
N3380 X-5.035 Y163.916 Z-0.213
N3385 X-5.01 Y163.903 Z-0.222
N3390 X-4.983 Y163.905 Z-0.231
N3395 X-4.96 Y163.922 Z-0.24
N3400 X-4.95 Y163.948 Z-0.249
N3405 X-4.956 Y163.975 Z-0.258
N3410 X-4.975 Y163.995 Z-0.267
N3415 X-5.002 Y164.002 Z-0.276
N3420 X-5.029 Y163.993 Z-0.285
N3425 X-5.046 Y163.971 Z-0.294
N3430 X-5.049 Y163.944 Z-0.303
N3435 X-5.037 Y163.919 Z-0.312
N3440 X-5.014 Y163.904 Z-0.321
N3445 X-4.986 Z-0.33
N3450 X-4.962 Y163.919 Z-0.339
N3455 X-4.951 Y163.945 Z-0.348
N3460 X-4.954 Y163.972 Z-0.357
N3465 X-4.972 Y163.994 Z-0.366
N3470 X-4.999 Y164.002 Z-0.375
N3475 X-5.026 Y163.995 Z-0.384
N3480 X-5.045 Y163.974 Z-0.393
N3485 X-5.05 Y163.947 Z-0.402
N3490 X-5.039 Y163.921 Z-0.411
N3495 X-5.017 Y163.905 Z-0.42
N3500 X-4.989 Y163.903 Z-0.429
N3505 X-4.964 Y163.917 Z-0.438
N3510 X-4.951 Y163.941 Z-0.447
N3515 X-4.953 Y163.969 Z-0.456
N3520 X-4.969 Y163.992 Z-0.465
N3525 X-4.995 Y164.002 Z-0.474
N3530 X-5.023 Y163.996 Z-0.483
N3535 X-5.043 Y163.977 Z-0.492
N3540 X-5.05 Y163.95 Z-0.501
N3545 X-5.041 Y163.924 Z-0.51
N3550 X-5.02 Y163.906 Z-0.519
N3555 X-4.992 Y163.903 Z-0.528
N3560 X-4.967 Y163.915 Z-0.537
N3565 X-4.952 Y163.938 Z-0.546
N3570 Y163.966 Z-0.554
N3575 X-4.967 Y163.989 Z-0.563
N3580 X-4.992 Y164.001 Z-0.572
N3585 X-5.02 Y163.998 Z-0.581
N3590 X-5.041 Y163.98 Z-0.59
N3595 X-5.05 Y163.954 Z-0.599
N3600 X-5.043 Y163.927 Z-0.608
N3605 X-5.023 Y163.908 Z-0.617
N3610 X-4.995 Y163.902 Z-0.626
N3615 X-4.969 Y163.912 Z-0.635
N3620 X-4.953 Y163.935 Z-0.644
N3625 X-4.951 Y163.963 Z-0.653
N3630 X-4.964 Y163.987 Z-0.662
N3635 X-4.989 Y164.001 Z-0.671
N3640 X-5.017 Y163.999 Z-0.68
N3645 X-5.039 Y163.983 Z-0.689
N3650 X-5.05 Y163.957 Z-0.698
N3655 X-5.045 Y163.93 Z-0.707
N3660 X-5.026 Y163.909 Z-0.716
N3665 X-4.999 Y163.902 Z-0.725
N3670 X-4.972 Y163.91 Z-0.734
N3675 X-4.954 Y163.932 Z-0.743
N3680 X-4.951 Y163.959 Z-0.752
N3685 X-4.962 Y163.985 Z-0.761
N3690 X-4.986 Y164 Z-0.77
N3695 X-5.014 Z-0.779
N3700 X-5.037 Y163.985 Z-0.788
N3705 X-5.049 Y163.96 Z-0.797
N3710 X-5.046 Y163.933 Z-0.806
N3715 X-5.029 Y163.911 Z-0.815
N3720 X-5.002 Y163.902 Z-0.824
N3725 X-4.975 Y163.909 Z-0.833
N3730 X-4.956 Y163.929 Z-0.842
N3735 X-4.95 Y163.956 Z-0.851
N3740 X-4.96 Y163.982 Z-0.86
N3745 X-4.983 Y163.999 Z-0.869
N3750 X-5.01 Y164.001 Z-0.878
N3755 X-5.035 Y163.988 Z-0.887
N3760 X-5.049 Y163.964 Z-0.896
N3765 X-5.047 Y163.936 Z-0.905
N3770 X-5.031 Y163.913 Z-0.914
N3775 X-5.005 Y163.902 Z-0.923
N3780 X-4.978 Y163.907 Z-0.932
N3785 X-4.957 Y163.926 Z-0.941
N3790 X-4.95 Y163.953 Z-0.95
N3795 X-4.958 Y163.979 Z-0.959
N3800 X-4.979 Y163.998 Z-0.968
N3805 X-5.007 Y164.001 Z-0.977
N3810 X-5.032 Y163.99 Z-0.986
N3815 X-5.048 Y163.967 Z-0.995
N3820 Y163.939 Z-1.004
N3825 X-5.034 Y163.915 Z-1.013
N3830 X-5.009 Y163.903 Z-1.022
N3835 X-4.981 Y163.906 Z-1.031
N3840 X-4.959 Y163.923 Z-1.04
N3845 X-4.95 Y163.95 Z-1.049
N3850 X-4.956 Y163.977 Z-1.058
N3855 X-4.976 Y163.996 Z-1.067
N3860 X-5.004 Y164.002 Z-1.076
N3865 X-5.03 Y163.992 Z-1.085
N3870 X-5.047 Y163.97 Z-1.094
N3875 X-5.049 Y163.942 Z-1.103
N3880 X-5.036 Y163.917 Z-1.112
N3885 X-5.012 Y163.903 Z-1.121
N3890 X-4.984 Y163.905 Z-1.13
N3895 X-4.961 Y163.92 Z-1.139
N3900 X-4.95 Y163.946 Z-1.148
N3905 X-4.955 Y163.974 Z-1.157
N3910 X-4.974 Y163.994 Z-1.166
N3915 X-5 Y164.002 Z-1.175
N3920 X-5.027 Y163.994 Z-1.184
N3925 X-5.045 Y163.973 Z-1.193
N3930 X-5.05 Y163.945 Z-1.202
N3935 X-5.038 Y163.92 Z-1.211
N3940 X-5.015 Y163.904 Z-1.22
N3945 X-4.987 Z-1.229
N3950 X-4.963 Y163.918 Z-1.238
N3955 X-4.951 Y163.943 Z-1.247
N3960 X-4.954 Y163.971 Z-1.256
N3965 X-4.971 Y163.993 Z-1.265
N3970 X-4.997 Y164.002 Z-1.274
N3975 X-5.024 Y163.996 Z-1.283
N3980 X-5.044 Y163.976 Z-1.292
N3985 X-5.05 Y163.949 Z-1.301
N3990 X-5.04 Y163.922 Z-1.31
N3995 X-5.018 Y163.905 Z-1.319
N4000 X-4.991 Y163.903 Z-1.328
N4005 X-4.966 Y163.916 Z-1.337
N4010 X-4.952 Y163.94 Z-1.346
N4015 Y163.968 Z-1.355
N4020 X-4.968 Y163.991 Z-1.364
N4025 X-4.994 Y164.002 Z-1.373
N4030 X-5.021 Y163.997 Z-1.382
N4035 X-5.042 Y163.979 Z-1.391
N4040 X-5.05 Y163.952 Z-1.4
N4045 G3 X-4.95 I0.05
N4050 X-5.05 I-0.05
N4055 G1 X-5.043 Y163.934
N4060 X-5.025 Y163.927
N4065 X-5 Y163.952
N4070 G0 Z2.3
N4075 M9
N4080 G28
N4085 M5
N4090 M30
%
