%
(1001)
(T3 D=3 CR=0 - ZMIN=-1.2 - flat end mill)
N10 G90 G94
N15 G17
N20 G21
N25 G28

(??1)
N30 T3 M6
N35 S20000 M3
N40 G54
N45 M8
N50 G0 X95 Y37.5
N55 G43 Z2.3
N60 Z2
N65 G1 Z0.3 F50
N70 X95.05 Y37.55
N75 X95.043 Y37.575
N80 X95.025 Y37.593
N85 X95 Y37.6
N90 X94.961 Y37.592 Z0.294 F800
N95 X94.928 Y37.57 Z0.287
N100 X94.907 Y37.536 Z0.281
N105 X94.9 Y37.497 Z0.275
N110 X94.909 Y37.459 Z0.268
N115 X94.932 Y37.427 Z0.262
N120 X94.966 Y37.406 Z0.256
N125 X95.005 Y37.4 Z0.249
N130 X95.044 Y37.41 Z0.243
N135 X95.075 Y37.434 Z0.236
N140 X95.095 Y37.469 Z0.23
N145 X95.1 Y37.508 Z0.224
N150 X95.089 Y37.546 Z0.217
N155 X95.064 Y37.577 Z0.211
N160 X95.029 Y37.596 Z0.205
N165 X94.989 Y37.599 Z0.198
N170 X94.952 Y37.587 Z0.192
N175 X94.921 Y37.562 Z0.186
N180 X94.904 Y37.526 Z0.179
N185 X94.901 Y37.487 Z0.173
N190 X94.914 Y37.449 Z0.167
N195 X94.94 Y37.42 Z0.16
N200 X94.976 Y37.403 Z0.154
N205 X95.016 Y37.401 Z0.147
N210 X95.053 Y37.415 Z0.141
N215 X95.082 Y37.443 Z0.135
N220 X95.098 Y37.479 Z0.128
N225 Y37.519 Z0.122
N230 X95.083 Y37.555 Z0.116
N235 X95.055 Y37.583 Z0.109
N240 X95.019 Y37.598 Z0.103
N245 X94.979 Z0.097
N250 X94.943 Y37.582 Z0.09
N255 X94.915 Y37.553 Z0.084
N260 X94.901 Y37.516 Z0.078
N265 X94.903 Y37.476 Z0.071
N270 X94.92 Y37.44 Z0.065
N275 X94.949 Y37.414 Z0.058
N280 X94.987 Y37.401 Z0.052
N285 X95.026 Y37.404 Z0.046
N290 X95.062 Y37.421 Z0.039
N295 X95.087 Y37.452 Z0.033
N300 X95.099 Y37.489 Z0.027
N305 X95.096 Y37.529 Z0.02
N310 X95.077 Y37.564 Z0.014
N315 X95.046 Y37.589 Z0.008
N320 X95.008 Y37.6 Z0.001
N325 X94.969 Y37.595 Z-0.005
N330 X94.934 Y37.575 Z-0.011
N335 X94.91 Y37.544 Z-0.018
N340 X94.9 Y37.505 Z-0.024
N345 X94.906 Y37.466 Z-0.031
N350 X94.927 Y37.432 Z-0.037
N355 X94.959 Y37.409 Z-0.043
N360 X94.997 Y37.4 Z-0.05
N365 X95.036 Y37.407 Z-0.056
N370 X95.07 Y37.428 Z-0.062
N375 X95.092 Y37.461 Z-0.069
N380 X95.1 Y37.5 Z-0.075
N385 X95.092 Y37.539 Z-0.081
N390 X95.07 Y37.572 Z-0.088
N395 X95.036 Y37.593 Z-0.094
N400 X94.997 Y37.6 Z-0.1
N405 X94.959 Y37.591 Z-0.107
N410 X94.927 Y37.568 Z-0.113
N415 X94.906 Y37.534 Z-0.119
N420 X94.9 Y37.495 Z-0.126
N425 X94.91 Y37.456 Z-0.132
N430 X94.934 Y37.425 Z-0.139
N435 X94.969 Y37.405 Z-0.145
N440 X95.008 Y37.4 Z-0.151
N445 X95.046 Y37.411 Z-0.158
N450 X95.077 Y37.436 Z-0.164
N455 X95.096 Y37.471 Z-0.17
N460 X95.099 Y37.511 Z-0.177
N465 X95.087 Y37.548 Z-0.183
N470 X95.062 Y37.579 Z-0.189
N475 X95.026 Y37.596 Z-0.196
N480 X94.987 Y37.599 Z-0.202
N485 X94.949 Y37.586 Z-0.208
N490 X94.92 Y37.56 Z-0.215
N495 X94.903 Y37.524 Z-0.221
N500 X94.901 Y37.484 Z-0.228
N505 X94.915 Y37.447 Z-0.234
N510 X94.943 Y37.418 Z-0.24
N515 X94.979 Y37.402 Z-0.247
N520 X95.019 Z-0.253
N525 X95.055 Y37.417 Z-0.259
N530 X95.083 Y37.445 Z-0.266
N535 X95.098 Y37.481 Z-0.272
N540 Y37.521 Z-0.278
N545 X95.082 Y37.557 Z-0.285
N550 X95.053 Y37.585 Z-0.291
N555 X95.016 Y37.599 Z-0.297
N560 X94.976 Y37.597 Z-0.304
N565 X94.94 Y37.58 Z-0.31
N570 X94.914 Y37.551 Z-0.317
N575 X94.901 Y37.513 Z-0.323
N580 X94.904 Y37.474 Z-0.329
N585 X94.921 Y37.438 Z-0.336
N590 X94.952 Y37.413 Z-0.342
N595 X94.989 Y37.401 Z-0.348
N600 X95.029 Y37.404 Z-0.355
N605 X95.064 Y37.423 Z-0.361
N610 X95.089 Y37.454 Z-0.367
N615 X95.1 Y37.492 Z-0.374
N620 X95.095 Y37.531 Z-0.38
N625 X95.075 Y37.566 Z-0.386
N630 X95.044 Y37.59 Z-0.393
N635 X95.005 Y37.6 Z-0.399
N640 X94.966 Y37.594 Z-0.406
N645 X94.932 Y37.573 Z-0.412
N650 X94.909 Y37.541 Z-0.418
N655 X94.9 Y37.503 Z-0.425
N660 X94.907 Y37.464 Z-0.431
N665 X94.928 Y37.43 Z-0.437
N670 X94.961 Y37.408 Z-0.444
N675 X95 Y37.4 Z-0.45
N680 X95.039 Y37.408 Z-0.456
N685 X95.072 Y37.43 Z-0.463
N690 X95.093 Y37.464 Z-0.469
N695 X95.1 Y37.503 Z-0.475
N700 X95.091 Y37.541 Z-0.482
N705 X95.068 Y37.573 Z-0.488
N710 X95.034 Y37.594 Z-0.494
N715 X94.995 Y37.6 Z-0.501
N720 X94.956 Y37.59 Z-0.507
N725 X94.925 Y37.566 Z-0.514
N730 X94.905 Y37.531 Z-0.52
N735 X94.9 Y37.492 Z-0.526
N740 X94.911 Y37.454 Z-0.533
N745 X94.936 Y37.423 Z-0.539
N750 X94.971 Y37.404 Z-0.545
N755 X95.011 Y37.401 Z-0.552
N760 X95.048 Y37.413 Z-0.558
N765 X95.079 Y37.438 Z-0.564
N770 X95.096 Y37.474 Z-0.571
N775 X95.099 Y37.513 Z-0.577
N780 X95.086 Y37.551 Z-0.583
N785 X95.06 Y37.58 Z-0.59
N790 X95.024 Y37.597 Z-0.596
N795 X94.984 Y37.599 Z-0.603
N800 X94.947 Y37.585 Z-0.609
N805 X94.918 Y37.557 Z-0.615
N810 X94.902 Y37.521 Z-0.622
N815 Y37.481 Z-0.628
N820 X94.917 Y37.445 Z-0.634
N825 X94.945 Y37.417 Z-0.641
N830 X94.981 Y37.402 Z-0.647
N835 X95.021 Z-0.653
N840 X95.057 Y37.418 Z-0.66
N845 X95.085 Y37.447 Z-0.666
N850 X95.099 Y37.484 Z-0.672
N855 X95.097 Y37.524 Z-0.679
N860 X95.08 Y37.56 Z-0.685
N865 X95.051 Y37.586 Z-0.692
N870 X95.013 Y37.599 Z-0.698
N875 X94.974 Y37.596 Z-0.704
N880 X94.938 Y37.579 Z-0.711
N885 X94.913 Y37.548 Z-0.717
N890 X94.901 Y37.511 Z-0.723
N895 X94.904 Y37.471 Z-0.73
N900 X94.923 Y37.436 Z-0.736
N905 X94.954 Y37.411 Z-0.742
N910 X94.992 Y37.4 Z-0.749
N915 X95.031 Y37.405 Z-0.755
N920 X95.066 Y37.425 Z-0.761
N925 X95.09 Y37.456 Z-0.768
N930 X95.1 Y37.495 Z-0.774
N935 X95.094 Y37.534 Z-0.781
N940 X95.073 Y37.568 Z-0.787
N945 X95.041 Y37.591 Z-0.793
N950 X95.003 Y37.6 Z-0.8
N955 X94.964 Y37.593 Z-0.806
N960 X94.93 Y37.572 Z-0.812
N965 X94.908 Y37.539 Z-0.819
N970 X94.9 Y37.5 Z-0.825
N975 X94.908 Y37.461 Z-0.831
N980 X94.93 Y37.428 Z-0.838
N985 X94.964 Y37.407 Z-0.844
N990 X95.003 Y37.4 Z-0.85
N995 X95.041 Y37.409 Z-0.857
N1000 X95.073 Y37.432 Z-0.863
N1005 X95.094 Y37.466 Z-0.869
N1010 X95.1 Y37.505 Z-0.876
N1015 X95.09 Y37.544 Z-0.882
N1020 X95.066 Y37.575 Z-0.889
N1025 X95.031 Y37.595 Z-0.895
N1030 X94.992 Y37.6 Z-0.901
N1035 X94.954 Y37.589 Z-0.908
N1040 X94.923 Y37.564 Z-0.914
N1045 X94.904 Y37.529 Z-0.92
N1050 X94.901 Y37.489 Z-0.927
N1055 X94.913 Y37.452 Z-0.933
N1060 X94.938 Y37.421 Z-0.939
N1065 X94.974 Y37.404 Z-0.946
N1070 X95.013 Y37.401 Z-0.952
N1075 X95.051 Y37.414 Z-0.958
N1080 X95.08 Y37.44 Z-0.965
N1085 X95.097 Y37.476 Z-0.971
N1090 X95.099 Y37.516 Z-0.978
N1095 X95.085 Y37.553 Z-0.984
N1100 X95.057 Y37.582 Z-0.99
N1105 X95.021 Y37.598 Z-0.997
N1110 X94.981 Z-1.003
N1115 X94.945 Y37.583 Z-1.009
N1120 X94.917 Y37.555 Z-1.016
N1125 X94.902 Y37.519 Z-1.022
N1130 Y37.479 Z-1.028
N1135 X94.918 Y37.443 Z-1.035
N1140 X94.947 Y37.415 Z-1.041
N1145 X94.984 Y37.401 Z-1.047
N1150 X95.024 Y37.403 Z-1.054
N1155 X95.06 Y37.42 Z-1.06
N1160 X95.086 Y37.449 Z-1.067
N1165 X95.099 Y37.487 Z-1.073
N1170 X95.096 Y37.526 Z-1.079
N1175 X95.079 Y37.562 Z-1.086
N1180 X95.048 Y37.587 Z-1.092
N1185 X95.011 Y37.599 Z-1.098
N1190 X94.971 Y37.596 Z-1.105
N1195 X94.936 Y37.577 Z-1.111
N1200 X94.911 Y37.546 Z-1.117
N1205 X94.9 Y37.508 Z-1.124
N1210 X94.905 Y37.469 Z-1.13
N1215 X94.925 Y37.434 Z-1.136
N1220 X94.956 Y37.41 Z-1.143
N1225 X94.995 Y37.4 Z-1.149
N1230 X95.034 Y37.406 Z-1.156
N1235 X95.068 Y37.427 Z-1.162
N1240 X95.091 Y37.459 Z-1.168
N1245 X95.1 Y37.497 Z-1.175
N1250 X95.093 Y37.536 Z-1.181
N1255 X95.072 Y37.57 Z-1.187
N1260 X95.039 Y37.592 Z-1.194
N1265 X95 Y37.6 Z-1.2
N1270 G3 Y37.4 J-0.1
N1275 Y37.6 J0.1
N1280 G1 X94.975 Y37.593
N1285 X94.957 Y37.575
N1290 X94.95 Y37.55
N1295 X95 Y37.5
N1300 G0 Z2.3
N1305 X75
N1310 Z2
N1315 G1 Z0.3 F50
N1320 X75.05 Y37.55
N1325 X75.043 Y37.575
N1330 X75.025 Y37.593
N1335 X75 Y37.6
N1340 X74.961 Y37.592 Z0.294 F800
N1345 X74.928 Y37.57 Z0.287
N1350 X74.907 Y37.536 Z0.281
N1355 X74.9 Y37.497 Z0.275
N1360 X74.909 Y37.459 Z0.268
N1365 X74.932 Y37.427 Z0.262
N1370 X74.966 Y37.406 Z0.256
N1375 X75.005 Y37.4 Z0.249
N1380 X75.044 Y37.41 Z0.243
N1385 X75.075 Y37.434 Z0.236
N1390 X75.095 Y37.469 Z0.23
N1395 X75.1 Y37.508 Z0.224
N1400 X75.089 Y37.546 Z0.217
N1405 X75.064 Y37.577 Z0.211
N1410 X75.029 Y37.596 Z0.205
N1415 X74.989 Y37.599 Z0.198
N1420 X74.952 Y37.587 Z0.192
N1425 X74.921 Y37.562 Z0.186
N1430 X74.904 Y37.526 Z0.179
N1435 X74.901 Y37.487 Z0.173
N1440 X74.914 Y37.449 Z0.167
N1445 X74.94 Y37.42 Z0.16
N1450 X74.976 Y37.403 Z0.154
N1455 X75.016 Y37.401 Z0.147
N1460 X75.053 Y37.415 Z0.141
N1465 X75.082 Y37.443 Z0.135
N1470 X75.098 Y37.479 Z0.128
N1475 Y37.519 Z0.122
N1480 X75.083 Y37.555 Z0.116
N1485 X75.055 Y37.583 Z0.109
N1490 X75.019 Y37.598 Z0.103
N1495 X74.979 Z0.097
N1500 X74.943 Y37.582 Z0.09
N1505 X74.915 Y37.553 Z0.084
N1510 X74.901 Y37.516 Z0.078
N1515 X74.903 Y37.476 Z0.071
N1520 X74.92 Y37.44 Z0.065
N1525 X74.949 Y37.414 Z0.058
N1530 X74.987 Y37.401 Z0.052
N1535 X75.026 Y37.404 Z0.046
N1540 X75.062 Y37.421 Z0.039
N1545 X75.087 Y37.452 Z0.033
N1550 X75.099 Y37.489 Z0.027
N1555 X75.096 Y37.529 Z0.02
N1560 X75.077 Y37.564 Z0.014
N1565 X75.046 Y37.589 Z0.008
N1570 X75.008 Y37.6 Z0.001
N1575 X74.969 Y37.595 Z-0.005
N1580 X74.934 Y37.575 Z-0.011
N1585 X74.91 Y37.544 Z-0.018
N1590 X74.9 Y37.505 Z-0.024
N1595 X74.906 Y37.466 Z-0.031
N1600 X74.927 Y37.432 Z-0.037
N1605 X74.959 Y37.409 Z-0.043
N1610 X74.997 Y37.4 Z-0.05
N1615 X75.036 Y37.407 Z-0.056
N1620 X75.07 Y37.428 Z-0.062
N1625 X75.092 Y37.461 Z-0.069
N1630 X75.1 Y37.5 Z-0.075
N1635 X75.092 Y37.539 Z-0.081
N1640 X75.07 Y37.572 Z-0.088
N1645 X75.036 Y37.593 Z-0.094
N1650 X74.997 Y37.6 Z-0.1
N1655 X74.959 Y37.591 Z-0.107
N1660 X74.927 Y37.568 Z-0.113
N1665 X74.906 Y37.534 Z-0.119
N1670 X74.9 Y37.495 Z-0.126
N1675 X74.91 Y37.456 Z-0.132
N1680 X74.934 Y37.425 Z-0.139
N1685 X74.969 Y37.405 Z-0.145
N1690 X75.008 Y37.4 Z-0.151
N1695 X75.046 Y37.411 Z-0.158
N1700 X75.077 Y37.436 Z-0.164
N1705 X75.096 Y37.471 Z-0.17
N1710 X75.099 Y37.511 Z-0.177
N1715 X75.087 Y37.548 Z-0.183
N1720 X75.062 Y37.579 Z-0.189
N1725 X75.026 Y37.596 Z-0.196
N1730 X74.987 Y37.599 Z-0.202
N1735 X74.949 Y37.586 Z-0.208
N1740 X74.92 Y37.56 Z-0.215
N1745 X74.903 Y37.524 Z-0.221
N1750 X74.901 Y37.484 Z-0.228
N1755 X74.915 Y37.447 Z-0.234
N1760 X74.943 Y37.418 Z-0.24
N1765 X74.979 Y37.402 Z-0.247
N1770 X75.019 Z-0.253
N1775 X75.055 Y37.417 Z-0.259
N1780 X75.083 Y37.445 Z-0.266
N1785 X75.098 Y37.481 Z-0.272
N1790 Y37.521 Z-0.278
N1795 X75.082 Y37.557 Z-0.285
N1800 X75.053 Y37.585 Z-0.291
N1805 X75.016 Y37.599 Z-0.297
N1810 X74.976 Y37.597 Z-0.304
N1815 X74.94 Y37.58 Z-0.31
N1820 X74.914 Y37.551 Z-0.317
N1825 X74.901 Y37.513 Z-0.323
N1830 X74.904 Y37.474 Z-0.329
N1835 X74.921 Y37.438 Z-0.336
N1840 X74.952 Y37.413 Z-0.342
N1845 X74.989 Y37.401 Z-0.348
N1850 X75.029 Y37.404 Z-0.355
N1855 X75.064 Y37.423 Z-0.361
N1860 X75.089 Y37.454 Z-0.367
N1865 X75.1 Y37.492 Z-0.374
N1870 X75.095 Y37.531 Z-0.38
N1875 X75.075 Y37.566 Z-0.386
N1880 X75.044 Y37.59 Z-0.393
N1885 X75.005 Y37.6 Z-0.399
N1890 X74.966 Y37.594 Z-0.406
N1895 X74.932 Y37.573 Z-0.412
N1900 X74.909 Y37.541 Z-0.418
N1905 X74.9 Y37.503 Z-0.425
N1910 X74.907 Y37.464 Z-0.431
N1915 X74.928 Y37.43 Z-0.437
N1920 X74.961 Y37.408 Z-0.444
N1925 X75 Y37.4 Z-0.45
N1930 X75.039 Y37.408 Z-0.456
N1935 X75.072 Y37.43 Z-0.463
N1940 X75.093 Y37.464 Z-0.469
N1945 X75.1 Y37.503 Z-0.475
N1950 X75.091 Y37.541 Z-0.482
N1955 X75.068 Y37.573 Z-0.488
N1960 X75.034 Y37.594 Z-0.494
N1965 X74.995 Y37.6 Z-0.501
N1970 X74.956 Y37.59 Z-0.507
N1975 X74.925 Y37.566 Z-0.514
N1980 X74.905 Y37.531 Z-0.52
N1985 X74.9 Y37.492 Z-0.526
N1990 X74.911 Y37.454 Z-0.533
N1995 X74.936 Y37.423 Z-0.539
N2000 X74.971 Y37.404 Z-0.545
N2005 X75.011 Y37.401 Z-0.552
N2010 X75.048 Y37.413 Z-0.558
N2015 X75.079 Y37.438 Z-0.564
N2020 X75.096 Y37.474 Z-0.571
N2025 X75.099 Y37.513 Z-0.577
N2030 X75.086 Y37.551 Z-0.583
N2035 X75.06 Y37.58 Z-0.59
N2040 X75.024 Y37.597 Z-0.596
N2045 X74.984 Y37.599 Z-0.603
N2050 X74.947 Y37.585 Z-0.609
N2055 X74.918 Y37.557 Z-0.615
N2060 X74.902 Y37.521 Z-0.622
N2065 Y37.481 Z-0.628
N2070 X74.917 Y37.445 Z-0.634
N2075 X74.945 Y37.417 Z-0.641
N2080 X74.981 Y37.402 Z-0.647
N2085 X75.021 Z-0.653
N2090 X75.057 Y37.418 Z-0.66
N2095 X75.085 Y37.447 Z-0.666
N2100 X75.099 Y37.484 Z-0.672
N2105 X75.097 Y37.524 Z-0.679
N2110 X75.08 Y37.56 Z-0.685
N2115 X75.051 Y37.586 Z-0.692
N2120 X75.013 Y37.599 Z-0.698
N2125 X74.974 Y37.596 Z-0.704
N2130 X74.938 Y37.579 Z-0.711
N2135 X74.913 Y37.548 Z-0.717
N2140 X74.901 Y37.511 Z-0.723
N2145 X74.904 Y37.471 Z-0.73
N2150 X74.923 Y37.436 Z-0.736
N2155 X74.954 Y37.411 Z-0.742
N2160 X74.992 Y37.4 Z-0.749
N2165 X75.031 Y37.405 Z-0.755
N2170 X75.066 Y37.425 Z-0.761
N2175 X75.09 Y37.456 Z-0.768
N2180 X75.1 Y37.495 Z-0.774
N2185 X75.094 Y37.534 Z-0.781
N2190 X75.073 Y37.568 Z-0.787
N2195 X75.041 Y37.591 Z-0.793
N2200 X75.003 Y37.6 Z-0.8
N2205 X74.964 Y37.593 Z-0.806
N2210 X74.93 Y37.572 Z-0.812
N2215 X74.908 Y37.539 Z-0.819
N2220 X74.9 Y37.5 Z-0.825
N2225 X74.908 Y37.461 Z-0.831
N2230 X74.93 Y37.428 Z-0.838
N2235 X74.964 Y37.407 Z-0.844
N2240 X75.003 Y37.4 Z-0.85
N2245 X75.041 Y37.409 Z-0.857
N2250 X75.073 Y37.432 Z-0.863
N2255 X75.094 Y37.466 Z-0.869
N2260 X75.1 Y37.505 Z-0.876
N2265 X75.09 Y37.544 Z-0.882
N2270 X75.066 Y37.575 Z-0.889
N2275 X75.031 Y37.595 Z-0.895
N2280 X74.992 Y37.6 Z-0.901
N2285 X74.954 Y37.589 Z-0.908
N2290 X74.923 Y37.564 Z-0.914
N2295 X74.904 Y37.529 Z-0.92
N2300 X74.901 Y37.489 Z-0.927
N2305 X74.913 Y37.452 Z-0.933
N2310 X74.938 Y37.421 Z-0.939
N2315 X74.974 Y37.404 Z-0.946
N2320 X75.013 Y37.401 Z-0.952
N2325 X75.051 Y37.414 Z-0.958
N2330 X75.08 Y37.44 Z-0.965
N2335 X75.097 Y37.476 Z-0.971
N2340 X75.099 Y37.516 Z-0.978
N2345 X75.085 Y37.553 Z-0.984
N2350 X75.057 Y37.582 Z-0.99
N2355 X75.021 Y37.598 Z-0.997
N2360 X74.981 Z-1.003
N2365 X74.945 Y37.583 Z-1.009
N2370 X74.917 Y37.555 Z-1.016
N2375 X74.902 Y37.519 Z-1.022
N2380 Y37.479 Z-1.028
N2385 X74.918 Y37.443 Z-1.035
N2390 X74.947 Y37.415 Z-1.041
N2395 X74.984 Y37.401 Z-1.047
N2400 X75.024 Y37.403 Z-1.054
N2405 X75.06 Y37.42 Z-1.06
N2410 X75.086 Y37.449 Z-1.067
N2415 X75.099 Y37.487 Z-1.073
N2420 X75.096 Y37.526 Z-1.079
N2425 X75.079 Y37.562 Z-1.086
N2430 X75.048 Y37.587 Z-1.092
N2435 X75.011 Y37.599 Z-1.098
N2440 X74.971 Y37.596 Z-1.105
N2445 X74.936 Y37.577 Z-1.111
N2450 X74.911 Y37.546 Z-1.117
N2455 X74.9 Y37.508 Z-1.124
N2460 X74.905 Y37.469 Z-1.13
N2465 X74.925 Y37.434 Z-1.136
N2470 X74.956 Y37.41 Z-1.143
N2475 X74.995 Y37.4 Z-1.149
N2480 X75.034 Y37.406 Z-1.156
N2485 X75.068 Y37.427 Z-1.162
N2490 X75.091 Y37.459 Z-1.168
N2495 X75.1 Y37.497 Z-1.175
N2500 X75.093 Y37.536 Z-1.181
N2505 X75.072 Y37.57 Z-1.187
N2510 X75.039 Y37.592 Z-1.194
N2515 X75 Y37.6 Z-1.2
N2520 G3 Y37.4 J-0.1
N2525 Y37.6 J0.1
N2530 G1 X74.975 Y37.593
N2535 X74.957 Y37.575
N2540 X74.95 Y37.55
N2545 X75 Y37.5
N2550 G0 Z2.3
N2555 X3.75 Y50
N2560 Z2
N2565 G1 Z0.3 F50
N2570 X3.775 Y50.025
N2575 X3.768 Y50.043
N2580 X3.75 Y50.05
N2585 X3.723 Y50.042 Z0.291 F800
N2590 X3.705 Y50.021 Z0.282
N2595 X3.7 Y49.994 Z0.273
N2600 X3.711 Y49.968 Z0.264
N2605 X3.734 Y49.953 Z0.255
N2610 X3.762 Y49.951 Z0.246
N2615 X3.786 Y49.965 Z0.237
N2620 X3.799 Y49.99 Z0.228
N2625 X3.797 Y50.018 Z0.219
N2630 X3.78 Y50.04 Z0.21
N2635 X3.754 Y50.05 Z0.201
N2640 X3.727 Y50.044 Z0.192
N2645 X3.707 Y50.025 Z0.183
N2650 X3.7 Y49.998 Z0.174
N2655 X3.709 Y49.971 Z0.165
N2660 X3.731 Y49.954 Z0.156
N2665 X3.758 Y49.951 Z0.147
N2670 X3.783 Y49.963 Z0.138
N2675 X3.798 Y49.987 Z0.129
N2680 Y50.014 Z0.12
N2685 X3.783 Y50.038 Z0.111
N2690 X3.757 Y50.049 Z0.102
N2695 X3.73 Y50.046 Z0.093
N2700 X3.709 Y50.028 Z0.084
N2705 X3.7 Y50.001 Z0.075
N2710 X3.707 Y49.974 Z0.066
N2715 X3.727 Y49.955 Z0.057
N2720 X3.755 Y49.95 Z0.049
N2725 X3.781 Y49.96 Z0.04
N2730 X3.797 Y49.983 Z0.031
N2735 X3.799 Y50.011 Z0.022
N2740 X3.786 Y50.035 Z0.013
N2745 X3.761 Y50.049 Z0.004
N2750 X3.733 Y50.047 Z-0.005
N2755 X3.711 Y50.031 Z-0.014
N2760 X3.7 Y50.005 Z-0.023
N2765 X3.705 Y49.978 Z-0.032
N2770 X3.724 Y49.957 Z-0.041
N2775 X3.751 Y49.95 Z-0.05
N2780 X3.778 Y49.958 Z-0.059
N2785 X3.796 Y49.979 Z-0.068
N2790 X3.8 Y50.007 Z-0.077
N2795 X3.788 Y50.032 Z-0.086
N2800 X3.765 Y50.048 Z-0.095
N2805 X3.737 Z-0.104
N2810 X3.713 Y50.034 Z-0.113
N2815 X3.701 Y50.009 Z-0.122
N2820 X3.704 Y49.981 Z-0.131
N2825 X3.721 Y49.959 Z-0.14
N2830 X3.747 Y49.95 Z-0.149
N2835 X3.774 Y49.956 Z-0.158
N2840 X3.794 Y49.976 Z-0.167
N2845 X3.8 Y50.003 Z-0.176
N2850 X3.79 Y50.029 Z-0.185
N2855 X3.768 Y50.047 Z-0.194
N2860 X3.741 Y50.049 Z-0.203
N2865 X3.716 Y50.036 Z-0.212
N2870 X3.702 Y50.013 Z-0.221
N2875 Y49.985 Z-0.23
N2880 X3.718 Y49.962 Z-0.239
N2885 X3.743 Y49.95 Z-0.248
N2890 X3.771 Y49.955 Z-0.257
N2895 X3.792 Y49.973 Z-0.266
N2900 X3.8 Y50 Z-0.275
N2905 X3.792 Y50.026 Z-0.284
N2910 X3.772 Y50.045 Z-0.293
N2915 X3.744 Y50.05 Z-0.302
N2920 X3.719 Y50.039 Z-0.311
N2925 X3.703 Y50.016 Z-0.32
N2930 X3.701 Y49.988 Z-0.329
N2935 X3.715 Y49.964 Z-0.338
N2940 X3.74 Y49.951 Z-0.347
N2945 X3.767 Y49.953 Z-0.356
N2950 X3.79 Y49.97 Z-0.365
N2955 X3.8 Y49.996 Z-0.374
N2960 X3.794 Y50.023 Z-0.383
N2965 X3.775 Y50.043 Z-0.392
N2970 X3.748 Y50.05 Z-0.401
N2975 X3.722 Y50.041 Z-0.41
N2980 X3.704 Y50.02 Z-0.419
N2985 X3.701 Y49.992 Z-0.428
N2990 X3.713 Y49.967 Z-0.437
N2995 X3.736 Y49.952 Z-0.446
N3000 X3.764 Z-0.454
N3005 X3.787 Y49.967 Z-0.463
N3010 X3.799 Y49.992 Z-0.472
N3015 X3.796 Y50.02 Z-0.481
N3020 X3.778 Y50.041 Z-0.49
N3025 X3.752 Y50.05 Z-0.499
N3030 X3.725 Y50.043 Z-0.508
N3035 X3.706 Y50.023 Z-0.517
N3040 X3.7 Y49.996 Z-0.526
N3045 X3.71 Y49.97 Z-0.535
N3050 X3.733 Y49.953 Z-0.544
N3055 X3.76 Y49.951 Z-0.553
N3060 X3.785 Y49.964 Z-0.562
N3065 X3.799 Y49.988 Z-0.571
N3070 X3.797 Y50.016 Z-0.58
N3075 X3.781 Y50.039 Z-0.589
N3080 X3.756 Y50.05 Z-0.598
N3085 X3.728 Y50.045 Z-0.607
N3090 X3.708 Y50.026 Z-0.616
N3095 X3.7 Y50 Z-0.625
N3100 X3.708 Y49.973 Z-0.634
N3105 X3.729 Y49.955 Z-0.643
N3110 X3.757 Y49.95 Z-0.652
N3115 X3.782 Y49.962 Z-0.661
N3120 X3.798 Y49.985 Z-0.67
N3125 Y50.013 Z-0.679
N3130 X3.784 Y50.036 Z-0.688
N3135 X3.759 Y50.049 Z-0.697
N3140 X3.732 Y50.047 Z-0.706
N3145 X3.71 Y50.029 Z-0.715
N3150 X3.7 Y50.003 Z-0.724
N3155 X3.706 Y49.976 Z-0.733
N3160 X3.726 Y49.956 Z-0.742
N3165 X3.753 Y49.95 Z-0.751
N3170 X3.779 Y49.959 Z-0.76
N3175 X3.796 Y49.981 Z-0.769
N3180 X3.799 Y50.009 Z-0.778
N3185 X3.787 Y50.034 Z-0.787
N3190 X3.763 Y50.048 Z-0.796
N3195 X3.735 Z-0.805
N3200 X3.712 Y50.032 Z-0.814
N3205 X3.7 Y50.007 Z-0.823
N3210 X3.704 Y49.979 Z-0.832
N3215 X3.722 Y49.958 Z-0.841
N3220 X3.749 Y49.95 Z-0.85
N3225 X3.776 Y49.957 Z-0.859
N3230 X3.795 Y49.978 Z-0.868
N3235 X3.8 Y50.005 Z-0.877
N3240 X3.789 Y50.031 Z-0.886
N3245 X3.767 Y50.047 Z-0.895
N3250 X3.739 Y50.049 Z-0.904
N3255 X3.714 Y50.035 Z-0.913
N3260 X3.701 Y50.011 Z-0.922
N3265 X3.703 Y49.983 Z-0.931
N3270 X3.719 Y49.96 Z-0.94
N3275 X3.745 Y49.95 Z-0.949
N3280 X3.773 Y49.955 Z-0.957
N3285 X3.793 Y49.974 Z-0.966
N3290 X3.8 Y50.001 Z-0.975
N3295 X3.791 Y50.028 Z-0.984
N3300 X3.77 Y50.046 Z-0.993
N3305 X3.743 Y50.049 Z-1.002
N3310 X3.717 Y50.038 Z-1.011
N3315 X3.702 Y50.014 Z-1.02
N3320 Y49.987 Z-1.029
N3325 X3.717 Y49.963 Z-1.038
N3330 X3.742 Y49.951 Z-1.047
N3335 X3.769 Y49.954 Z-1.056
N3340 X3.791 Y49.971 Z-1.065
N3345 X3.8 Y49.998 Z-1.074
N3350 X3.793 Y50.025 Z-1.083
N3355 X3.773 Y50.044 Z-1.092
N3360 X3.746 Y50.05 Z-1.101
N3365 X3.72 Y50.04 Z-1.11
N3370 X3.703 Y50.018 Z-1.119
N3375 X3.701 Y49.99 Z-1.128
N3380 X3.714 Y49.965 Z-1.137
N3385 X3.738 Y49.951 Z-1.146
N3390 X3.766 Y49.953 Z-1.155
N3395 X3.789 Y49.968 Z-1.164
N3400 X3.8 Y49.994 Z-1.173
N3405 X3.795 Y50.021 Z-1.182
N3410 X3.777 Y50.042 Z-1.191
N3415 X3.75 Y50.05 Z-1.2
N3420 G3 Y49.95 J-0.05
N3425 Y50.05 J0.05
N3430 G1 X3.732 Y50.043
N3435 X3.725 Y50.025
N3440 X3.75 Y50
N3445 G0 Z2.3
N3450 Y10
N3455 Z2
N3460 G1 Z0.3 F50
N3465 X3.775 Y10.025
N3470 X3.768 Y10.043
N3475 X3.75 Y10.05
N3480 X3.723 Y10.042 Z0.291 F800
N3485 X3.705 Y10.021 Z0.282
N3490 X3.7 Y9.994 Z0.273
N3495 X3.711 Y9.968 Z0.264
N3500 X3.734 Y9.953 Z0.255
N3505 X3.762 Y9.951 Z0.246
N3510 X3.786 Y9.965 Z0.237
N3515 X3.799 Y9.99 Z0.228
N3520 X3.797 Y10.018 Z0.219
N3525 X3.78 Y10.04 Z0.21
N3530 X3.754 Y10.05 Z0.201
N3535 X3.727 Y10.044 Z0.192
N3540 X3.707 Y10.025 Z0.183
N3545 X3.7 Y9.998 Z0.174
N3550 X3.709 Y9.971 Z0.165
N3555 X3.731 Y9.954 Z0.156
N3560 X3.758 Y9.951 Z0.147
N3565 X3.783 Y9.963 Z0.138
N3570 X3.798 Y9.987 Z0.129
N3575 Y10.014 Z0.12
N3580 X3.783 Y10.038 Z0.111
N3585 X3.757 Y10.049 Z0.102
N3590 X3.73 Y10.046 Z0.093
N3595 X3.709 Y10.028 Z0.084
N3600 X3.7 Y10.001 Z0.075
N3605 X3.707 Y9.974 Z0.066
N3610 X3.727 Y9.955 Z0.057
N3615 X3.755 Y9.95 Z0.049
N3620 X3.781 Y9.96 Z0.04
N3625 X3.797 Y9.983 Z0.031
N3630 X3.799 Y10.011 Z0.022
N3635 X3.786 Y10.035 Z0.013
N3640 X3.761 Y10.049 Z0.004
N3645 X3.733 Y10.047 Z-0.005
N3650 X3.711 Y10.031 Z-0.014
N3655 X3.7 Y10.005 Z-0.023
N3660 X3.705 Y9.978 Z-0.032
N3665 X3.724 Y9.957 Z-0.041
N3670 X3.751 Y9.95 Z-0.05
N3675 X3.778 Y9.958 Z-0.059
N3680 X3.796 Y9.979 Z-0.068
N3685 X3.8 Y10.007 Z-0.077
N3690 X3.788 Y10.032 Z-0.086
N3695 X3.765 Y10.048 Z-0.095
N3700 X3.737 Z-0.104
N3705 X3.713 Y10.034 Z-0.113
N3710 X3.701 Y10.009 Z-0.122
N3715 X3.704 Y9.981 Z-0.131
N3720 X3.721 Y9.959 Z-0.14
N3725 X3.747 Y9.95 Z-0.149
N3730 X3.774 Y9.956 Z-0.158
N3735 X3.794 Y9.976 Z-0.167
N3740 X3.8 Y10.003 Z-0.176
N3745 X3.79 Y10.029 Z-0.185
N3750 X3.768 Y10.047 Z-0.194
N3755 X3.741 Y10.049 Z-0.203
N3760 X3.716 Y10.037 Z-0.212
N3765 X3.702 Y10.013 Z-0.221
N3770 Y9.985 Z-0.23
N3775 X3.718 Y9.962 Z-0.239
N3780 X3.743 Y9.95 Z-0.248
N3785 X3.771 Y9.955 Z-0.257
N3790 X3.792 Y9.973 Z-0.266
N3795 X3.8 Y10 Z-0.275
N3800 X3.792 Y10.026 Z-0.284
N3805 X3.772 Y10.045 Z-0.293
N3810 X3.744 Y10.05 Z-0.302
N3815 X3.719 Y10.039 Z-0.311
N3820 X3.703 Y10.016 Z-0.32
N3825 X3.701 Y9.988 Z-0.329
N3830 X3.715 Y9.964 Z-0.338
N3835 X3.74 Y9.951 Z-0.347
N3840 X3.767 Y9.953 Z-0.356
N3845 X3.79 Y9.97 Z-0.365
N3850 X3.8 Y9.996 Z-0.374
N3855 X3.794 Y10.023 Z-0.383
N3860 X3.775 Y10.043 Z-0.392
N3865 X3.748 Y10.05 Z-0.401
N3870 X3.722 Y10.041 Z-0.41
N3875 X3.704 Y10.02 Z-0.419
N3880 X3.701 Y9.992 Z-0.428
N3885 X3.713 Y9.967 Z-0.437
N3890 X3.736 Y9.952 Z-0.446
N3895 X3.764 Z-0.454
N3900 X3.787 Y9.967 Z-0.463
N3905 X3.799 Y9.992 Z-0.472
N3910 X3.796 Y10.02 Z-0.481
N3915 X3.778 Y10.041 Z-0.49
N3920 X3.752 Y10.05 Z-0.499
N3925 X3.725 Y10.043 Z-0.508
N3930 X3.706 Y10.023 Z-0.517
N3935 X3.7 Y9.996 Z-0.526
N3940 X3.71 Y9.97 Z-0.535
N3945 X3.733 Y9.953 Z-0.544
N3950 X3.76 Y9.951 Z-0.553
N3955 X3.785 Y9.964 Z-0.562
N3960 X3.799 Y9.988 Z-0.571
N3965 X3.797 Y10.016 Z-0.58
N3970 X3.781 Y10.039 Z-0.589
N3975 X3.756 Y10.05 Z-0.598
N3980 X3.728 Y10.045 Z-0.607
N3985 X3.708 Y10.026 Z-0.616
N3990 X3.7 Y10 Z-0.625
N3995 X3.708 Y9.973 Z-0.634
N4000 X3.729 Y9.955 Z-0.643
N4005 X3.757 Y9.95 Z-0.652
N4010 X3.782 Y9.962 Z-0.661
N4015 X3.798 Y9.985 Z-0.67
N4020 Y10.013 Z-0.679
N4025 X3.784 Y10.037 Z-0.688
N4030 X3.759 Y10.049 Z-0.697
N4035 X3.732 Y10.047 Z-0.706
N4040 X3.71 Y10.029 Z-0.715
N4045 X3.7 Y10.003 Z-0.724
N4050 X3.706 Y9.976 Z-0.733
N4055 X3.726 Y9.956 Z-0.742
N4060 X3.753 Y9.95 Z-0.751
N4065 X3.779 Y9.959 Z-0.76
N4070 X3.796 Y9.981 Z-0.769
N4075 X3.799 Y10.009 Z-0.778
N4080 X3.787 Y10.034 Z-0.787
N4085 X3.763 Y10.048 Z-0.796
N4090 X3.735 Z-0.805
N4095 X3.712 Y10.032 Z-0.814
N4100 X3.7 Y10.007 Z-0.823
N4105 X3.704 Y9.979 Z-0.832
N4110 X3.722 Y9.958 Z-0.841
N4115 X3.749 Y9.95 Z-0.85
N4120 X3.776 Y9.957 Z-0.859
N4125 X3.795 Y9.978 Z-0.868
N4130 X3.8 Y10.005 Z-0.877
N4135 X3.789 Y10.031 Z-0.886
N4140 X3.767 Y10.047 Z-0.895
N4145 X3.739 Y10.049 Z-0.904
N4150 X3.714 Y10.035 Z-0.913
N4155 X3.701 Y10.011 Z-0.922
N4160 X3.703 Y9.983 Z-0.931
N4165 X3.719 Y9.96 Z-0.94
N4170 X3.745 Y9.95 Z-0.949
N4175 X3.773 Y9.955 Z-0.957
N4180 X3.793 Y9.974 Z-0.966
N4185 X3.8 Y10.001 Z-0.975
N4190 X3.791 Y10.028 Z-0.984
N4195 X3.77 Y10.046 Z-0.993
N4200 X3.743 Y10.049 Z-1.002
N4205 X3.717 Y10.038 Z-1.011
N4210 X3.702 Y10.014 Z-1.02
N4215 Y9.987 Z-1.029
N4220 X3.717 Y9.963 Z-1.038
N4225 X3.742 Y9.951 Z-1.047
N4230 X3.769 Y9.954 Z-1.056
N4235 X3.791 Y9.971 Z-1.065
N4240 X3.8 Y9.998 Z-1.074
N4245 X3.793 Y10.025 Z-1.083
N4250 X3.773 Y10.044 Z-1.092
N4255 X3.746 Y10.05 Z-1.101
N4260 X3.72 Y10.04 Z-1.11
N4265 X3.703 Y10.018 Z-1.119
N4270 X3.701 Y9.99 Z-1.128
N4275 X3.714 Y9.965 Z-1.137
N4280 X3.738 Y9.951 Z-1.146
N4285 X3.766 Y9.953 Z-1.155
N4290 X3.789 Y9.968 Z-1.164
N4295 X3.8 Y9.994 Z-1.173
N4300 X3.795 Y10.021 Z-1.182
N4305 X3.777 Y10.042 Z-1.191
N4310 X3.75 Y10.05 Z-1.2
N4315 G3 Y9.95 J-0.05
N4320 Y10.05 J0.05
N4325 G1 X3.732 Y10.043
N4330 X3.725 Y10.025
N4335 X3.75 Y10
N4340 G0 Z2.3
N4345 X25 Y7.5
N4350 Z2
N4355 G1 Z0.3 F50
N4360 X24.95 Y7.45
N4365 X24.957 Y7.425
N4370 X24.975 Y7.407
N4375 X25 Y7.4
N4380 X25.039 Y7.408 Z0.294 F800
N4385 X25.072 Y7.43 Z0.287
N4390 X25.093 Y7.464 Z0.281
N4395 X25.1 Y7.503 Z0.275
N4400 X25.091 Y7.541 Z0.268
N4405 X25.068 Y7.573 Z0.262
N4410 X25.034 Y7.594 Z0.256
N4415 X24.995 Y7.6 Z0.249
N4420 X24.956 Y7.59 Z0.243
N4425 X24.925 Y7.566 Z0.236
N4430 X24.905 Y7.531 Z0.23
N4435 X24.9 Y7.492 Z0.224
N4440 X24.911 Y7.454 Z0.217
N4445 X24.936 Y7.423 Z0.211
N4450 X24.971 Y7.404 Z0.205
N4455 X25.011 Y7.401 Z0.198
N4460 X25.048 Y7.413 Z0.192
N4465 X25.079 Y7.438 Z0.186
N4470 X25.096 Y7.474 Z0.179
N4475 X25.099 Y7.513 Z0.173
N4480 X25.086 Y7.551 Z0.167
N4485 X25.06 Y7.58 Z0.16
N4490 X25.024 Y7.597 Z0.154
N4495 X24.984 Y7.599 Z0.147
N4500 X24.947 Y7.585 Z0.141
N4505 X24.918 Y7.557 Z0.135
N4510 X24.902 Y7.521 Z0.128
N4515 Y7.481 Z0.122
N4520 X24.917 Y7.445 Z0.116
N4525 X24.945 Y7.417 Z0.109
N4530 X24.981 Y7.402 Z0.103
N4535 X25.021 Z0.097
N4540 X25.057 Y7.418 Z0.09
N4545 X25.085 Y7.447 Z0.084
N4550 X25.099 Y7.484 Z0.078
N4555 X25.097 Y7.524 Z0.071
N4560 X25.08 Y7.56 Z0.065
N4565 X25.051 Y7.586 Z0.058
N4570 X25.013 Y7.599 Z0.052
N4575 X24.974 Y7.596 Z0.046
N4580 X24.938 Y7.579 Z0.039
N4585 X24.913 Y7.548 Z0.033
N4590 X24.901 Y7.511 Z0.027
N4595 X24.904 Y7.471 Z0.02
N4600 X24.923 Y7.436 Z0.014
N4605 X24.954 Y7.411 Z0.008
N4610 X24.992 Y7.4 Z0.001
N4615 X25.031 Y7.405 Z-0.005
N4620 X25.066 Y7.425 Z-0.011
N4625 X25.09 Y7.456 Z-0.018
N4630 X25.1 Y7.495 Z-0.024
N4635 X25.094 Y7.534 Z-0.031
N4640 X25.073 Y7.568 Z-0.037
N4645 X25.041 Y7.591 Z-0.043
N4650 X25.003 Y7.6 Z-0.05
N4655 X24.964 Y7.593 Z-0.056
N4660 X24.93 Y7.572 Z-0.062
N4665 X24.908 Y7.539 Z-0.069
N4670 X24.9 Y7.5 Z-0.075
N4675 X24.908 Y7.461 Z-0.081
N4680 X24.93 Y7.428 Z-0.088
N4685 X24.964 Y7.407 Z-0.094
N4690 X25.003 Y7.4 Z-0.1
N4695 X25.041 Y7.409 Z-0.107
N4700 X25.073 Y7.432 Z-0.113
N4705 X25.094 Y7.466 Z-0.119
N4710 X25.1 Y7.505 Z-0.126
N4715 X25.09 Y7.544 Z-0.132
N4720 X25.066 Y7.575 Z-0.139
N4725 X25.031 Y7.595 Z-0.145
N4730 X24.992 Y7.6 Z-0.151
N4735 X24.954 Y7.589 Z-0.158
N4740 X24.923 Y7.564 Z-0.164
N4745 X24.904 Y7.529 Z-0.17
N4750 X24.901 Y7.489 Z-0.177
N4755 X24.913 Y7.452 Z-0.183
N4760 X24.938 Y7.421 Z-0.189
N4765 X24.974 Y7.404 Z-0.196
N4770 X25.013 Y7.401 Z-0.202
N4775 X25.051 Y7.414 Z-0.208
N4780 X25.08 Y7.44 Z-0.215
N4785 X25.097 Y7.476 Z-0.221
N4790 X25.099 Y7.516 Z-0.228
N4795 X25.085 Y7.553 Z-0.234
N4800 X25.057 Y7.582 Z-0.24
N4805 X25.021 Y7.598 Z-0.247
N4810 X24.981 Z-0.253
N4815 X24.945 Y7.583 Z-0.259
N4820 X24.917 Y7.555 Z-0.266
N4825 X24.902 Y7.519 Z-0.272
N4830 Y7.479 Z-0.278
N4835 X24.918 Y7.443 Z-0.285
N4840 X24.947 Y7.415 Z-0.291
N4845 X24.984 Y7.401 Z-0.297
N4850 X25.024 Y7.403 Z-0.304
N4855 X25.06 Y7.42 Z-0.31
N4860 X25.086 Y7.449 Z-0.317
N4865 X25.099 Y7.487 Z-0.323
N4870 X25.096 Y7.526 Z-0.329
N4875 X25.079 Y7.562 Z-0.336
N4880 X25.048 Y7.587 Z-0.342
N4885 X25.011 Y7.599 Z-0.348
N4890 X24.971 Y7.596 Z-0.355
N4895 X24.936 Y7.577 Z-0.361
N4900 X24.911 Y7.546 Z-0.367
N4905 X24.9 Y7.508 Z-0.374
N4910 X24.905 Y7.469 Z-0.38
N4915 X24.925 Y7.434 Z-0.386
N4920 X24.956 Y7.41 Z-0.393
N4925 X24.995 Y7.4 Z-0.399
N4930 X25.034 Y7.406 Z-0.406
N4935 X25.068 Y7.427 Z-0.412
N4940 X25.091 Y7.459 Z-0.418
N4945 X25.1 Y7.497 Z-0.425
N4950 X25.093 Y7.536 Z-0.431
N4955 X25.072 Y7.57 Z-0.437
N4960 X25.039 Y7.592 Z-0.444
N4965 X25 Y7.6 Z-0.45
N4970 X24.961 Y7.592 Z-0.456
N4975 X24.928 Y7.57 Z-0.463
N4980 X24.907 Y7.536 Z-0.469
N4985 X24.9 Y7.497 Z-0.475
N4990 X24.909 Y7.459 Z-0.482
N4995 X24.932 Y7.427 Z-0.488
N5000 X24.966 Y7.406 Z-0.494
N5005 X25.005 Y7.4 Z-0.501
N5010 X25.044 Y7.41 Z-0.507
N5015 X25.075 Y7.434 Z-0.514
N5020 X25.095 Y7.469 Z-0.52
N5025 X25.1 Y7.508 Z-0.526
N5030 X25.089 Y7.546 Z-0.533
N5035 X25.064 Y7.577 Z-0.539
N5040 X25.029 Y7.596 Z-0.545
N5045 X24.989 Y7.599 Z-0.552
N5050 X24.952 Y7.587 Z-0.558
N5055 X24.921 Y7.562 Z-0.564
N5060 X24.904 Y7.526 Z-0.571
N5065 X24.901 Y7.487 Z-0.577
N5070 X24.914 Y7.449 Z-0.583
N5075 X24.94 Y7.42 Z-0.59
N5080 X24.976 Y7.403 Z-0.596
N5085 X25.016 Y7.401 Z-0.603
N5090 X25.053 Y7.415 Z-0.609
N5095 X25.082 Y7.443 Z-0.615
N5100 X25.098 Y7.479 Z-0.622
N5105 Y7.519 Z-0.628
N5110 X25.083 Y7.555 Z-0.634
N5115 X25.055 Y7.583 Z-0.641
N5120 X25.019 Y7.598 Z-0.647
N5125 X24.979 Z-0.653
N5130 X24.943 Y7.582 Z-0.66
N5135 X24.915 Y7.553 Z-0.666
N5140 X24.901 Y7.516 Z-0.672
N5145 X24.903 Y7.476 Z-0.679
N5150 X24.92 Y7.44 Z-0.685
N5155 X24.949 Y7.414 Z-0.692
N5160 X24.987 Y7.401 Z-0.698
N5165 X25.026 Y7.404 Z-0.704
N5170 X25.062 Y7.421 Z-0.711
N5175 X25.087 Y7.452 Z-0.717
N5180 X25.099 Y7.489 Z-0.723
N5185 X25.096 Y7.529 Z-0.73
N5190 X25.077 Y7.564 Z-0.736
N5195 X25.046 Y7.589 Z-0.742
N5200 X25.008 Y7.6 Z-0.749
N5205 X24.969 Y7.595 Z-0.755
N5210 X24.934 Y7.575 Z-0.761
N5215 X24.91 Y7.544 Z-0.768
N5220 X24.9 Y7.505 Z-0.774
N5225 X24.906 Y7.466 Z-0.781
N5230 X24.927 Y7.432 Z-0.787
N5235 X24.959 Y7.409 Z-0.793
N5240 X24.997 Y7.4 Z-0.8
N5245 X25.036 Y7.407 Z-0.806
N5250 X25.07 Y7.428 Z-0.812
N5255 X25.092 Y7.461 Z-0.819
N5260 X25.1 Y7.5 Z-0.825
N5265 X25.092 Y7.539 Z-0.831
N5270 X25.07 Y7.572 Z-0.838
N5275 X25.036 Y7.593 Z-0.844
N5280 X24.997 Y7.6 Z-0.85
N5285 X24.959 Y7.591 Z-0.857
N5290 X24.927 Y7.568 Z-0.863
N5295 X24.906 Y7.534 Z-0.869
N5300 X24.9 Y7.495 Z-0.876
N5305 X24.91 Y7.456 Z-0.882
N5310 X24.934 Y7.425 Z-0.889
N5315 X24.969 Y7.405 Z-0.895
N5320 X25.008 Y7.4 Z-0.901
N5325 X25.046 Y7.411 Z-0.908
N5330 X25.077 Y7.436 Z-0.914
N5335 X25.096 Y7.471 Z-0.92
N5340 X25.099 Y7.511 Z-0.927
N5345 X25.087 Y7.548 Z-0.933
N5350 X25.062 Y7.579 Z-0.939
N5355 X25.026 Y7.596 Z-0.946
N5360 X24.987 Y7.599 Z-0.952
N5365 X24.949 Y7.586 Z-0.958
N5370 X24.92 Y7.56 Z-0.965
N5375 X24.903 Y7.524 Z-0.971
N5380 X24.901 Y7.484 Z-0.978
N5385 X24.915 Y7.447 Z-0.984
N5390 X24.943 Y7.418 Z-0.99
N5395 X24.979 Y7.402 Z-0.997
N5400 X25.019 Z-1.003
N5405 X25.055 Y7.417 Z-1.009
N5410 X25.083 Y7.445 Z-1.016
N5415 X25.098 Y7.481 Z-1.022
N5420 Y7.521 Z-1.028
N5425 X25.082 Y7.557 Z-1.035
N5430 X25.053 Y7.585 Z-1.041
N5435 X25.016 Y7.599 Z-1.047
N5440 X24.976 Y7.597 Z-1.054
N5445 X24.94 Y7.58 Z-1.06
N5450 X24.914 Y7.551 Z-1.067
N5455 X24.901 Y7.513 Z-1.073
N5460 X24.904 Y7.474 Z-1.079
N5465 X24.921 Y7.438 Z-1.086
N5470 X24.952 Y7.413 Z-1.092
N5475 X24.989 Y7.401 Z-1.098
N5480 X25.029 Y7.404 Z-1.105
N5485 X25.064 Y7.423 Z-1.111
N5490 X25.089 Y7.454 Z-1.117
N5495 X25.1 Y7.492 Z-1.124
N5500 X25.095 Y7.531 Z-1.13
N5505 X25.075 Y7.566 Z-1.136
N5510 X25.044 Y7.59 Z-1.143
N5515 X25.005 Y7.6 Z-1.149
N5520 X24.966 Y7.594 Z-1.156
N5525 X24.932 Y7.573 Z-1.162
N5530 X24.909 Y7.541 Z-1.168
N5535 X24.9 Y7.503 Z-1.175
N5540 X24.907 Y7.464 Z-1.181
N5545 X24.928 Y7.43 Z-1.187
N5550 X24.961 Y7.408 Z-1.194
N5555 X25 Y7.4 Z-1.2
N5560 G3 Y7.6 J0.1
N5565 Y7.4 J-0.1
N5570 G1 X25.025 Y7.407
N5575 X25.043 Y7.425
N5580 X25.05 Y7.45
N5585 X25 Y7.5
N5590 G0 Z2.3
N5595 X55
N5600 Z2
N5605 G1 Z0.3 F50
N5610 X55.05 Y7.55
N5615 X55.043 Y7.575
N5620 X55.025 Y7.593
N5625 X55 Y7.6
N5630 X54.961 Y7.592 Z0.294 F800
N5635 X54.928 Y7.57 Z0.287
N5640 X54.907 Y7.536 Z0.281
N5645 X54.9 Y7.497 Z0.275
N5650 X54.909 Y7.459 Z0.268
N5655 X54.932 Y7.427 Z0.262
N5660 X54.966 Y7.406 Z0.256
N5665 X55.005 Y7.4 Z0.249
N5670 X55.044 Y7.41 Z0.243
N5675 X55.075 Y7.434 Z0.236
N5680 X55.095 Y7.469 Z0.23
N5685 X55.1 Y7.508 Z0.224
N5690 X55.089 Y7.546 Z0.217
N5695 X55.064 Y7.577 Z0.211
N5700 X55.029 Y7.596 Z0.205
N5705 X54.989 Y7.599 Z0.198
N5710 X54.952 Y7.587 Z0.192
N5715 X54.921 Y7.562 Z0.186
N5720 X54.904 Y7.526 Z0.179
N5725 X54.901 Y7.487 Z0.173
N5730 X54.914 Y7.449 Z0.167
N5735 X54.94 Y7.42 Z0.16
N5740 X54.976 Y7.403 Z0.154
N5745 X55.016 Y7.401 Z0.147
N5750 X55.053 Y7.415 Z0.141
N5755 X55.082 Y7.443 Z0.135
N5760 X55.098 Y7.479 Z0.128
N5765 Y7.519 Z0.122
N5770 X55.083 Y7.555 Z0.116
N5775 X55.055 Y7.583 Z0.109
N5780 X55.019 Y7.598 Z0.103
N5785 X54.979 Z0.097
N5790 X54.943 Y7.582 Z0.09
N5795 X54.915 Y7.553 Z0.084
N5800 X54.901 Y7.516 Z0.078
N5805 X54.903 Y7.476 Z0.071
N5810 X54.92 Y7.44 Z0.065
N5815 X54.949 Y7.414 Z0.058
N5820 X54.987 Y7.401 Z0.052
N5825 X55.026 Y7.404 Z0.046
N5830 X55.062 Y7.421 Z0.039
N5835 X55.087 Y7.452 Z0.033
N5840 X55.099 Y7.489 Z0.027
N5845 X55.096 Y7.529 Z0.02
N5850 X55.077 Y7.564 Z0.014
N5855 X55.046 Y7.589 Z0.008
N5860 X55.008 Y7.6 Z0.001
N5865 X54.969 Y7.595 Z-0.005
N5870 X54.934 Y7.575 Z-0.011
N5875 X54.91 Y7.544 Z-0.018
N5880 X54.9 Y7.505 Z-0.024
N5885 X54.906 Y7.466 Z-0.031
N5890 X54.927 Y7.432 Z-0.037
N5895 X54.959 Y7.409 Z-0.043
N5900 X54.997 Y7.4 Z-0.05
N5905 X55.036 Y7.407 Z-0.056
N5910 X55.07 Y7.428 Z-0.062
N5915 X55.092 Y7.461 Z-0.069
N5920 X55.1 Y7.5 Z-0.075
N5925 X55.092 Y7.539 Z-0.081
N5930 X55.07 Y7.572 Z-0.088
N5935 X55.036 Y7.593 Z-0.094
N5940 X54.997 Y7.6 Z-0.1
N5945 X54.959 Y7.591 Z-0.107
N5950 X54.927 Y7.568 Z-0.113
N5955 X54.906 Y7.534 Z-0.119
N5960 X54.9 Y7.495 Z-0.126
N5965 X54.91 Y7.456 Z-0.132
N5970 X54.934 Y7.425 Z-0.139
N5975 X54.969 Y7.405 Z-0.145
N5980 X55.008 Y7.4 Z-0.151
N5985 X55.046 Y7.411 Z-0.158
N5990 X55.077 Y7.436 Z-0.164
N5995 X55.096 Y7.471 Z-0.17
N6000 X55.099 Y7.511 Z-0.177
N6005 X55.087 Y7.548 Z-0.183
N6010 X55.062 Y7.579 Z-0.189
N6015 X55.026 Y7.596 Z-0.196
N6020 X54.987 Y7.599 Z-0.202
N6025 X54.949 Y7.586 Z-0.208
N6030 X54.92 Y7.56 Z-0.215
N6035 X54.903 Y7.524 Z-0.221
N6040 X54.901 Y7.484 Z-0.228
N6045 X54.915 Y7.447 Z-0.234
N6050 X54.943 Y7.418 Z-0.24
N6055 X54.979 Y7.402 Z-0.247
N6060 X55.019 Z-0.253
N6065 X55.055 Y7.417 Z-0.259
N6070 X55.083 Y7.445 Z-0.266
N6075 X55.098 Y7.481 Z-0.272
N6080 Y7.521 Z-0.278
N6085 X55.082 Y7.557 Z-0.285
N6090 X55.053 Y7.585 Z-0.291
N6095 X55.016 Y7.599 Z-0.297
N6100 X54.976 Y7.597 Z-0.304
N6105 X54.94 Y7.58 Z-0.31
N6110 X54.914 Y7.551 Z-0.317
N6115 X54.901 Y7.513 Z-0.323
N6120 X54.904 Y7.474 Z-0.329
N6125 X54.921 Y7.438 Z-0.336
N6130 X54.952 Y7.413 Z-0.342
N6135 X54.989 Y7.401 Z-0.348
N6140 X55.029 Y7.404 Z-0.355
N6145 X55.064 Y7.423 Z-0.361
N6150 X55.089 Y7.454 Z-0.367
N6155 X55.1 Y7.492 Z-0.374
N6160 X55.095 Y7.531 Z-0.38
N6165 X55.075 Y7.566 Z-0.386
N6170 X55.044 Y7.59 Z-0.393
N6175 X55.005 Y7.6 Z-0.399
N6180 X54.966 Y7.594 Z-0.406
N6185 X54.932 Y7.573 Z-0.412
N6190 X54.909 Y7.541 Z-0.418
N6195 X54.9 Y7.503 Z-0.425
N6200 X54.907 Y7.464 Z-0.431
N6205 X54.928 Y7.43 Z-0.437
N6210 X54.961 Y7.408 Z-0.444
N6215 X55 Y7.4 Z-0.45
N6220 X55.039 Y7.408 Z-0.456
N6225 X55.072 Y7.43 Z-0.463
N6230 X55.093 Y7.464 Z-0.469
N6235 X55.1 Y7.503 Z-0.475
N6240 X55.091 Y7.541 Z-0.482
N6245 X55.068 Y7.573 Z-0.488
N6250 X55.034 Y7.594 Z-0.494
N6255 X54.995 Y7.6 Z-0.501
N6260 X54.956 Y7.59 Z-0.507
N6265 X54.925 Y7.566 Z-0.514
N6270 X54.905 Y7.531 Z-0.52
N6275 X54.9 Y7.492 Z-0.526
N6280 X54.911 Y7.454 Z-0.533
N6285 X54.936 Y7.423 Z-0.539
N6290 X54.971 Y7.404 Z-0.545
N6295 X55.011 Y7.401 Z-0.552
N6300 X55.048 Y7.413 Z-0.558
N6305 X55.079 Y7.438 Z-0.564
N6310 X55.096 Y7.474 Z-0.571
N6315 X55.099 Y7.513 Z-0.577
N6320 X55.086 Y7.551 Z-0.583
N6325 X55.06 Y7.58 Z-0.59
N6330 X55.024 Y7.597 Z-0.596
N6335 X54.984 Y7.599 Z-0.603
N6340 X54.947 Y7.585 Z-0.609
N6345 X54.918 Y7.557 Z-0.615
N6350 X54.902 Y7.521 Z-0.622
N6355 Y7.481 Z-0.628
N6360 X54.917 Y7.445 Z-0.634
N6365 X54.945 Y7.417 Z-0.641
N6370 X54.981 Y7.402 Z-0.647
N6375 X55.021 Z-0.653
N6380 X55.057 Y7.418 Z-0.66
N6385 X55.085 Y7.447 Z-0.666
N6390 X55.099 Y7.484 Z-0.672
N6395 X55.097 Y7.524 Z-0.679
N6400 X55.08 Y7.56 Z-0.685
N6405 X55.051 Y7.586 Z-0.692
N6410 X55.013 Y7.599 Z-0.698
N6415 X54.974 Y7.596 Z-0.704
N6420 X54.938 Y7.579 Z-0.711
N6425 X54.913 Y7.548 Z-0.717
N6430 X54.901 Y7.511 Z-0.723
N6435 X54.904 Y7.471 Z-0.73
N6440 X54.923 Y7.436 Z-0.736
N6445 X54.954 Y7.411 Z-0.742
N6450 X54.992 Y7.4 Z-0.749
N6455 X55.031 Y7.405 Z-0.755
N6460 X55.066 Y7.425 Z-0.761
N6465 X55.09 Y7.456 Z-0.768
N6470 X55.1 Y7.495 Z-0.774
N6475 X55.094 Y7.534 Z-0.781
N6480 X55.073 Y7.568 Z-0.787
N6485 X55.041 Y7.591 Z-0.793
N6490 X55.003 Y7.6 Z-0.8
N6495 X54.964 Y7.593 Z-0.806
N6500 X54.93 Y7.572 Z-0.812
N6505 X54.908 Y7.539 Z-0.819
N6510 X54.9 Y7.5 Z-0.825
N6515 X54.908 Y7.461 Z-0.831
N6520 X54.93 Y7.428 Z-0.838
N6525 X54.964 Y7.407 Z-0.844
N6530 X55.003 Y7.4 Z-0.85
N6535 X55.041 Y7.409 Z-0.857
N6540 X55.073 Y7.432 Z-0.863
N6545 X55.094 Y7.466 Z-0.869
N6550 X55.1 Y7.505 Z-0.876
N6555 X55.09 Y7.544 Z-0.882
N6560 X55.066 Y7.575 Z-0.889
N6565 X55.031 Y7.595 Z-0.895
N6570 X54.992 Y7.6 Z-0.901
N6575 X54.954 Y7.589 Z-0.908
N6580 X54.923 Y7.564 Z-0.914
N6585 X54.904 Y7.529 Z-0.92
N6590 X54.901 Y7.489 Z-0.927
N6595 X54.913 Y7.452 Z-0.933
N6600 X54.938 Y7.421 Z-0.939
N6605 X54.974 Y7.404 Z-0.946
N6610 X55.013 Y7.401 Z-0.952
N6615 X55.051 Y7.414 Z-0.958
N6620 X55.08 Y7.44 Z-0.965
N6625 X55.097 Y7.476 Z-0.971
N6630 X55.099 Y7.516 Z-0.978
N6635 X55.085 Y7.553 Z-0.984
N6640 X55.057 Y7.582 Z-0.99
N6645 X55.021 Y7.598 Z-0.997
N6650 X54.981 Z-1.003
N6655 X54.945 Y7.583 Z-1.009
N6660 X54.917 Y7.555 Z-1.016
N6665 X54.902 Y7.519 Z-1.022
N6670 Y7.479 Z-1.028
N6675 X54.918 Y7.443 Z-1.035
N6680 X54.947 Y7.415 Z-1.041
N6685 X54.984 Y7.401 Z-1.047
N6690 X55.024 Y7.403 Z-1.054
N6695 X55.06 Y7.42 Z-1.06
N6700 X55.086 Y7.449 Z-1.067
N6705 X55.099 Y7.487 Z-1.073
N6710 X55.096 Y7.526 Z-1.079
N6715 X55.079 Y7.562 Z-1.086
N6720 X55.048 Y7.587 Z-1.092
N6725 X55.011 Y7.599 Z-1.098
N6730 X54.971 Y7.596 Z-1.105
N6735 X54.936 Y7.577 Z-1.111
N6740 X54.911 Y7.546 Z-1.117
N6745 X54.9 Y7.508 Z-1.124
N6750 X54.905 Y7.469 Z-1.13
N6755 X54.925 Y7.434 Z-1.136
N6760 X54.956 Y7.41 Z-1.143
N6765 X54.995 Y7.4 Z-1.149
N6770 X55.034 Y7.406 Z-1.156
N6775 X55.068 Y7.427 Z-1.162
N6780 X55.091 Y7.459 Z-1.168
N6785 X55.1 Y7.497 Z-1.175
N6790 X55.093 Y7.536 Z-1.181
N6795 X55.072 Y7.57 Z-1.187
N6800 X55.039 Y7.592 Z-1.194
N6805 X55 Y7.6 Z-1.2
N6810 G3 Y7.4 J-0.1
N6815 Y7.6 J0.1
N6820 G1 X54.975 Y7.593
N6825 X54.957 Y7.575
N6830 X54.95 Y7.55
N6835 X55 Y7.5
N6840 G0 Z2.3
N6845 X75
N6850 Z2
N6855 G1 Z0.3 F50
N6860 X75.05 Y7.55
N6865 X75.043 Y7.575
N6870 X75.025 Y7.593
N6875 X75 Y7.6
N6880 X74.961 Y7.592 Z0.294 F800
N6885 X74.928 Y7.57 Z0.287
N6890 X74.907 Y7.536 Z0.281
N6895 X74.9 Y7.497 Z0.275
N6900 X74.909 Y7.459 Z0.268
N6905 X74.932 Y7.427 Z0.262
N6910 X74.966 Y7.406 Z0.256
N6915 X75.005 Y7.4 Z0.249
N6920 X75.044 Y7.41 Z0.243
N6925 X75.075 Y7.434 Z0.236
N6930 X75.095 Y7.469 Z0.23
N6935 X75.1 Y7.508 Z0.224
N6940 X75.089 Y7.546 Z0.217
N6945 X75.064 Y7.577 Z0.211
N6950 X75.029 Y7.596 Z0.205
N6955 X74.989 Y7.599 Z0.198
N6960 X74.952 Y7.587 Z0.192
N6965 X74.921 Y7.562 Z0.186
N6970 X74.904 Y7.526 Z0.179
N6975 X74.901 Y7.487 Z0.173
N6980 X74.914 Y7.449 Z0.167
N6985 X74.94 Y7.42 Z0.16
N6990 X74.976 Y7.403 Z0.154
N6995 X75.016 Y7.401 Z0.147
N7000 X75.053 Y7.415 Z0.141
N7005 X75.082 Y7.443 Z0.135
N7010 X75.098 Y7.479 Z0.128
N7015 Y7.519 Z0.122
N7020 X75.083 Y7.555 Z0.116
N7025 X75.055 Y7.583 Z0.109
N7030 X75.019 Y7.598 Z0.103
N7035 X74.979 Z0.097
N7040 X74.943 Y7.582 Z0.09
N7045 X74.915 Y7.553 Z0.084
N7050 X74.901 Y7.516 Z0.078
N7055 X74.903 Y7.476 Z0.071
N7060 X74.92 Y7.44 Z0.065
N7065 X74.949 Y7.414 Z0.058
N7070 X74.987 Y7.401 Z0.052
N7075 X75.026 Y7.404 Z0.046
N7080 X75.062 Y7.421 Z0.039
N7085 X75.087 Y7.452 Z0.033
N7090 X75.099 Y7.489 Z0.027
N7095 X75.096 Y7.529 Z0.02
N7100 X75.077 Y7.564 Z0.014
N7105 X75.046 Y7.589 Z0.008
N7110 X75.008 Y7.6 Z0.001
N7115 X74.969 Y7.595 Z-0.005
N7120 X74.934 Y7.575 Z-0.011
N7125 X74.91 Y7.544 Z-0.018
N7130 X74.9 Y7.505 Z-0.024
N7135 X74.906 Y7.466 Z-0.031
N7140 X74.927 Y7.432 Z-0.037
N7145 X74.959 Y7.409 Z-0.043
N7150 X74.997 Y7.4 Z-0.05
N7155 X75.036 Y7.407 Z-0.056
N7160 X75.07 Y7.428 Z-0.062
N7165 X75.092 Y7.461 Z-0.069
N7170 X75.1 Y7.5 Z-0.075
N7175 X75.092 Y7.539 Z-0.081
N7180 X75.07 Y7.572 Z-0.088
N7185 X75.036 Y7.593 Z-0.094
N7190 X74.997 Y7.6 Z-0.1
N7195 X74.959 Y7.591 Z-0.107
N7200 X74.927 Y7.568 Z-0.113
N7205 X74.906 Y7.534 Z-0.119
N7210 X74.9 Y7.495 Z-0.126
N7215 X74.91 Y7.456 Z-0.132
N7220 X74.934 Y7.425 Z-0.139
N7225 X74.969 Y7.405 Z-0.145
N7230 X75.008 Y7.4 Z-0.151
N7235 X75.046 Y7.411 Z-0.158
N7240 X75.077 Y7.436 Z-0.164
N7245 X75.096 Y7.471 Z-0.17
N7250 X75.099 Y7.511 Z-0.177
N7255 X75.087 Y7.548 Z-0.183
N7260 X75.062 Y7.579 Z-0.189
N7265 X75.026 Y7.596 Z-0.196
N7270 X74.987 Y7.599 Z-0.202
N7275 X74.949 Y7.586 Z-0.208
N7280 X74.92 Y7.56 Z-0.215
N7285 X74.903 Y7.524 Z-0.221
N7290 X74.901 Y7.484 Z-0.228
N7295 X74.915 Y7.447 Z-0.234
N7300 X74.943 Y7.418 Z-0.24
N7305 X74.979 Y7.402 Z-0.247
N7310 X75.019 Z-0.253
N7315 X75.055 Y7.417 Z-0.259
N7320 X75.083 Y7.445 Z-0.266
N7325 X75.098 Y7.481 Z-0.272
N7330 Y7.521 Z-0.278
N7335 X75.082 Y7.557 Z-0.285
N7340 X75.053 Y7.585 Z-0.291
N7345 X75.016 Y7.599 Z-0.297
N7350 X74.976 Y7.597 Z-0.304
N7355 X74.94 Y7.58 Z-0.31
N7360 X74.914 Y7.551 Z-0.317
N7365 X74.901 Y7.513 Z-0.323
N7370 X74.904 Y7.474 Z-0.329
N7375 X74.921 Y7.438 Z-0.336
N7380 X74.952 Y7.413 Z-0.342
N7385 X74.989 Y7.401 Z-0.348
N7390 X75.029 Y7.404 Z-0.355
N7395 X75.064 Y7.423 Z-0.361
N7400 X75.089 Y7.454 Z-0.367
N7405 X75.1 Y7.492 Z-0.374
N7410 X75.095 Y7.531 Z-0.38
N7415 X75.075 Y7.566 Z-0.386
N7420 X75.044 Y7.59 Z-0.393
N7425 X75.005 Y7.6 Z-0.399
N7430 X74.966 Y7.594 Z-0.406
N7435 X74.932 Y7.573 Z-0.412
N7440 X74.909 Y7.541 Z-0.418
N7445 X74.9 Y7.503 Z-0.425
N7450 X74.907 Y7.464 Z-0.431
N7455 X74.928 Y7.43 Z-0.437
N7460 X74.961 Y7.408 Z-0.444
N7465 X75 Y7.4 Z-0.45
N7470 X75.039 Y7.408 Z-0.456
N7475 X75.072 Y7.43 Z-0.463
N7480 X75.093 Y7.464 Z-0.469
N7485 X75.1 Y7.503 Z-0.475
N7490 X75.091 Y7.541 Z-0.482
N7495 X75.068 Y7.573 Z-0.488
N7500 X75.034 Y7.594 Z-0.494
N7505 X74.995 Y7.6 Z-0.501
N7510 X74.956 Y7.59 Z-0.507
N7515 X74.925 Y7.566 Z-0.514
N7520 X74.905 Y7.531 Z-0.52
N7525 X74.9 Y7.492 Z-0.526
N7530 X74.911 Y7.454 Z-0.533
N7535 X74.936 Y7.423 Z-0.539
N7540 X74.971 Y7.404 Z-0.545
N7545 X75.011 Y7.401 Z-0.552
N7550 X75.048 Y7.413 Z-0.558
N7555 X75.079 Y7.438 Z-0.564
N7560 X75.096 Y7.474 Z-0.571
N7565 X75.099 Y7.513 Z-0.577
N7570 X75.086 Y7.551 Z-0.583
N7575 X75.06 Y7.58 Z-0.59
N7580 X75.024 Y7.597 Z-0.596
N7585 X74.984 Y7.599 Z-0.603
N7590 X74.947 Y7.585 Z-0.609
N7595 X74.918 Y7.557 Z-0.615
N7600 X74.902 Y7.521 Z-0.622
N7605 Y7.481 Z-0.628
N7610 X74.917 Y7.445 Z-0.634
N7615 X74.945 Y7.417 Z-0.641
N7620 X74.981 Y7.402 Z-0.647
N7625 X75.021 Z-0.653
N7630 X75.057 Y7.418 Z-0.66
N7635 X75.085 Y7.447 Z-0.666
N7640 X75.099 Y7.484 Z-0.672
N7645 X75.097 Y7.524 Z-0.679
N7650 X75.08 Y7.56 Z-0.685
N7655 X75.051 Y7.586 Z-0.692
N7660 X75.013 Y7.599 Z-0.698
N7665 X74.974 Y7.596 Z-0.704
N7670 X74.938 Y7.579 Z-0.711
N7675 X74.913 Y7.548 Z-0.717
N7680 X74.901 Y7.511 Z-0.723
N7685 X74.904 Y7.471 Z-0.73
N7690 X74.923 Y7.436 Z-0.736
N7695 X74.954 Y7.411 Z-0.742
N7700 X74.992 Y7.4 Z-0.749
N7705 X75.031 Y7.405 Z-0.755
N7710 X75.066 Y7.425 Z-0.761
N7715 X75.09 Y7.456 Z-0.768
N7720 X75.1 Y7.495 Z-0.774
N7725 X75.094 Y7.534 Z-0.781
N7730 X75.073 Y7.568 Z-0.787
N7735 X75.041 Y7.591 Z-0.793
N7740 X75.003 Y7.6 Z-0.8
N7745 X74.964 Y7.593 Z-0.806
N7750 X74.93 Y7.572 Z-0.812
N7755 X74.908 Y7.539 Z-0.819
N7760 X74.9 Y7.5 Z-0.825
N7765 X74.908 Y7.461 Z-0.831
N7770 X74.93 Y7.428 Z-0.838
N7775 X74.964 Y7.407 Z-0.844
N7780 X75.003 Y7.4 Z-0.85
N7785 X75.041 Y7.409 Z-0.857
N7790 X75.073 Y7.432 Z-0.863
N7795 X75.094 Y7.466 Z-0.869
N7800 X75.1 Y7.505 Z-0.876
N7805 X75.09 Y7.544 Z-0.882
N7810 X75.066 Y7.575 Z-0.889
N7815 X75.031 Y7.595 Z-0.895
N7820 X74.992 Y7.6 Z-0.901
N7825 X74.954 Y7.589 Z-0.908
N7830 X74.923 Y7.564 Z-0.914
N7835 X74.904 Y7.529 Z-0.92
N7840 X74.901 Y7.489 Z-0.927
N7845 X74.913 Y7.452 Z-0.933
N7850 X74.938 Y7.421 Z-0.939
N7855 X74.974 Y7.404 Z-0.946
N7860 X75.013 Y7.401 Z-0.952
N7865 X75.051 Y7.414 Z-0.958
N7870 X75.08 Y7.44 Z-0.965
N7875 X75.097 Y7.476 Z-0.971
N7880 X75.099 Y7.516 Z-0.978
N7885 X75.085 Y7.553 Z-0.984
N7890 X75.057 Y7.582 Z-0.99
N7895 X75.021 Y7.598 Z-0.997
N7900 X74.981 Z-1.003
N7905 X74.945 Y7.583 Z-1.009
N7910 X74.917 Y7.555 Z-1.016
N7915 X74.902 Y7.519 Z-1.022
N7920 Y7.479 Z-1.028
N7925 X74.918 Y7.443 Z-1.035
N7930 X74.947 Y7.415 Z-1.041
N7935 X74.984 Y7.401 Z-1.047
N7940 X75.024 Y7.403 Z-1.054
N7945 X75.06 Y7.42 Z-1.06
N7950 X75.086 Y7.449 Z-1.067
N7955 X75.099 Y7.487 Z-1.073
N7960 X75.096 Y7.526 Z-1.079
N7965 X75.079 Y7.562 Z-1.086
N7970 X75.048 Y7.587 Z-1.092
N7975 X75.011 Y7.599 Z-1.098
N7980 X74.971 Y7.596 Z-1.105
N7985 X74.936 Y7.577 Z-1.111
N7990 X74.911 Y7.546 Z-1.117
N7995 X74.9 Y7.508 Z-1.124
N8000 X74.905 Y7.469 Z-1.13
N8005 X74.925 Y7.434 Z-1.136
N8010 X74.956 Y7.41 Z-1.143
N8015 X74.995 Y7.4 Z-1.149
N8020 X75.034 Y7.406 Z-1.156
N8025 X75.068 Y7.427 Z-1.162
N8030 X75.091 Y7.459 Z-1.168
N8035 X75.1 Y7.497 Z-1.175
N8040 X75.093 Y7.536 Z-1.181
N8045 X75.072 Y7.57 Z-1.187
N8050 X75.039 Y7.592 Z-1.194
N8055 X75 Y7.6 Z-1.2
N8060 G3 Y7.4 J-0.1
N8065 Y7.6 J0.1
N8070 G1 X74.975 Y7.593
N8075 X74.957 Y7.575
N8080 X74.95 Y7.55
N8085 X75 Y7.5
N8090 G0 Z2.3
N8095 X95
N8100 Z2
N8105 G1 Z0.3 F50
N8110 X95.05 Y7.55
N8115 X95.043 Y7.575
N8120 X95.025 Y7.593
N8125 X95 Y7.6
N8130 X94.961 Y7.592 Z0.294 F800
N8135 X94.928 Y7.57 Z0.287
N8140 X94.907 Y7.536 Z0.281
N8145 X94.9 Y7.497 Z0.275
N8150 X94.909 Y7.459 Z0.268
N8155 X94.932 Y7.427 Z0.262
N8160 X94.966 Y7.406 Z0.256
N8165 X95.005 Y7.4 Z0.249
N8170 X95.044 Y7.41 Z0.243
N8175 X95.075 Y7.434 Z0.236
N8180 X95.095 Y7.469 Z0.23
N8185 X95.1 Y7.508 Z0.224
N8190 X95.089 Y7.546 Z0.217
N8195 X95.064 Y7.577 Z0.211
N8200 X95.029 Y7.596 Z0.205
N8205 X94.989 Y7.599 Z0.198
N8210 X94.952 Y7.587 Z0.192
N8215 X94.921 Y7.562 Z0.186
N8220 X94.904 Y7.526 Z0.179
N8225 X94.901 Y7.487 Z0.173
N8230 X94.914 Y7.449 Z0.167
N8235 X94.94 Y7.42 Z0.16
N8240 X94.976 Y7.403 Z0.154
N8245 X95.016 Y7.401 Z0.147
N8250 X95.053 Y7.415 Z0.141
N8255 X95.082 Y7.443 Z0.135
N8260 X95.098 Y7.479 Z0.128
N8265 Y7.519 Z0.122
N8270 X95.083 Y7.555 Z0.116
N8275 X95.055 Y7.583 Z0.109
N8280 X95.019 Y7.598 Z0.103
N8285 X94.979 Z0.097
N8290 X94.943 Y7.582 Z0.09
N8295 X94.915 Y7.553 Z0.084
N8300 X94.901 Y7.516 Z0.078
N8305 X94.903 Y7.476 Z0.071
N8310 X94.92 Y7.44 Z0.065
N8315 X94.949 Y7.414 Z0.058
N8320 X94.987 Y7.401 Z0.052
N8325 X95.026 Y7.404 Z0.046
N8330 X95.062 Y7.421 Z0.039
N8335 X95.087 Y7.452 Z0.033
N8340 X95.099 Y7.489 Z0.027
N8345 X95.096 Y7.529 Z0.02
N8350 X95.077 Y7.564 Z0.014
N8355 X95.046 Y7.589 Z0.008
N8360 X95.008 Y7.6 Z0.001
N8365 X94.969 Y7.595 Z-0.005
N8370 X94.934 Y7.575 Z-0.011
N8375 X94.91 Y7.544 Z-0.018
N8380 X94.9 Y7.505 Z-0.024
N8385 X94.906 Y7.466 Z-0.031
N8390 X94.927 Y7.432 Z-0.037
N8395 X94.959 Y7.409 Z-0.043
N8400 X94.997 Y7.4 Z-0.05
N8405 X95.036 Y7.407 Z-0.056
N8410 X95.07 Y7.428 Z-0.062
N8415 X95.092 Y7.461 Z-0.069
N8420 X95.1 Y7.5 Z-0.075
N8425 X95.092 Y7.539 Z-0.081
N8430 X95.07 Y7.572 Z-0.088
N8435 X95.036 Y7.593 Z-0.094
N8440 X94.997 Y7.6 Z-0.1
N8445 X94.959 Y7.591 Z-0.107
N8450 X94.927 Y7.568 Z-0.113
N8455 X94.906 Y7.534 Z-0.119
N8460 X94.9 Y7.495 Z-0.126
N8465 X94.91 Y7.456 Z-0.132
N8470 X94.934 Y7.425 Z-0.139
N8475 X94.969 Y7.405 Z-0.145
N8480 X95.008 Y7.4 Z-0.151
N8485 X95.046 Y7.411 Z-0.158
N8490 X95.077 Y7.436 Z-0.164
N8495 X95.096 Y7.471 Z-0.17
N8500 X95.099 Y7.511 Z-0.177
N8505 X95.087 Y7.548 Z-0.183
N8510 X95.062 Y7.579 Z-0.189
N8515 X95.026 Y7.596 Z-0.196
N8520 X94.987 Y7.599 Z-0.202
N8525 X94.949 Y7.586 Z-0.208
N8530 X94.92 Y7.56 Z-0.215
N8535 X94.903 Y7.524 Z-0.221
N8540 X94.901 Y7.484 Z-0.228
N8545 X94.915 Y7.447 Z-0.234
N8550 X94.943 Y7.418 Z-0.24
N8555 X94.979 Y7.402 Z-0.247
N8560 X95.019 Z-0.253
N8565 X95.055 Y7.417 Z-0.259
N8570 X95.083 Y7.445 Z-0.266
N8575 X95.098 Y7.481 Z-0.272
N8580 Y7.521 Z-0.278
N8585 X95.082 Y7.557 Z-0.285
N8590 X95.053 Y7.585 Z-0.291
N8595 X95.016 Y7.599 Z-0.297
N8600 X94.976 Y7.597 Z-0.304
N8605 X94.94 Y7.58 Z-0.31
N8610 X94.914 Y7.551 Z-0.317
N8615 X94.901 Y7.513 Z-0.323
N8620 X94.904 Y7.474 Z-0.329
N8625 X94.921 Y7.438 Z-0.336
N8630 X94.952 Y7.413 Z-0.342
N8635 X94.989 Y7.401 Z-0.348
N8640 X95.029 Y7.404 Z-0.355
N8645 X95.064 Y7.423 Z-0.361
N8650 X95.089 Y7.454 Z-0.367
N8655 X95.1 Y7.492 Z-0.374
N8660 X95.095 Y7.531 Z-0.38
N8665 X95.075 Y7.566 Z-0.386
N8670 X95.044 Y7.59 Z-0.393
N8675 X95.005 Y7.6 Z-0.399
N8680 X94.966 Y7.594 Z-0.406
N8685 X94.932 Y7.573 Z-0.412
N8690 X94.909 Y7.541 Z-0.418
N8695 X94.9 Y7.503 Z-0.425
N8700 X94.907 Y7.464 Z-0.431
N8705 X94.928 Y7.43 Z-0.437
N8710 X94.961 Y7.408 Z-0.444
N8715 X95 Y7.4 Z-0.45
N8720 X95.039 Y7.408 Z-0.456
N8725 X95.072 Y7.43 Z-0.463
N8730 X95.093 Y7.464 Z-0.469
N8735 X95.1 Y7.503 Z-0.475
N8740 X95.091 Y7.541 Z-0.482
N8745 X95.068 Y7.573 Z-0.488
N8750 X95.034 Y7.594 Z-0.494
N8755 X94.995 Y7.6 Z-0.501
N8760 X94.956 Y7.59 Z-0.507
N8765 X94.925 Y7.566 Z-0.514
N8770 X94.905 Y7.531 Z-0.52
N8775 X94.9 Y7.492 Z-0.526
N8780 X94.911 Y7.454 Z-0.533
N8785 X94.936 Y7.423 Z-0.539
N8790 X94.971 Y7.404 Z-0.545
N8795 X95.011 Y7.401 Z-0.552
N8800 X95.048 Y7.413 Z-0.558
N8805 X95.079 Y7.438 Z-0.564
N8810 X95.096 Y7.474 Z-0.571
N8815 X95.099 Y7.513 Z-0.577
N8820 X95.086 Y7.551 Z-0.583
N8825 X95.06 Y7.58 Z-0.59
N8830 X95.024 Y7.597 Z-0.596
N8835 X94.984 Y7.599 Z-0.603
N8840 X94.947 Y7.585 Z-0.609
N8845 X94.918 Y7.557 Z-0.615
N8850 X94.902 Y7.521 Z-0.622
N8855 Y7.481 Z-0.628
N8860 X94.917 Y7.445 Z-0.634
N8865 X94.945 Y7.417 Z-0.641
N8870 X94.981 Y7.402 Z-0.647
N8875 X95.021 Z-0.653
N8880 X95.057 Y7.418 Z-0.66
N8885 X95.085 Y7.447 Z-0.666
N8890 X95.099 Y7.484 Z-0.672
N8895 X95.097 Y7.524 Z-0.679
N8900 X95.08 Y7.56 Z-0.685
N8905 X95.051 Y7.586 Z-0.692
N8910 X95.013 Y7.599 Z-0.698
N8915 X94.974 Y7.596 Z-0.704
N8920 X94.938 Y7.579 Z-0.711
N8925 X94.913 Y7.548 Z-0.717
N8930 X94.901 Y7.511 Z-0.723
N8935 X94.904 Y7.471 Z-0.73
N8940 X94.923 Y7.436 Z-0.736
N8945 X94.954 Y7.411 Z-0.742
N8950 X94.992 Y7.4 Z-0.749
N8955 X95.031 Y7.405 Z-0.755
N8960 X95.066 Y7.425 Z-0.761
N8965 X95.09 Y7.456 Z-0.768
N8970 X95.1 Y7.495 Z-0.774
N8975 X95.094 Y7.534 Z-0.781
N8980 X95.073 Y7.568 Z-0.787
N8985 X95.041 Y7.591 Z-0.793
N8990 X95.003 Y7.6 Z-0.8
N8995 X94.964 Y7.593 Z-0.806
N9000 X94.93 Y7.572 Z-0.812
N9005 X94.908 Y7.539 Z-0.819
N9010 X94.9 Y7.5 Z-0.825
N9015 X94.908 Y7.461 Z-0.831
N9020 X94.93 Y7.428 Z-0.838
N9025 X94.964 Y7.407 Z-0.844
N9030 X95.003 Y7.4 Z-0.85
N9035 X95.041 Y7.409 Z-0.857
N9040 X95.073 Y7.432 Z-0.863
N9045 X95.094 Y7.466 Z-0.869
N9050 X95.1 Y7.505 Z-0.876
N9055 X95.09 Y7.544 Z-0.882
N9060 X95.066 Y7.575 Z-0.889
N9065 X95.031 Y7.595 Z-0.895
N9070 X94.992 Y7.6 Z-0.901
N9075 X94.954 Y7.589 Z-0.908
N9080 X94.923 Y7.564 Z-0.914
N9085 X94.904 Y7.529 Z-0.92
N9090 X94.901 Y7.489 Z-0.927
N9095 X94.913 Y7.452 Z-0.933
N9100 X94.938 Y7.421 Z-0.939
N9105 X94.974 Y7.404 Z-0.946
N9110 X95.013 Y7.401 Z-0.952
N9115 X95.051 Y7.414 Z-0.958
N9120 X95.08 Y7.44 Z-0.965
N9125 X95.097 Y7.476 Z-0.971
N9130 X95.099 Y7.516 Z-0.978
N9135 X95.085 Y7.553 Z-0.984
N9140 X95.057 Y7.582 Z-0.99
N9145 X95.021 Y7.598 Z-0.997
N9150 X94.981 Z-1.003
N9155 X94.945 Y7.583 Z-1.009
N9160 X94.917 Y7.555 Z-1.016
N9165 X94.902 Y7.519 Z-1.022
N9170 Y7.479 Z-1.028
N9175 X94.918 Y7.443 Z-1.035
N9180 X94.947 Y7.415 Z-1.041
N9185 X94.984 Y7.401 Z-1.047
N9190 X95.024 Y7.403 Z-1.054
N9195 X95.06 Y7.42 Z-1.06
N9200 X95.086 Y7.449 Z-1.067
N9205 X95.099 Y7.487 Z-1.073
N9210 X95.096 Y7.526 Z-1.079
N9215 X95.079 Y7.562 Z-1.086
N9220 X95.048 Y7.587 Z-1.092
N9225 X95.011 Y7.599 Z-1.098
N9230 X94.971 Y7.596 Z-1.105
N9235 X94.936 Y7.577 Z-1.111
N9240 X94.911 Y7.546 Z-1.117
N9245 X94.9 Y7.508 Z-1.124
N9250 X94.905 Y7.469 Z-1.13
N9255 X94.925 Y7.434 Z-1.136
N9260 X94.956 Y7.41 Z-1.143
N9265 X94.995 Y7.4 Z-1.149
N9270 X95.034 Y7.406 Z-1.156
N9275 X95.068 Y7.427 Z-1.162
N9280 X95.091 Y7.459 Z-1.168
N9285 X95.1 Y7.497 Z-1.175
N9290 X95.093 Y7.536 Z-1.181
N9295 X95.072 Y7.57 Z-1.187
N9300 X95.039 Y7.592 Z-1.194
N9305 X95 Y7.6 Z-1.2
N9310 G3 Y7.4 J-0.1
N9315 Y7.6 J0.1
N9320 G1 X94.975 Y7.593
N9325 X94.957 Y7.575
N9330 X94.95 Y7.55
N9335 X95 Y7.5
N9340 G0 Z2.3
N9345 X115
N9350 Z2
N9355 G1 Z0.3 F50
N9360 X114.95 Y7.45
N9365 X114.957 Y7.425
N9370 X114.975 Y7.407
N9375 X115 Y7.4
N9380 X115.039 Y7.408 Z0.294 F800
N9385 X115.072 Y7.43 Z0.287
N9390 X115.093 Y7.464 Z0.281
N9395 X115.1 Y7.503 Z0.275
N9400 X115.091 Y7.541 Z0.268
N9405 X115.068 Y7.573 Z0.262
N9410 X115.034 Y7.594 Z0.256
N9415 X114.995 Y7.6 Z0.249
N9420 X114.956 Y7.59 Z0.243
N9425 X114.925 Y7.566 Z0.236
N9430 X114.905 Y7.531 Z0.23
N9435 X114.9 Y7.492 Z0.224
N9440 X114.911 Y7.454 Z0.217
N9445 X114.936 Y7.423 Z0.211
N9450 X114.971 Y7.404 Z0.205
N9455 X115.011 Y7.401 Z0.198
N9460 X115.048 Y7.413 Z0.192
N9465 X115.079 Y7.438 Z0.186
N9470 X115.096 Y7.474 Z0.179
N9475 X115.099 Y7.513 Z0.173
N9480 X115.086 Y7.551 Z0.167
N9485 X115.06 Y7.58 Z0.16
N9490 X115.024 Y7.597 Z0.154
N9495 X114.984 Y7.599 Z0.147
N9500 X114.947 Y7.585 Z0.141
N9505 X114.918 Y7.557 Z0.135
N9510 X114.902 Y7.521 Z0.128
N9515 Y7.481 Z0.122
N9520 X114.917 Y7.445 Z0.116
N9525 X114.945 Y7.417 Z0.109
N9530 X114.981 Y7.402 Z0.103
N9535 X115.021 Z0.097
N9540 X115.057 Y7.418 Z0.09
N9545 X115.085 Y7.447 Z0.084
N9550 X115.099 Y7.484 Z0.078
N9555 X115.097 Y7.524 Z0.071
N9560 X115.08 Y7.56 Z0.065
N9565 X115.051 Y7.586 Z0.058
N9570 X115.013 Y7.599 Z0.052
N9575 X114.974 Y7.596 Z0.046
N9580 X114.938 Y7.579 Z0.039
N9585 X114.913 Y7.548 Z0.033
N9590 X114.901 Y7.511 Z0.027
N9595 X114.904 Y7.471 Z0.02
N9600 X114.923 Y7.436 Z0.014
N9605 X114.954 Y7.411 Z0.008
N9610 X114.992 Y7.4 Z0.001
N9615 X115.031 Y7.405 Z-0.005
N9620 X115.066 Y7.425 Z-0.011
N9625 X115.09 Y7.456 Z-0.018
N9630 X115.1 Y7.495 Z-0.024
N9635 X115.094 Y7.534 Z-0.031
N9640 X115.073 Y7.568 Z-0.037
N9645 X115.041 Y7.591 Z-0.043
N9650 X115.003 Y7.6 Z-0.05
N9655 X114.964 Y7.593 Z-0.056
N9660 X114.93 Y7.572 Z-0.062
N9665 X114.908 Y7.539 Z-0.069
N9670 X114.9 Y7.5 Z-0.075
N9675 X114.908 Y7.461 Z-0.081
N9680 X114.93 Y7.428 Z-0.088
N9685 X114.964 Y7.407 Z-0.094
N9690 X115.003 Y7.4 Z-0.1
N9695 X115.041 Y7.409 Z-0.107
N9700 X115.073 Y7.432 Z-0.113
N9705 X115.094 Y7.466 Z-0.119
N9710 X115.1 Y7.505 Z-0.126
N9715 X115.09 Y7.544 Z-0.132
N9720 X115.066 Y7.575 Z-0.139
N9725 X115.031 Y7.595 Z-0.145
N9730 X114.992 Y7.6 Z-0.151
N9735 X114.954 Y7.589 Z-0.158
N9740 X114.923 Y7.564 Z-0.164
N9745 X114.904 Y7.529 Z-0.17
N9750 X114.901 Y7.489 Z-0.177
N9755 X114.913 Y7.452 Z-0.183
N9760 X114.938 Y7.421 Z-0.189
N9765 X114.974 Y7.404 Z-0.196
N9770 X115.013 Y7.401 Z-0.202
N9775 X115.051 Y7.414 Z-0.208
N9780 X115.08 Y7.44 Z-0.215
N9785 X115.097 Y7.476 Z-0.221
N9790 X115.099 Y7.516 Z-0.228
N9795 X115.085 Y7.553 Z-0.234
N9800 X115.057 Y7.582 Z-0.24
N9805 X115.021 Y7.598 Z-0.247
N9810 X114.981 Z-0.253
N9815 X114.945 Y7.583 Z-0.259
N9820 X114.917 Y7.555 Z-0.266
N9825 X114.902 Y7.519 Z-0.272
N9830 Y7.479 Z-0.278
N9835 X114.918 Y7.443 Z-0.285
N9840 X114.947 Y7.415 Z-0.291
N9845 X114.984 Y7.401 Z-0.297
N9850 X115.024 Y7.403 Z-0.304
N9855 X115.06 Y7.42 Z-0.31
N9860 X115.086 Y7.449 Z-0.317
N9865 X115.099 Y7.487 Z-0.323
N9870 X115.096 Y7.526 Z-0.329
N9875 X115.079 Y7.562 Z-0.336
N9880 X115.048 Y7.587 Z-0.342
N9885 X115.011 Y7.599 Z-0.348
N9890 X114.971 Y7.596 Z-0.355
N9895 X114.936 Y7.577 Z-0.361
N9900 X114.911 Y7.546 Z-0.367
N9905 X114.9 Y7.508 Z-0.374
N9910 X114.905 Y7.469 Z-0.38
N9915 X114.925 Y7.434 Z-0.386
N9920 X114.956 Y7.41 Z-0.393
N9925 X114.995 Y7.4 Z-0.399
N9930 X115.034 Y7.406 Z-0.406
N9935 X115.068 Y7.427 Z-0.412
N9940 X115.091 Y7.459 Z-0.418
N9945 X115.1 Y7.497 Z-0.425
N9950 X115.093 Y7.536 Z-0.431
N9955 X115.072 Y7.57 Z-0.437
N9960 X115.039 Y7.592 Z-0.444
N9965 X115 Y7.6 Z-0.45
N9970 X114.961 Y7.592 Z-0.456
N9975 X114.928 Y7.57 Z-0.463
N9980 X114.907 Y7.536 Z-0.469
N9985 X114.9 Y7.497 Z-0.475
N9990 X114.909 Y7.459 Z-0.482
N9995 X114.932 Y7.427 Z-0.488
N10000 X114.966 Y7.406 Z-0.494
N10005 X115.005 Y7.4 Z-0.501
N10010 X115.044 Y7.41 Z-0.507
N10015 X115.075 Y7.434 Z-0.514
N10020 X115.095 Y7.469 Z-0.52
N10025 X115.1 Y7.508 Z-0.526
N10030 X115.089 Y7.546 Z-0.533
N10035 X115.064 Y7.577 Z-0.539
N10040 X115.029 Y7.596 Z-0.545
N10045 X114.989 Y7.599 Z-0.552
N10050 X114.952 Y7.587 Z-0.558
N10055 X114.921 Y7.562 Z-0.564
N10060 X114.904 Y7.526 Z-0.571
N10065 X114.901 Y7.487 Z-0.577
N10070 X114.914 Y7.449 Z-0.583
N10075 X114.94 Y7.42 Z-0.59
N10080 X114.976 Y7.403 Z-0.596
N10085 X115.016 Y7.401 Z-0.603
N10090 X115.053 Y7.415 Z-0.609
N10095 X115.082 Y7.443 Z-0.615
N10100 X115.098 Y7.479 Z-0.622
N10105 Y7.519 Z-0.628
N10110 X115.083 Y7.555 Z-0.634
N10115 X115.055 Y7.583 Z-0.641
N10120 X115.019 Y7.598 Z-0.647
N10125 X114.979 Z-0.653
N10130 X114.943 Y7.582 Z-0.66
N10135 X114.915 Y7.553 Z-0.666
N10140 X114.901 Y7.516 Z-0.672
N10145 X114.903 Y7.476 Z-0.679
N10150 X114.92 Y7.44 Z-0.685
N10155 X114.949 Y7.414 Z-0.692
N10160 X114.987 Y7.401 Z-0.698
N10165 X115.026 Y7.404 Z-0.704
N10170 X115.062 Y7.421 Z-0.711
N10175 X115.087 Y7.452 Z-0.717
N10180 X115.099 Y7.489 Z-0.723
N10185 X115.096 Y7.529 Z-0.73
N10190 X115.077 Y7.564 Z-0.736
N10195 X115.046 Y7.589 Z-0.742
N10200 X115.008 Y7.6 Z-0.749
N10205 X114.969 Y7.595 Z-0.755
N10210 X114.934 Y7.575 Z-0.761
N10215 X114.91 Y7.544 Z-0.768
N10220 X114.9 Y7.505 Z-0.774
N10225 X114.906 Y7.466 Z-0.781
N10230 X114.927 Y7.432 Z-0.787
N10235 X114.959 Y7.409 Z-0.793
N10240 X114.997 Y7.4 Z-0.8
N10245 X115.036 Y7.407 Z-0.806
N10250 X115.07 Y7.428 Z-0.812
N10255 X115.092 Y7.461 Z-0.819
N10260 X115.1 Y7.5 Z-0.825
N10265 X115.092 Y7.539 Z-0.831
N10270 X115.07 Y7.572 Z-0.838
N10275 X115.036 Y7.593 Z-0.844
N10280 X114.997 Y7.6 Z-0.85
N10285 X114.959 Y7.591 Z-0.857
N10290 X114.927 Y7.568 Z-0.863
N10295 X114.906 Y7.534 Z-0.869
N10300 X114.9 Y7.495 Z-0.876
N10305 X114.91 Y7.456 Z-0.882
N10310 X114.934 Y7.425 Z-0.889
N10315 X114.969 Y7.405 Z-0.895
N10320 X115.008 Y7.4 Z-0.901
N10325 X115.046 Y7.411 Z-0.908
N10330 X115.077 Y7.436 Z-0.914
N10335 X115.096 Y7.471 Z-0.92
N10340 X115.099 Y7.511 Z-0.927
N10345 X115.087 Y7.548 Z-0.933
N10350 X115.062 Y7.579 Z-0.939
N10355 X115.026 Y7.596 Z-0.946
N10360 X114.987 Y7.599 Z-0.952
N10365 X114.949 Y7.586 Z-0.958
N10370 X114.92 Y7.56 Z-0.965
N10375 X114.903 Y7.524 Z-0.971
N10380 X114.901 Y7.484 Z-0.978
N10385 X114.915 Y7.447 Z-0.984
N10390 X114.943 Y7.418 Z-0.99
N10395 X114.979 Y7.402 Z-0.997
N10400 X115.019 Z-1.003
N10405 X115.055 Y7.417 Z-1.009
N10410 X115.083 Y7.445 Z-1.016
N10415 X115.098 Y7.481 Z-1.022
N10420 Y7.521 Z-1.028
N10425 X115.082 Y7.557 Z-1.035
N10430 X115.053 Y7.585 Z-1.041
N10435 X115.016 Y7.599 Z-1.047
N10440 X114.976 Y7.597 Z-1.054
N10445 X114.94 Y7.58 Z-1.06
N10450 X114.914 Y7.551 Z-1.067
N10455 X114.901 Y7.513 Z-1.073
N10460 X114.904 Y7.474 Z-1.079
N10465 X114.921 Y7.438 Z-1.086
N10470 X114.952 Y7.413 Z-1.092
N10475 X114.989 Y7.401 Z-1.098
N10480 X115.029 Y7.404 Z-1.105
N10485 X115.064 Y7.423 Z-1.111
N10490 X115.089 Y7.454 Z-1.117
N10495 X115.1 Y7.492 Z-1.124
N10500 X115.095 Y7.531 Z-1.13
N10505 X115.075 Y7.566 Z-1.136
N10510 X115.044 Y7.59 Z-1.143
N10515 X115.005 Y7.6 Z-1.149
N10520 X114.966 Y7.594 Z-1.156
N10525 X114.932 Y7.573 Z-1.162
N10530 X114.909 Y7.541 Z-1.168
N10535 X114.9 Y7.503 Z-1.175
N10540 X114.907 Y7.464 Z-1.181
N10545 X114.928 Y7.43 Z-1.187
N10550 X114.961 Y7.408 Z-1.194
N10555 X115 Y7.4 Z-1.2
N10560 G3 Y7.6 J0.1
N10565 Y7.4 J-0.1
N10570 G1 X115.025 Y7.407
N10575 X115.043 Y7.425
N10580 X115.05 Y7.45
N10585 X115 Y7.5
N10590 G0 Z2.3
N10595 X145
N10600 Z2
N10605 G1 Z0.3 F50
N10610 X145.05 Y7.55
N10615 X145.043 Y7.575
N10620 X145.025 Y7.593
N10625 X145 Y7.6
N10630 X144.961 Y7.592 Z0.294 F800
N10635 X144.928 Y7.57 Z0.287
N10640 X144.907 Y7.536 Z0.281
N10645 X144.9 Y7.497 Z0.275
N10650 X144.909 Y7.459 Z0.268
N10655 X144.932 Y7.427 Z0.262
N10660 X144.966 Y7.406 Z0.256
N10665 X145.005 Y7.4 Z0.249
N10670 X145.044 Y7.41 Z0.243
N10675 X145.075 Y7.434 Z0.236
N10680 X145.095 Y7.469 Z0.23
N10685 X145.1 Y7.508 Z0.224
N10690 X145.089 Y7.546 Z0.217
N10695 X145.064 Y7.577 Z0.211
N10700 X145.029 Y7.596 Z0.205
N10705 X144.989 Y7.599 Z0.198
N10710 X144.952 Y7.587 Z0.192
N10715 X144.921 Y7.562 Z0.186
N10720 X144.904 Y7.526 Z0.179
N10725 X144.901 Y7.487 Z0.173
N10730 X144.914 Y7.449 Z0.167
N10735 X144.94 Y7.42 Z0.16
N10740 X144.976 Y7.403 Z0.154
N10745 X145.016 Y7.401 Z0.147
N10750 X145.053 Y7.415 Z0.141
N10755 X145.082 Y7.443 Z0.135
N10760 X145.098 Y7.479 Z0.128
N10765 Y7.519 Z0.122
N10770 X145.083 Y7.555 Z0.116
N10775 X145.055 Y7.583 Z0.109
N10780 X145.019 Y7.598 Z0.103
N10785 X144.979 Z0.097
N10790 X144.943 Y7.582 Z0.09
N10795 X144.915 Y7.553 Z0.084
N10800 X144.901 Y7.516 Z0.078
N10805 X144.903 Y7.476 Z0.071
N10810 X144.92 Y7.44 Z0.065
N10815 X144.949 Y7.414 Z0.058
N10820 X144.987 Y7.401 Z0.052
N10825 X145.026 Y7.404 Z0.046
N10830 X145.062 Y7.421 Z0.039
N10835 X145.087 Y7.452 Z0.033
N10840 X145.099 Y7.489 Z0.027
N10845 X145.096 Y7.529 Z0.02
N10850 X145.077 Y7.564 Z0.014
N10855 X145.046 Y7.589 Z0.008
N10860 X145.008 Y7.6 Z0.001
N10865 X144.969 Y7.595 Z-0.005
N10870 X144.934 Y7.575 Z-0.011
N10875 X144.91 Y7.544 Z-0.018
N10880 X144.9 Y7.505 Z-0.024
N10885 X144.906 Y7.466 Z-0.031
N10890 X144.927 Y7.432 Z-0.037
N10895 X144.959 Y7.409 Z-0.043
N10900 X144.997 Y7.4 Z-0.05
N10905 X145.036 Y7.407 Z-0.056
N10910 X145.07 Y7.428 Z-0.062
N10915 X145.092 Y7.461 Z-0.069
N10920 X145.1 Y7.5 Z-0.075
N10925 X145.092 Y7.539 Z-0.081
N10930 X145.07 Y7.572 Z-0.088
N10935 X145.036 Y7.593 Z-0.094
N10940 X144.997 Y7.6 Z-0.1
N10945 X144.959 Y7.591 Z-0.107
N10950 X144.927 Y7.568 Z-0.113
N10955 X144.906 Y7.534 Z-0.119
N10960 X144.9 Y7.495 Z-0.126
N10965 X144.91 Y7.456 Z-0.132
N10970 X144.934 Y7.425 Z-0.139
N10975 X144.969 Y7.405 Z-0.145
N10980 X145.008 Y7.4 Z-0.151
N10985 X145.046 Y7.411 Z-0.158
N10990 X145.077 Y7.436 Z-0.164
N10995 X145.096 Y7.471 Z-0.17
N11000 X145.099 Y7.511 Z-0.177
N11005 X145.087 Y7.548 Z-0.183
N11010 X145.062 Y7.579 Z-0.189
N11015 X145.026 Y7.596 Z-0.196
N11020 X144.987 Y7.599 Z-0.202
N11025 X144.949 Y7.586 Z-0.208
N11030 X144.92 Y7.56 Z-0.215
N11035 X144.903 Y7.524 Z-0.221
N11040 X144.901 Y7.484 Z-0.228
N11045 X144.915 Y7.447 Z-0.234
N11050 X144.943 Y7.418 Z-0.24
N11055 X144.979 Y7.402 Z-0.247
N11060 X145.019 Z-0.253
N11065 X145.055 Y7.417 Z-0.259
N11070 X145.083 Y7.445 Z-0.266
N11075 X145.098 Y7.481 Z-0.272
N11080 Y7.521 Z-0.278
N11085 X145.082 Y7.557 Z-0.285
N11090 X145.053 Y7.585 Z-0.291
N11095 X145.016 Y7.599 Z-0.297
N11100 X144.976 Y7.597 Z-0.304
N11105 X144.94 Y7.58 Z-0.31
N11110 X144.914 Y7.551 Z-0.317
N11115 X144.901 Y7.513 Z-0.323
N11120 X144.904 Y7.474 Z-0.329
N11125 X144.921 Y7.438 Z-0.336
N11130 X144.952 Y7.413 Z-0.342
N11135 X144.989 Y7.401 Z-0.348
N11140 X145.029 Y7.404 Z-0.355
N11145 X145.064 Y7.423 Z-0.361
N11150 X145.089 Y7.454 Z-0.367
N11155 X145.1 Y7.492 Z-0.374
N11160 X145.095 Y7.531 Z-0.38
N11165 X145.075 Y7.566 Z-0.386
N11170 X145.044 Y7.59 Z-0.393
N11175 X145.005 Y7.6 Z-0.399
N11180 X144.966 Y7.594 Z-0.406
N11185 X144.932 Y7.573 Z-0.412
N11190 X144.909 Y7.541 Z-0.418
N11195 X144.9 Y7.503 Z-0.425
N11200 X144.907 Y7.464 Z-0.431
N11205 X144.928 Y7.43 Z-0.437
N11210 X144.961 Y7.408 Z-0.444
N11215 X145 Y7.4 Z-0.45
N11220 X145.039 Y7.408 Z-0.456
N11225 X145.072 Y7.43 Z-0.463
N11230 X145.093 Y7.464 Z-0.469
N11235 X145.1 Y7.503 Z-0.475
N11240 X145.091 Y7.541 Z-0.482
N11245 X145.068 Y7.573 Z-0.488
N11250 X145.034 Y7.594 Z-0.494
N11255 X144.995 Y7.6 Z-0.501
N11260 X144.956 Y7.59 Z-0.507
N11265 X144.925 Y7.566 Z-0.514
N11270 X144.905 Y7.531 Z-0.52
N11275 X144.9 Y7.492 Z-0.526
N11280 X144.911 Y7.454 Z-0.533
N11285 X144.936 Y7.423 Z-0.539
N11290 X144.971 Y7.404 Z-0.545
N11295 X145.011 Y7.401 Z-0.552
N11300 X145.048 Y7.413 Z-0.558
N11305 X145.079 Y7.438 Z-0.564
N11310 X145.096 Y7.474 Z-0.571
N11315 X145.099 Y7.513 Z-0.577
N11320 X145.086 Y7.551 Z-0.583
N11325 X145.06 Y7.58 Z-0.59
N11330 X145.024 Y7.597 Z-0.596
N11335 X144.984 Y7.599 Z-0.603
N11340 X144.947 Y7.585 Z-0.609
N11345 X144.918 Y7.557 Z-0.615
N11350 X144.902 Y7.521 Z-0.622
N11355 Y7.481 Z-0.628
N11360 X144.917 Y7.445 Z-0.634
N11365 X144.945 Y7.417 Z-0.641
N11370 X144.981 Y7.402 Z-0.647
N11375 X145.021 Z-0.653
N11380 X145.057 Y7.418 Z-0.66
N11385 X145.085 Y7.447 Z-0.666
N11390 X145.099 Y7.484 Z-0.672
N11395 X145.097 Y7.524 Z-0.679
N11400 X145.08 Y7.56 Z-0.685
N11405 X145.051 Y7.586 Z-0.692
N11410 X145.013 Y7.599 Z-0.698
N11415 X144.974 Y7.596 Z-0.704
N11420 X144.938 Y7.579 Z-0.711
N11425 X144.913 Y7.548 Z-0.717
N11430 X144.901 Y7.511 Z-0.723
N11435 X144.904 Y7.471 Z-0.73
N11440 X144.923 Y7.436 Z-0.736
N11445 X144.954 Y7.411 Z-0.742
N11450 X144.992 Y7.4 Z-0.749
N11455 X145.031 Y7.405 Z-0.755
N11460 X145.066 Y7.425 Z-0.761
N11465 X145.09 Y7.456 Z-0.768
N11470 X145.1 Y7.495 Z-0.774
N11475 X145.094 Y7.534 Z-0.781
N11480 X145.073 Y7.568 Z-0.787
N11485 X145.041 Y7.591 Z-0.793
N11490 X145.003 Y7.6 Z-0.8
N11495 X144.964 Y7.593 Z-0.806
N11500 X144.93 Y7.572 Z-0.812
N11505 X144.908 Y7.539 Z-0.819
N11510 X144.9 Y7.5 Z-0.825
N11515 X144.908 Y7.461 Z-0.831
N11520 X144.93 Y7.428 Z-0.838
N11525 X144.964 Y7.407 Z-0.844
N11530 X145.003 Y7.4 Z-0.85
N11535 X145.041 Y7.409 Z-0.857
N11540 X145.073 Y7.432 Z-0.863
N11545 X145.094 Y7.466 Z-0.869
N11550 X145.1 Y7.505 Z-0.876
N11555 X145.09 Y7.544 Z-0.882
N11560 X145.066 Y7.575 Z-0.889
N11565 X145.031 Y7.595 Z-0.895
N11570 X144.992 Y7.6 Z-0.901
N11575 X144.954 Y7.589 Z-0.908
N11580 X144.923 Y7.564 Z-0.914
N11585 X144.904 Y7.529 Z-0.92
N11590 X144.901 Y7.489 Z-0.927
N11595 X144.913 Y7.452 Z-0.933
N11600 X144.938 Y7.421 Z-0.939
N11605 X144.974 Y7.404 Z-0.946
N11610 X145.013 Y7.401 Z-0.952
N11615 X145.051 Y7.414 Z-0.958
N11620 X145.08 Y7.44 Z-0.965
N11625 X145.097 Y7.476 Z-0.971
N11630 X145.099 Y7.516 Z-0.978
N11635 X145.085 Y7.553 Z-0.984
N11640 X145.057 Y7.582 Z-0.99
N11645 X145.021 Y7.598 Z-0.997
N11650 X144.981 Z-1.003
N11655 X144.945 Y7.583 Z-1.009
N11660 X144.917 Y7.555 Z-1.016
N11665 X144.902 Y7.519 Z-1.022
N11670 Y7.479 Z-1.028
N11675 X144.918 Y7.443 Z-1.035
N11680 X144.947 Y7.415 Z-1.041
N11685 X144.984 Y7.401 Z-1.047
N11690 X145.024 Y7.403 Z-1.054
N11695 X145.06 Y7.42 Z-1.06
N11700 X145.086 Y7.449 Z-1.067
N11705 X145.099 Y7.487 Z-1.073
N11710 X145.096 Y7.526 Z-1.079
N11715 X145.079 Y7.562 Z-1.086
N11720 X145.048 Y7.587 Z-1.092
N11725 X145.011 Y7.599 Z-1.098
N11730 X144.971 Y7.596 Z-1.105
N11735 X144.936 Y7.577 Z-1.111
N11740 X144.911 Y7.546 Z-1.117
N11745 X144.9 Y7.508 Z-1.124
N11750 X144.905 Y7.469 Z-1.13
N11755 X144.925 Y7.434 Z-1.136
N11760 X144.956 Y7.41 Z-1.143
N11765 X144.995 Y7.4 Z-1.149
N11770 X145.034 Y7.406 Z-1.156
N11775 X145.068 Y7.427 Z-1.162
N11780 X145.091 Y7.459 Z-1.168
N11785 X145.1 Y7.497 Z-1.175
N11790 X145.093 Y7.536 Z-1.181
N11795 X145.072 Y7.57 Z-1.187
N11800 X145.039 Y7.592 Z-1.194
N11805 X145 Y7.6 Z-1.2
N11810 G3 Y7.4 J-0.1
N11815 Y7.6 J0.1
N11820 G1 X144.975 Y7.593
N11825 X144.957 Y7.575
N11830 X144.95 Y7.55
N11835 X145 Y7.5
N11840 G0 Z2.3
N11845 X175
N11850 Z2
N11855 G1 Z0.3 F50
N11860 X175.05 Y7.55
N11865 X175.043 Y7.575
N11870 X175.025 Y7.593
N11875 X175 Y7.6
N11880 X174.961 Y7.592 Z0.294 F800
N11885 X174.928 Y7.57 Z0.287
N11890 X174.907 Y7.536 Z0.281
N11895 X174.9 Y7.497 Z0.275
N11900 X174.909 Y7.459 Z0.268
N11905 X174.932 Y7.427 Z0.262
N11910 X174.966 Y7.406 Z0.256
N11915 X175.005 Y7.4 Z0.249
N11920 X175.044 Y7.41 Z0.243
N11925 X175.075 Y7.434 Z0.236
N11930 X175.095 Y7.469 Z0.23
N11935 X175.1 Y7.508 Z0.224
N11940 X175.089 Y7.546 Z0.217
N11945 X175.064 Y7.577 Z0.211
N11950 X175.029 Y7.596 Z0.205
N11955 X174.989 Y7.599 Z0.198
N11960 X174.952 Y7.587 Z0.192
N11965 X174.921 Y7.562 Z0.186
N11970 X174.904 Y7.526 Z0.179
N11975 X174.901 Y7.487 Z0.173
N11980 X174.914 Y7.449 Z0.167
N11985 X174.94 Y7.42 Z0.16
N11990 X174.976 Y7.403 Z0.154
N11995 X175.016 Y7.401 Z0.147
N12000 X175.053 Y7.415 Z0.141
N12005 X175.082 Y7.443 Z0.135
N12010 X175.098 Y7.479 Z0.128
N12015 Y7.519 Z0.122
N12020 X175.083 Y7.555 Z0.116
N12025 X175.055 Y7.583 Z0.109
N12030 X175.019 Y7.598 Z0.103
N12035 X174.979 Z0.097
N12040 X174.943 Y7.582 Z0.09
N12045 X174.915 Y7.553 Z0.084
N12050 X174.901 Y7.516 Z0.078
N12055 X174.903 Y7.476 Z0.071
N12060 X174.92 Y7.44 Z0.065
N12065 X174.949 Y7.414 Z0.058
N12070 X174.987 Y7.401 Z0.052
N12075 X175.026 Y7.404 Z0.046
N12080 X175.062 Y7.421 Z0.039
N12085 X175.087 Y7.452 Z0.033
N12090 X175.099 Y7.489 Z0.027
N12095 X175.096 Y7.529 Z0.02
N12100 X175.077 Y7.564 Z0.014
N12105 X175.046 Y7.589 Z0.008
N12110 X175.008 Y7.6 Z0.001
N12115 X174.969 Y7.595 Z-0.005
N12120 X174.934 Y7.575 Z-0.011
N12125 X174.91 Y7.544 Z-0.018
N12130 X174.9 Y7.505 Z-0.024
N12135 X174.906 Y7.466 Z-0.031
N12140 X174.927 Y7.432 Z-0.037
N12145 X174.959 Y7.409 Z-0.043
N12150 X174.997 Y7.4 Z-0.05
N12155 X175.036 Y7.407 Z-0.056
N12160 X175.07 Y7.428 Z-0.062
N12165 X175.092 Y7.461 Z-0.069
N12170 X175.1 Y7.5 Z-0.075
N12175 X175.092 Y7.539 Z-0.081
N12180 X175.07 Y7.572 Z-0.088
N12185 X175.036 Y7.593 Z-0.094
N12190 X174.997 Y7.6 Z-0.1
N12195 X174.959 Y7.591 Z-0.107
N12200 X174.927 Y7.568 Z-0.113
N12205 X174.906 Y7.534 Z-0.119
N12210 X174.9 Y7.495 Z-0.126
N12215 X174.91 Y7.456 Z-0.132
N12220 X174.934 Y7.425 Z-0.139
N12225 X174.969 Y7.405 Z-0.145
N12230 X175.008 Y7.4 Z-0.151
N12235 X175.046 Y7.411 Z-0.158
N12240 X175.077 Y7.436 Z-0.164
N12245 X175.096 Y7.471 Z-0.17
N12250 X175.099 Y7.511 Z-0.177
N12255 X175.087 Y7.548 Z-0.183
N12260 X175.062 Y7.579 Z-0.189
N12265 X175.026 Y7.596 Z-0.196
N12270 X174.987 Y7.599 Z-0.202
N12275 X174.949 Y7.586 Z-0.208
N12280 X174.92 Y7.56 Z-0.215
N12285 X174.903 Y7.524 Z-0.221
N12290 X174.901 Y7.484 Z-0.228
N12295 X174.915 Y7.447 Z-0.234
N12300 X174.943 Y7.418 Z-0.24
N12305 X174.979 Y7.402 Z-0.247
N12310 X175.019 Z-0.253
N12315 X175.055 Y7.417 Z-0.259
N12320 X175.083 Y7.445 Z-0.266
N12325 X175.098 Y7.481 Z-0.272
N12330 Y7.521 Z-0.278
N12335 X175.082 Y7.557 Z-0.285
N12340 X175.053 Y7.585 Z-0.291
N12345 X175.016 Y7.599 Z-0.297
N12350 X174.976 Y7.597 Z-0.304
N12355 X174.94 Y7.58 Z-0.31
N12360 X174.914 Y7.551 Z-0.317
N12365 X174.901 Y7.513 Z-0.323
N12370 X174.904 Y7.474 Z-0.329
N12375 X174.921 Y7.438 Z-0.336
N12380 X174.952 Y7.413 Z-0.342
N12385 X174.989 Y7.401 Z-0.348
N12390 X175.029 Y7.404 Z-0.355
N12395 X175.064 Y7.423 Z-0.361
N12400 X175.089 Y7.454 Z-0.367
N12405 X175.1 Y7.492 Z-0.374
N12410 X175.095 Y7.531 Z-0.38
N12415 X175.075 Y7.566 Z-0.386
N12420 X175.044 Y7.59 Z-0.393
N12425 X175.005 Y7.6 Z-0.399
N12430 X174.966 Y7.594 Z-0.406
N12435 X174.932 Y7.573 Z-0.412
N12440 X174.909 Y7.541 Z-0.418
N12445 X174.9 Y7.503 Z-0.425
N12450 X174.907 Y7.464 Z-0.431
N12455 X174.928 Y7.43 Z-0.437
N12460 X174.961 Y7.408 Z-0.444
N12465 X175 Y7.4 Z-0.45
N12470 X175.039 Y7.408 Z-0.456
N12475 X175.072 Y7.43 Z-0.463
N12480 X175.093 Y7.464 Z-0.469
N12485 X175.1 Y7.503 Z-0.475
N12490 X175.091 Y7.541 Z-0.482
N12495 X175.068 Y7.573 Z-0.488
N12500 X175.034 Y7.594 Z-0.494
N12505 X174.995 Y7.6 Z-0.501
N12510 X174.956 Y7.59 Z-0.507
N12515 X174.925 Y7.566 Z-0.514
N12520 X174.905 Y7.531 Z-0.52
N12525 X174.9 Y7.492 Z-0.526
N12530 X174.911 Y7.454 Z-0.533
N12535 X174.936 Y7.423 Z-0.539
N12540 X174.971 Y7.404 Z-0.545
N12545 X175.011 Y7.401 Z-0.552
N12550 X175.048 Y7.413 Z-0.558
N12555 X175.079 Y7.438 Z-0.564
N12560 X175.096 Y7.474 Z-0.571
N12565 X175.099 Y7.513 Z-0.577
N12570 X175.086 Y7.551 Z-0.583
N12575 X175.06 Y7.58 Z-0.59
N12580 X175.024 Y7.597 Z-0.596
N12585 X174.984 Y7.599 Z-0.603
N12590 X174.947 Y7.585 Z-0.609
N12595 X174.918 Y7.557 Z-0.615
N12600 X174.902 Y7.521 Z-0.622
N12605 Y7.481 Z-0.628
N12610 X174.917 Y7.445 Z-0.634
N12615 X174.945 Y7.417 Z-0.641
N12620 X174.981 Y7.402 Z-0.647
N12625 X175.021 Z-0.653
N12630 X175.057 Y7.418 Z-0.66
N12635 X175.085 Y7.447 Z-0.666
N12640 X175.099 Y7.484 Z-0.672
N12645 X175.097 Y7.524 Z-0.679
N12650 X175.08 Y7.56 Z-0.685
N12655 X175.051 Y7.586 Z-0.692
N12660 X175.013 Y7.599 Z-0.698
N12665 X174.974 Y7.596 Z-0.704
N12670 X174.938 Y7.579 Z-0.711
N12675 X174.913 Y7.548 Z-0.717
N12680 X174.901 Y7.511 Z-0.723
N12685 X174.904 Y7.471 Z-0.73
N12690 X174.923 Y7.436 Z-0.736
N12695 X174.954 Y7.411 Z-0.742
N12700 X174.992 Y7.4 Z-0.749
N12705 X175.031 Y7.405 Z-0.755
N12710 X175.066 Y7.425 Z-0.761
N12715 X175.09 Y7.456 Z-0.768
N12720 X175.1 Y7.495 Z-0.774
N12725 X175.094 Y7.534 Z-0.781
N12730 X175.073 Y7.568 Z-0.787
N12735 X175.041 Y7.591 Z-0.793
N12740 X175.003 Y7.6 Z-0.8
N12745 X174.964 Y7.593 Z-0.806
N12750 X174.93 Y7.572 Z-0.812
N12755 X174.908 Y7.539 Z-0.819
N12760 X174.9 Y7.5 Z-0.825
N12765 X174.908 Y7.461 Z-0.831
N12770 X174.93 Y7.428 Z-0.838
N12775 X174.964 Y7.407 Z-0.844
N12780 X175.003 Y7.4 Z-0.85
N12785 X175.041 Y7.409 Z-0.857
N12790 X175.073 Y7.432 Z-0.863
N12795 X175.094 Y7.466 Z-0.869
N12800 X175.1 Y7.505 Z-0.876
N12805 X175.09 Y7.544 Z-0.882
N12810 X175.066 Y7.575 Z-0.889
N12815 X175.031 Y7.595 Z-0.895
N12820 X174.992 Y7.6 Z-0.901
N12825 X174.954 Y7.589 Z-0.908
N12830 X174.923 Y7.564 Z-0.914
N12835 X174.904 Y7.529 Z-0.92
N12840 X174.901 Y7.489 Z-0.927
N12845 X174.913 Y7.452 Z-0.933
N12850 X174.938 Y7.421 Z-0.939
N12855 X174.974 Y7.404 Z-0.946
N12860 X175.013 Y7.401 Z-0.952
N12865 X175.051 Y7.414 Z-0.958
N12870 X175.08 Y7.44 Z-0.965
N12875 X175.097 Y7.476 Z-0.971
N12880 X175.099 Y7.516 Z-0.978
N12885 X175.085 Y7.553 Z-0.984
N12890 X175.057 Y7.582 Z-0.99
N12895 X175.021 Y7.598 Z-0.997
N12900 X174.981 Z-1.003
N12905 X174.945 Y7.583 Z-1.009
N12910 X174.917 Y7.555 Z-1.016
N12915 X174.902 Y7.519 Z-1.022
N12920 Y7.479 Z-1.028
N12925 X174.918 Y7.443 Z-1.035
N12930 X174.947 Y7.415 Z-1.041
N12935 X174.984 Y7.401 Z-1.047
N12940 X175.024 Y7.403 Z-1.054
N12945 X175.06 Y7.42 Z-1.06
N12950 X175.086 Y7.449 Z-1.067
N12955 X175.099 Y7.487 Z-1.073
N12960 X175.096 Y7.526 Z-1.079
N12965 X175.079 Y7.562 Z-1.086
N12970 X175.048 Y7.587 Z-1.092
N12975 X175.011 Y7.599 Z-1.098
N12980 X174.971 Y7.596 Z-1.105
N12985 X174.936 Y7.577 Z-1.111
N12990 X174.911 Y7.546 Z-1.117
N12995 X174.9 Y7.508 Z-1.124
N13000 X174.905 Y7.469 Z-1.13
N13005 X174.925 Y7.434 Z-1.136
N13010 X174.956 Y7.41 Z-1.143
N13015 X174.995 Y7.4 Z-1.149
N13020 X175.034 Y7.406 Z-1.156
N13025 X175.068 Y7.427 Z-1.162
N13030 X175.091 Y7.459 Z-1.168
N13035 X175.1 Y7.497 Z-1.175
N13040 X175.093 Y7.536 Z-1.181
N13045 X175.072 Y7.57 Z-1.187
N13050 X175.039 Y7.592 Z-1.194
N13055 X175 Y7.6 Z-1.2
N13060 G3 Y7.4 J-0.1
N13065 Y7.6 J0.1
N13070 G1 X174.975 Y7.593
N13075 X174.957 Y7.575
N13080 X174.95 Y7.55
N13085 X175 Y7.5
N13090 G0 Z2.3
N13095 X205
N13100 Z2
N13105 G1 Z0.3 F50
N13110 X205.05 Y7.55
N13115 X205.043 Y7.575
N13120 X205.025 Y7.593
N13125 X205 Y7.6
N13130 X204.961 Y7.592 Z0.294 F800
N13135 X204.928 Y7.57 Z0.287
N13140 X204.907 Y7.536 Z0.281
N13145 X204.9 Y7.497 Z0.275
N13150 X204.909 Y7.459 Z0.268
N13155 X204.932 Y7.427 Z0.262
N13160 X204.966 Y7.406 Z0.256
N13165 X205.005 Y7.4 Z0.249
N13170 X205.044 Y7.41 Z0.243
N13175 X205.075 Y7.434 Z0.236
N13180 X205.095 Y7.469 Z0.23
N13185 X205.1 Y7.508 Z0.224
N13190 X205.089 Y7.546 Z0.217
N13195 X205.064 Y7.577 Z0.211
N13200 X205.029 Y7.596 Z0.205
N13205 X204.989 Y7.599 Z0.198
N13210 X204.952 Y7.587 Z0.192
N13215 X204.921 Y7.562 Z0.186
N13220 X204.904 Y7.526 Z0.179
N13225 X204.901 Y7.487 Z0.173
N13230 X204.914 Y7.449 Z0.167
N13235 X204.94 Y7.42 Z0.16
N13240 X204.976 Y7.403 Z0.154
N13245 X205.016 Y7.401 Z0.147
N13250 X205.053 Y7.415 Z0.141
N13255 X205.082 Y7.443 Z0.135
N13260 X205.098 Y7.479 Z0.128
N13265 Y7.519 Z0.122
N13270 X205.083 Y7.555 Z0.116
N13275 X205.055 Y7.583 Z0.109
N13280 X205.019 Y7.598 Z0.103
N13285 X204.979 Z0.097
N13290 X204.943 Y7.582 Z0.09
N13295 X204.915 Y7.553 Z0.084
N13300 X204.901 Y7.516 Z0.078
N13305 X204.903 Y7.476 Z0.071
N13310 X204.92 Y7.44 Z0.065
N13315 X204.949 Y7.414 Z0.058
N13320 X204.987 Y7.401 Z0.052
N13325 X205.026 Y7.404 Z0.046
N13330 X205.062 Y7.421 Z0.039
N13335 X205.087 Y7.452 Z0.033
N13340 X205.099 Y7.489 Z0.027
N13345 X205.096 Y7.529 Z0.02
N13350 X205.077 Y7.564 Z0.014
N13355 X205.046 Y7.589 Z0.008
N13360 X205.008 Y7.6 Z0.001
N13365 X204.969 Y7.595 Z-0.005
N13370 X204.934 Y7.575 Z-0.011
N13375 X204.91 Y7.544 Z-0.018
N13380 X204.9 Y7.505 Z-0.024
N13385 X204.906 Y7.466 Z-0.031
N13390 X204.927 Y7.432 Z-0.037
N13395 X204.959 Y7.409 Z-0.043
N13400 X204.997 Y7.4 Z-0.05
N13405 X205.036 Y7.407 Z-0.056
N13410 X205.07 Y7.428 Z-0.062
N13415 X205.092 Y7.461 Z-0.069
N13420 X205.1 Y7.5 Z-0.075
N13425 X205.092 Y7.539 Z-0.081
N13430 X205.07 Y7.572 Z-0.088
N13435 X205.036 Y7.593 Z-0.094
N13440 X204.997 Y7.6 Z-0.1
N13445 X204.959 Y7.591 Z-0.107
N13450 X204.927 Y7.568 Z-0.113
N13455 X204.906 Y7.534 Z-0.119
N13460 X204.9 Y7.495 Z-0.126
N13465 X204.91 Y7.456 Z-0.132
N13470 X204.934 Y7.425 Z-0.139
N13475 X204.969 Y7.405 Z-0.145
N13480 X205.008 Y7.4 Z-0.151
N13485 X205.046 Y7.411 Z-0.158
N13490 X205.077 Y7.436 Z-0.164
N13495 X205.096 Y7.471 Z-0.17
N13500 X205.099 Y7.511 Z-0.177
N13505 X205.087 Y7.548 Z-0.183
N13510 X205.062 Y7.579 Z-0.189
N13515 X205.026 Y7.596 Z-0.196
N13520 X204.987 Y7.599 Z-0.202
N13525 X204.949 Y7.586 Z-0.208
N13530 X204.92 Y7.56 Z-0.215
N13535 X204.903 Y7.524 Z-0.221
N13540 X204.901 Y7.484 Z-0.228
N13545 X204.915 Y7.447 Z-0.234
N13550 X204.943 Y7.418 Z-0.24
N13555 X204.979 Y7.402 Z-0.247
N13560 X205.019 Z-0.253
N13565 X205.055 Y7.417 Z-0.259
N13570 X205.083 Y7.445 Z-0.266
N13575 X205.098 Y7.481 Z-0.272
N13580 Y7.521 Z-0.278
N13585 X205.082 Y7.557 Z-0.285
N13590 X205.053 Y7.585 Z-0.291
N13595 X205.016 Y7.599 Z-0.297
N13600 X204.976 Y7.597 Z-0.304
N13605 X204.94 Y7.58 Z-0.31
N13610 X204.914 Y7.551 Z-0.317
N13615 X204.901 Y7.513 Z-0.323
N13620 X204.904 Y7.474 Z-0.329
N13625 X204.921 Y7.438 Z-0.336
N13630 X204.952 Y7.413 Z-0.342
N13635 X204.989 Y7.401 Z-0.348
N13640 X205.029 Y7.404 Z-0.355
N13645 X205.064 Y7.423 Z-0.361
N13650 X205.089 Y7.454 Z-0.367
N13655 X205.1 Y7.492 Z-0.374
N13660 X205.095 Y7.531 Z-0.38
N13665 X205.075 Y7.566 Z-0.386
N13670 X205.044 Y7.59 Z-0.393
N13675 X205.005 Y7.6 Z-0.399
N13680 X204.966 Y7.594 Z-0.406
N13685 X204.932 Y7.573 Z-0.412
N13690 X204.909 Y7.541 Z-0.418
N13695 X204.9 Y7.503 Z-0.425
N13700 X204.907 Y7.464 Z-0.431
N13705 X204.928 Y7.43 Z-0.437
N13710 X204.961 Y7.408 Z-0.444
N13715 X205 Y7.4 Z-0.45
N13720 X205.039 Y7.408 Z-0.456
N13725 X205.072 Y7.43 Z-0.463
N13730 X205.093 Y7.464 Z-0.469
N13735 X205.1 Y7.503 Z-0.475
N13740 X205.091 Y7.541 Z-0.482
N13745 X205.068 Y7.573 Z-0.488
N13750 X205.034 Y7.594 Z-0.494
N13755 X204.995 Y7.6 Z-0.501
N13760 X204.956 Y7.59 Z-0.507
N13765 X204.925 Y7.566 Z-0.514
N13770 X204.905 Y7.531 Z-0.52
N13775 X204.9 Y7.492 Z-0.526
N13780 X204.911 Y7.454 Z-0.533
N13785 X204.936 Y7.423 Z-0.539
N13790 X204.971 Y7.404 Z-0.545
N13795 X205.011 Y7.401 Z-0.552
N13800 X205.048 Y7.413 Z-0.558
N13805 X205.079 Y7.438 Z-0.564
N13810 X205.096 Y7.474 Z-0.571
N13815 X205.099 Y7.513 Z-0.577
N13820 X205.086 Y7.551 Z-0.583
N13825 X205.06 Y7.58 Z-0.59
N13830 X205.024 Y7.597 Z-0.596
N13835 X204.984 Y7.599 Z-0.603
N13840 X204.947 Y7.585 Z-0.609
N13845 X204.918 Y7.557 Z-0.615
N13850 X204.902 Y7.521 Z-0.622
N13855 Y7.481 Z-0.628
N13860 X204.917 Y7.445 Z-0.634
N13865 X204.945 Y7.417 Z-0.641
N13870 X204.981 Y7.402 Z-0.647
N13875 X205.021 Z-0.653
N13880 X205.057 Y7.418 Z-0.66
N13885 X205.085 Y7.447 Z-0.666
N13890 X205.099 Y7.484 Z-0.672
N13895 X205.097 Y7.524 Z-0.679
N13900 X205.08 Y7.56 Z-0.685
N13905 X205.051 Y7.586 Z-0.692
N13910 X205.013 Y7.599 Z-0.698
N13915 X204.974 Y7.596 Z-0.704
N13920 X204.938 Y7.579 Z-0.711
N13925 X204.913 Y7.548 Z-0.717
N13930 X204.901 Y7.511 Z-0.723
N13935 X204.904 Y7.471 Z-0.73
N13940 X204.923 Y7.436 Z-0.736
N13945 X204.954 Y7.411 Z-0.742
N13950 X204.992 Y7.4 Z-0.749
N13955 X205.031 Y7.405 Z-0.755
N13960 X205.066 Y7.425 Z-0.761
N13965 X205.09 Y7.456 Z-0.768
N13970 X205.1 Y7.495 Z-0.774
N13975 X205.094 Y7.534 Z-0.781
N13980 X205.073 Y7.568 Z-0.787
N13985 X205.041 Y7.591 Z-0.793
N13990 X205.003 Y7.6 Z-0.8
N13995 X204.964 Y7.593 Z-0.806
N14000 X204.93 Y7.572 Z-0.812
N14005 X204.908 Y7.539 Z-0.819
N14010 X204.9 Y7.5 Z-0.825
N14015 X204.908 Y7.461 Z-0.831
N14020 X204.93 Y7.428 Z-0.838
N14025 X204.964 Y7.407 Z-0.844
N14030 X205.003 Y7.4 Z-0.85
N14035 X205.041 Y7.409 Z-0.857
N14040 X205.073 Y7.432 Z-0.863
N14045 X205.094 Y7.466 Z-0.869
N14050 X205.1 Y7.505 Z-0.876
N14055 X205.09 Y7.544 Z-0.882
N14060 X205.066 Y7.575 Z-0.889
N14065 X205.031 Y7.595 Z-0.895
N14070 X204.992 Y7.6 Z-0.901
N14075 X204.954 Y7.589 Z-0.908
N14080 X204.923 Y7.564 Z-0.914
N14085 X204.904 Y7.529 Z-0.92
N14090 X204.901 Y7.489 Z-0.927
N14095 X204.913 Y7.452 Z-0.933
N14100 X204.938 Y7.421 Z-0.939
N14105 X204.974 Y7.404 Z-0.946
N14110 X205.013 Y7.401 Z-0.952
N14115 X205.051 Y7.414 Z-0.958
N14120 X205.08 Y7.44 Z-0.965
N14125 X205.097 Y7.476 Z-0.971
N14130 X205.099 Y7.516 Z-0.978
N14135 X205.085 Y7.553 Z-0.984
N14140 X205.057 Y7.582 Z-0.99
N14145 X205.021 Y7.598 Z-0.997
N14150 X204.981 Z-1.003
N14155 X204.945 Y7.583 Z-1.009
N14160 X204.917 Y7.555 Z-1.016
N14165 X204.902 Y7.519 Z-1.022
N14170 Y7.479 Z-1.028
N14175 X204.918 Y7.443 Z-1.035
N14180 X204.947 Y7.415 Z-1.041
N14185 X204.984 Y7.401 Z-1.047
N14190 X205.024 Y7.403 Z-1.054
N14195 X205.06 Y7.42 Z-1.06
N14200 X205.086 Y7.449 Z-1.067
N14205 X205.099 Y7.487 Z-1.073
N14210 X205.096 Y7.526 Z-1.079
N14215 X205.079 Y7.562 Z-1.086
N14220 X205.048 Y7.587 Z-1.092
N14225 X205.011 Y7.599 Z-1.098
N14230 X204.971 Y7.596 Z-1.105
N14235 X204.936 Y7.577 Z-1.111
N14240 X204.911 Y7.546 Z-1.117
N14245 X204.9 Y7.508 Z-1.124
N14250 X204.905 Y7.469 Z-1.13
N14255 X204.925 Y7.434 Z-1.136
N14260 X204.956 Y7.41 Z-1.143
N14265 X204.995 Y7.4 Z-1.149
N14270 X205.034 Y7.406 Z-1.156
N14275 X205.068 Y7.427 Z-1.162
N14280 X205.091 Y7.459 Z-1.168
N14285 X205.1 Y7.497 Z-1.175
N14290 X205.093 Y7.536 Z-1.181
N14295 X205.072 Y7.57 Z-1.187
N14300 X205.039 Y7.592 Z-1.194
N14305 X205 Y7.6 Z-1.2
N14310 G3 Y7.4 J-0.1
N14315 Y7.6 J0.1
N14320 G1 X204.975 Y7.593
N14325 X204.957 Y7.575
N14330 X204.95 Y7.55
N14335 X205 Y7.5
N14340 G0 Z2.3
N14345 X225
N14350 Z2
N14355 G1 Z0.3 F50
N14360 X224.95 Y7.45
N14365 X224.957 Y7.425
N14370 X224.975 Y7.407
N14375 X225 Y7.4
N14380 X225.039 Y7.408 Z0.294 F800
N14385 X225.072 Y7.43 Z0.287
N14390 X225.093 Y7.464 Z0.281
N14395 X225.1 Y7.503 Z0.275
N14400 X225.091 Y7.541 Z0.268
N14405 X225.068 Y7.573 Z0.262
N14410 X225.034 Y7.594 Z0.256
N14415 X224.995 Y7.6 Z0.249
N14420 X224.956 Y7.59 Z0.243
N14425 X224.925 Y7.566 Z0.236
N14430 X224.905 Y7.531 Z0.23
N14435 X224.9 Y7.492 Z0.224
N14440 X224.911 Y7.454 Z0.217
N14445 X224.936 Y7.423 Z0.211
N14450 X224.971 Y7.404 Z0.205
N14455 X225.011 Y7.401 Z0.198
N14460 X225.048 Y7.413 Z0.192
N14465 X225.079 Y7.438 Z0.186
N14470 X225.096 Y7.474 Z0.179
N14475 X225.099 Y7.513 Z0.173
N14480 X225.086 Y7.551 Z0.167
N14485 X225.06 Y7.58 Z0.16
N14490 X225.024 Y7.597 Z0.154
N14495 X224.984 Y7.599 Z0.147
N14500 X224.947 Y7.585 Z0.141
N14505 X224.918 Y7.557 Z0.135
N14510 X224.902 Y7.521 Z0.128
N14515 Y7.481 Z0.122
N14520 X224.917 Y7.445 Z0.116
N14525 X224.945 Y7.417 Z0.109
N14530 X224.981 Y7.402 Z0.103
N14535 X225.021 Z0.097
N14540 X225.057 Y7.418 Z0.09
N14545 X225.085 Y7.447 Z0.084
N14550 X225.099 Y7.484 Z0.078
N14555 X225.097 Y7.524 Z0.071
N14560 X225.08 Y7.56 Z0.065
N14565 X225.051 Y7.586 Z0.058
N14570 X225.013 Y7.599 Z0.052
N14575 X224.974 Y7.596 Z0.046
N14580 X224.938 Y7.579 Z0.039
N14585 X224.913 Y7.548 Z0.033
N14590 X224.901 Y7.511 Z0.027
N14595 X224.904 Y7.471 Z0.02
N14600 X224.923 Y7.436 Z0.014
N14605 X224.954 Y7.411 Z0.008
N14610 X224.992 Y7.4 Z0.001
N14615 X225.031 Y7.405 Z-0.005
N14620 X225.066 Y7.425 Z-0.011
N14625 X225.09 Y7.456 Z-0.018
N14630 X225.1 Y7.495 Z-0.024
N14635 X225.094 Y7.534 Z-0.031
N14640 X225.073 Y7.568 Z-0.037
N14645 X225.041 Y7.591 Z-0.043
N14650 X225.003 Y7.6 Z-0.05
N14655 X224.964 Y7.593 Z-0.056
N14660 X224.93 Y7.572 Z-0.062
N14665 X224.908 Y7.539 Z-0.069
N14670 X224.9 Y7.5 Z-0.075
N14675 X224.908 Y7.461 Z-0.081
N14680 X224.93 Y7.428 Z-0.088
N14685 X224.964 Y7.407 Z-0.094
N14690 X225.003 Y7.4 Z-0.1
N14695 X225.041 Y7.409 Z-0.107
N14700 X225.073 Y7.432 Z-0.113
N14705 X225.094 Y7.466 Z-0.119
N14710 X225.1 Y7.505 Z-0.126
N14715 X225.09 Y7.544 Z-0.132
N14720 X225.066 Y7.575 Z-0.139
N14725 X225.031 Y7.595 Z-0.145
N14730 X224.992 Y7.6 Z-0.151
N14735 X224.954 Y7.589 Z-0.158
N14740 X224.923 Y7.564 Z-0.164
N14745 X224.904 Y7.529 Z-0.17
N14750 X224.901 Y7.489 Z-0.177
N14755 X224.913 Y7.452 Z-0.183
N14760 X224.938 Y7.421 Z-0.189
N14765 X224.974 Y7.404 Z-0.196
N14770 X225.013 Y7.401 Z-0.202
N14775 X225.051 Y7.414 Z-0.208
N14780 X225.08 Y7.44 Z-0.215
N14785 X225.097 Y7.476 Z-0.221
N14790 X225.099 Y7.516 Z-0.228
N14795 X225.085 Y7.553 Z-0.234
N14800 X225.057 Y7.582 Z-0.24
N14805 X225.021 Y7.598 Z-0.247
N14810 X224.981 Z-0.253
N14815 X224.945 Y7.583 Z-0.259
N14820 X224.917 Y7.555 Z-0.266
N14825 X224.902 Y7.519 Z-0.272
N14830 Y7.479 Z-0.278
N14835 X224.918 Y7.443 Z-0.285
N14840 X224.947 Y7.415 Z-0.291
N14845 X224.984 Y7.401 Z-0.297
N14850 X225.024 Y7.403 Z-0.304
N14855 X225.06 Y7.42 Z-0.31
N14860 X225.086 Y7.449 Z-0.317
N14865 X225.099 Y7.487 Z-0.323
N14870 X225.096 Y7.526 Z-0.329
N14875 X225.079 Y7.562 Z-0.336
N14880 X225.048 Y7.587 Z-0.342
N14885 X225.011 Y7.599 Z-0.348
N14890 X224.971 Y7.596 Z-0.355
N14895 X224.936 Y7.577 Z-0.361
N14900 X224.911 Y7.546 Z-0.367
N14905 X224.9 Y7.508 Z-0.374
N14910 X224.905 Y7.469 Z-0.38
N14915 X224.925 Y7.434 Z-0.386
N14920 X224.956 Y7.41 Z-0.393
N14925 X224.995 Y7.4 Z-0.399
N14930 X225.034 Y7.406 Z-0.406
N14935 X225.068 Y7.427 Z-0.412
N14940 X225.091 Y7.459 Z-0.418
N14945 X225.1 Y7.497 Z-0.425
N14950 X225.093 Y7.536 Z-0.431
N14955 X225.072 Y7.57 Z-0.437
N14960 X225.039 Y7.592 Z-0.444
N14965 X225 Y7.6 Z-0.45
N14970 X224.961 Y7.592 Z-0.456
N14975 X224.928 Y7.57 Z-0.463
N14980 X224.907 Y7.536 Z-0.469
N14985 X224.9 Y7.497 Z-0.475
N14990 X224.909 Y7.459 Z-0.482
N14995 X224.932 Y7.427 Z-0.488
N15000 X224.966 Y7.406 Z-0.494
N15005 X225.005 Y7.4 Z-0.501
N15010 X225.044 Y7.41 Z-0.507
N15015 X225.075 Y7.434 Z-0.514
N15020 X225.095 Y7.469 Z-0.52
N15025 X225.1 Y7.508 Z-0.526
N15030 X225.089 Y7.546 Z-0.533
N15035 X225.064 Y7.577 Z-0.539
N15040 X225.029 Y7.596 Z-0.545
N15045 X224.989 Y7.599 Z-0.552
N15050 X224.952 Y7.587 Z-0.558
N15055 X224.921 Y7.562 Z-0.564
N15060 X224.904 Y7.526 Z-0.571
N15065 X224.901 Y7.487 Z-0.577
N15070 X224.914 Y7.449 Z-0.583
N15075 X224.94 Y7.42 Z-0.59
N15080 X224.976 Y7.403 Z-0.596
N15085 X225.016 Y7.401 Z-0.603
N15090 X225.053 Y7.415 Z-0.609
N15095 X225.082 Y7.443 Z-0.615
N15100 X225.098 Y7.479 Z-0.622
N15105 Y7.519 Z-0.628
N15110 X225.083 Y7.555 Z-0.634
N15115 X225.055 Y7.583 Z-0.641
N15120 X225.019 Y7.598 Z-0.647
N15125 X224.979 Z-0.653
N15130 X224.943 Y7.582 Z-0.66
N15135 X224.915 Y7.553 Z-0.666
N15140 X224.901 Y7.516 Z-0.672
N15145 X224.903 Y7.476 Z-0.679
N15150 X224.92 Y7.44 Z-0.685
N15155 X224.949 Y7.414 Z-0.692
N15160 X224.987 Y7.401 Z-0.698
N15165 X225.026 Y7.404 Z-0.704
N15170 X225.062 Y7.421 Z-0.711
N15175 X225.087 Y7.452 Z-0.717
N15180 X225.099 Y7.489 Z-0.723
N15185 X225.096 Y7.529 Z-0.73
N15190 X225.077 Y7.564 Z-0.736
N15195 X225.046 Y7.589 Z-0.742
N15200 X225.008 Y7.6 Z-0.749
N15205 X224.969 Y7.595 Z-0.755
N15210 X224.934 Y7.575 Z-0.761
N15215 X224.91 Y7.544 Z-0.768
N15220 X224.9 Y7.505 Z-0.774
N15225 X224.906 Y7.466 Z-0.781
N15230 X224.927 Y7.432 Z-0.787
N15235 X224.959 Y7.409 Z-0.793
N15240 X224.997 Y7.4 Z-0.8
N15245 X225.036 Y7.407 Z-0.806
N15250 X225.07 Y7.428 Z-0.812
N15255 X225.092 Y7.461 Z-0.819
N15260 X225.1 Y7.5 Z-0.825
N15265 X225.092 Y7.539 Z-0.831
N15270 X225.07 Y7.572 Z-0.838
N15275 X225.036 Y7.593 Z-0.844
N15280 X224.997 Y7.6 Z-0.85
N15285 X224.959 Y7.591 Z-0.857
N15290 X224.927 Y7.568 Z-0.863
N15295 X224.906 Y7.534 Z-0.869
N15300 X224.9 Y7.495 Z-0.876
N15305 X224.91 Y7.456 Z-0.882
N15310 X224.934 Y7.425 Z-0.889
N15315 X224.969 Y7.405 Z-0.895
N15320 X225.008 Y7.4 Z-0.901
N15325 X225.046 Y7.411 Z-0.908
N15330 X225.077 Y7.436 Z-0.914
N15335 X225.096 Y7.471 Z-0.92
N15340 X225.099 Y7.511 Z-0.927
N15345 X225.087 Y7.548 Z-0.933
N15350 X225.062 Y7.579 Z-0.939
N15355 X225.026 Y7.596 Z-0.946
N15360 X224.987 Y7.599 Z-0.952
N15365 X224.949 Y7.586 Z-0.958
N15370 X224.92 Y7.56 Z-0.965
N15375 X224.903 Y7.524 Z-0.971
N15380 X224.901 Y7.484 Z-0.978
N15385 X224.915 Y7.447 Z-0.984
N15390 X224.943 Y7.418 Z-0.99
N15395 X224.979 Y7.402 Z-0.997
N15400 X225.019 Z-1.003
N15405 X225.055 Y7.417 Z-1.009
N15410 X225.083 Y7.445 Z-1.016
N15415 X225.098 Y7.481 Z-1.022
N15420 Y7.521 Z-1.028
N15425 X225.082 Y7.557 Z-1.035
N15430 X225.053 Y7.585 Z-1.041
N15435 X225.016 Y7.599 Z-1.047
N15440 X224.976 Y7.597 Z-1.054
N15445 X224.94 Y7.58 Z-1.06
N15450 X224.914 Y7.551 Z-1.067
N15455 X224.901 Y7.513 Z-1.073
N15460 X224.904 Y7.474 Z-1.079
N15465 X224.921 Y7.438 Z-1.086
N15470 X224.952 Y7.413 Z-1.092
N15475 X224.989 Y7.401 Z-1.098
N15480 X225.029 Y7.404 Z-1.105
N15485 X225.064 Y7.423 Z-1.111
N15490 X225.089 Y7.454 Z-1.117
N15495 X225.1 Y7.492 Z-1.124
N15500 X225.095 Y7.531 Z-1.13
N15505 X225.075 Y7.566 Z-1.136
N15510 X225.044 Y7.59 Z-1.143
N15515 X225.005 Y7.6 Z-1.149
N15520 X224.966 Y7.594 Z-1.156
N15525 X224.932 Y7.573 Z-1.162
N15530 X224.909 Y7.541 Z-1.168
N15535 X224.9 Y7.503 Z-1.175
N15540 X224.907 Y7.464 Z-1.181
N15545 X224.928 Y7.43 Z-1.187
N15550 X224.961 Y7.408 Z-1.194
N15555 X225 Y7.4 Z-1.2
N15560 G3 Y7.6 J0.1
N15565 Y7.4 J-0.1
N15570 G1 X225.025 Y7.407
N15575 X225.043 Y7.425
N15580 X225.05 Y7.45
N15585 X225 Y7.5
N15590 G0 Z2.3
N15595 X245
N15600 Z2
N15605 G1 Z0.3 F50
N15610 X244.95 Y7.45
N15615 X244.957 Y7.425
N15620 X244.975 Y7.407
N15625 X245 Y7.4
N15630 X245.039 Y7.408 Z0.294 F800
N15635 X245.072 Y7.43 Z0.287
N15640 X245.093 Y7.464 Z0.281
N15645 X245.1 Y7.503 Z0.275
N15650 X245.091 Y7.541 Z0.268
N15655 X245.068 Y7.573 Z0.262
N15660 X245.034 Y7.594 Z0.256
N15665 X244.995 Y7.6 Z0.249
N15670 X244.956 Y7.59 Z0.243
N15675 X244.925 Y7.566 Z0.236
N15680 X244.905 Y7.531 Z0.23
N15685 X244.9 Y7.492 Z0.224
N15690 X244.911 Y7.454 Z0.217
N15695 X244.936 Y7.423 Z0.211
N15700 X244.971 Y7.404 Z0.205
N15705 X245.011 Y7.401 Z0.198
N15710 X245.048 Y7.413 Z0.192
N15715 X245.079 Y7.438 Z0.186
N15720 X245.096 Y7.474 Z0.179
N15725 X245.099 Y7.513 Z0.173
N15730 X245.086 Y7.551 Z0.167
N15735 X245.06 Y7.58 Z0.16
N15740 X245.024 Y7.597 Z0.154
N15745 X244.984 Y7.599 Z0.147
N15750 X244.947 Y7.585 Z0.141
N15755 X244.918 Y7.557 Z0.135
N15760 X244.902 Y7.521 Z0.128
N15765 Y7.481 Z0.122
N15770 X244.917 Y7.445 Z0.116
N15775 X244.945 Y7.417 Z0.109
N15780 X244.981 Y7.402 Z0.103
N15785 X245.021 Z0.097
N15790 X245.057 Y7.418 Z0.09
N15795 X245.085 Y7.447 Z0.084
N15800 X245.099 Y7.484 Z0.078
N15805 X245.097 Y7.524 Z0.071
N15810 X245.08 Y7.56 Z0.065
N15815 X245.051 Y7.586 Z0.058
N15820 X245.013 Y7.599 Z0.052
N15825 X244.974 Y7.596 Z0.046
N15830 X244.938 Y7.579 Z0.039
N15835 X244.913 Y7.548 Z0.033
N15840 X244.901 Y7.511 Z0.027
N15845 X244.904 Y7.471 Z0.02
N15850 X244.923 Y7.436 Z0.014
N15855 X244.954 Y7.411 Z0.008
N15860 X244.992 Y7.4 Z0.001
N15865 X245.031 Y7.405 Z-0.005
N15870 X245.066 Y7.425 Z-0.011
N15875 X245.09 Y7.456 Z-0.018
N15880 X245.1 Y7.495 Z-0.024
N15885 X245.094 Y7.534 Z-0.031
N15890 X245.073 Y7.568 Z-0.037
N15895 X245.041 Y7.591 Z-0.043
N15900 X245.003 Y7.6 Z-0.05
N15905 X244.964 Y7.593 Z-0.056
N15910 X244.93 Y7.572 Z-0.062
N15915 X244.908 Y7.539 Z-0.069
N15920 X244.9 Y7.5 Z-0.075
N15925 X244.908 Y7.461 Z-0.081
N15930 X244.93 Y7.428 Z-0.088
N15935 X244.964 Y7.407 Z-0.094
N15940 X245.003 Y7.4 Z-0.1
N15945 X245.041 Y7.409 Z-0.107
N15950 X245.073 Y7.432 Z-0.113
N15955 X245.094 Y7.466 Z-0.119
N15960 X245.1 Y7.505 Z-0.126
N15965 X245.09 Y7.544 Z-0.132
N15970 X245.066 Y7.575 Z-0.139
N15975 X245.031 Y7.595 Z-0.145
N15980 X244.992 Y7.6 Z-0.151
N15985 X244.954 Y7.589 Z-0.158
N15990 X244.923 Y7.564 Z-0.164
N15995 X244.904 Y7.529 Z-0.17
N16000 X244.901 Y7.489 Z-0.177
N16005 X244.913 Y7.452 Z-0.183
N16010 X244.938 Y7.421 Z-0.189
N16015 X244.974 Y7.404 Z-0.196
N16020 X245.013 Y7.401 Z-0.202
N16025 X245.051 Y7.414 Z-0.208
N16030 X245.08 Y7.44 Z-0.215
N16035 X245.097 Y7.476 Z-0.221
N16040 X245.099 Y7.516 Z-0.228
N16045 X245.085 Y7.553 Z-0.234
N16050 X245.057 Y7.582 Z-0.24
N16055 X245.021 Y7.598 Z-0.247
N16060 X244.981 Z-0.253
N16065 X244.945 Y7.583 Z-0.259
N16070 X244.917 Y7.555 Z-0.266
N16075 X244.902 Y7.519 Z-0.272
N16080 Y7.479 Z-0.278
N16085 X244.918 Y7.443 Z-0.285
N16090 X244.947 Y7.415 Z-0.291
N16095 X244.984 Y7.401 Z-0.297
N16100 X245.024 Y7.403 Z-0.304
N16105 X245.06 Y7.42 Z-0.31
N16110 X245.086 Y7.449 Z-0.317
N16115 X245.099 Y7.487 Z-0.323
N16120 X245.096 Y7.526 Z-0.329
N16125 X245.079 Y7.562 Z-0.336
N16130 X245.048 Y7.587 Z-0.342
N16135 X245.011 Y7.599 Z-0.348
N16140 X244.971 Y7.596 Z-0.355
N16145 X244.936 Y7.577 Z-0.361
N16150 X244.911 Y7.546 Z-0.367
N16155 X244.9 Y7.508 Z-0.374
N16160 X244.905 Y7.469 Z-0.38
N16165 X244.925 Y7.434 Z-0.386
N16170 X244.956 Y7.41 Z-0.393
N16175 X244.995 Y7.4 Z-0.399
N16180 X245.034 Y7.406 Z-0.406
N16185 X245.068 Y7.427 Z-0.412
N16190 X245.091 Y7.459 Z-0.418
N16195 X245.1 Y7.497 Z-0.425
N16200 X245.093 Y7.536 Z-0.431
N16205 X245.072 Y7.57 Z-0.437
N16210 X245.039 Y7.592 Z-0.444
N16215 X245 Y7.6 Z-0.45
N16220 X244.961 Y7.592 Z-0.456
N16225 X244.928 Y7.57 Z-0.463
N16230 X244.907 Y7.536 Z-0.469
N16235 X244.9 Y7.497 Z-0.475
N16240 X244.909 Y7.459 Z-0.482
N16245 X244.932 Y7.427 Z-0.488
N16250 X244.966 Y7.406 Z-0.494
N16255 X245.005 Y7.4 Z-0.501
N16260 X245.044 Y7.41 Z-0.507
N16265 X245.075 Y7.434 Z-0.514
N16270 X245.095 Y7.469 Z-0.52
N16275 X245.1 Y7.508 Z-0.526
N16280 X245.089 Y7.546 Z-0.533
N16285 X245.064 Y7.577 Z-0.539
N16290 X245.029 Y7.596 Z-0.545
N16295 X244.989 Y7.599 Z-0.552
N16300 X244.952 Y7.587 Z-0.558
N16305 X244.921 Y7.562 Z-0.564
N16310 X244.904 Y7.526 Z-0.571
N16315 X244.901 Y7.487 Z-0.577
N16320 X244.914 Y7.449 Z-0.583
N16325 X244.94 Y7.42 Z-0.59
N16330 X244.976 Y7.403 Z-0.596
N16335 X245.016 Y7.401 Z-0.603
N16340 X245.053 Y7.415 Z-0.609
N16345 X245.082 Y7.443 Z-0.615
N16350 X245.098 Y7.479 Z-0.622
N16355 Y7.519 Z-0.628
N16360 X245.083 Y7.555 Z-0.634
N16365 X245.055 Y7.583 Z-0.641
N16370 X245.019 Y7.598 Z-0.647
N16375 X244.979 Z-0.653
N16380 X244.943 Y7.582 Z-0.66
N16385 X244.915 Y7.553 Z-0.666
N16390 X244.901 Y7.516 Z-0.672
N16395 X244.903 Y7.476 Z-0.679
N16400 X244.92 Y7.44 Z-0.685
N16405 X244.949 Y7.414 Z-0.692
N16410 X244.987 Y7.401 Z-0.698
N16415 X245.026 Y7.404 Z-0.704
N16420 X245.062 Y7.421 Z-0.711
N16425 X245.087 Y7.452 Z-0.717
N16430 X245.099 Y7.489 Z-0.723
N16435 X245.096 Y7.529 Z-0.73
N16440 X245.077 Y7.564 Z-0.736
N16445 X245.046 Y7.589 Z-0.742
N16450 X245.008 Y7.6 Z-0.749
N16455 X244.969 Y7.595 Z-0.755
N16460 X244.934 Y7.575 Z-0.761
N16465 X244.91 Y7.544 Z-0.768
N16470 X244.9 Y7.505 Z-0.774
N16475 X244.906 Y7.466 Z-0.781
N16480 X244.927 Y7.432 Z-0.787
N16485 X244.959 Y7.409 Z-0.793
N16490 X244.997 Y7.4 Z-0.8
N16495 X245.036 Y7.407 Z-0.806
N16500 X245.07 Y7.428 Z-0.812
N16505 X245.092 Y7.461 Z-0.819
N16510 X245.1 Y7.5 Z-0.825
N16515 X245.092 Y7.539 Z-0.831
N16520 X245.07 Y7.572 Z-0.838
N16525 X245.036 Y7.593 Z-0.844
N16530 X244.997 Y7.6 Z-0.85
N16535 X244.959 Y7.591 Z-0.857
N16540 X244.927 Y7.568 Z-0.863
N16545 X244.906 Y7.534 Z-0.869
N16550 X244.9 Y7.495 Z-0.876
N16555 X244.91 Y7.456 Z-0.882
N16560 X244.934 Y7.425 Z-0.889
N16565 X244.969 Y7.405 Z-0.895
N16570 X245.008 Y7.4 Z-0.901
N16575 X245.046 Y7.411 Z-0.908
N16580 X245.077 Y7.436 Z-0.914
N16585 X245.096 Y7.471 Z-0.92
N16590 X245.099 Y7.511 Z-0.927
N16595 X245.087 Y7.548 Z-0.933
N16600 X245.062 Y7.579 Z-0.939
N16605 X245.026 Y7.596 Z-0.946
N16610 X244.987 Y7.599 Z-0.952
N16615 X244.949 Y7.586 Z-0.958
N16620 X244.92 Y7.56 Z-0.965
N16625 X244.903 Y7.524 Z-0.971
N16630 X244.901 Y7.484 Z-0.978
N16635 X244.915 Y7.447 Z-0.984
N16640 X244.943 Y7.418 Z-0.99
N16645 X244.979 Y7.402 Z-0.997
N16650 X245.019 Z-1.003
N16655 X245.055 Y7.417 Z-1.009
N16660 X245.083 Y7.445 Z-1.016
N16665 X245.098 Y7.481 Z-1.022
N16670 Y7.521 Z-1.028
N16675 X245.082 Y7.557 Z-1.035
N16680 X245.053 Y7.585 Z-1.041
N16685 X245.016 Y7.599 Z-1.047
N16690 X244.976 Y7.597 Z-1.054
N16695 X244.94 Y7.58 Z-1.06
N16700 X244.914 Y7.551 Z-1.067
N16705 X244.901 Y7.513 Z-1.073
N16710 X244.904 Y7.474 Z-1.079
N16715 X244.921 Y7.438 Z-1.086
N16720 X244.952 Y7.413 Z-1.092
N16725 X244.989 Y7.401 Z-1.098
N16730 X245.029 Y7.404 Z-1.105
N16735 X245.064 Y7.423 Z-1.111
N16740 X245.089 Y7.454 Z-1.117
N16745 X245.1 Y7.492 Z-1.124
N16750 X245.095 Y7.531 Z-1.13
N16755 X245.075 Y7.566 Z-1.136
N16760 X245.044 Y7.59 Z-1.143
N16765 X245.005 Y7.6 Z-1.149
N16770 X244.966 Y7.594 Z-1.156
N16775 X244.932 Y7.573 Z-1.162
N16780 X244.909 Y7.541 Z-1.168
N16785 X244.9 Y7.503 Z-1.175
N16790 X244.907 Y7.464 Z-1.181
N16795 X244.928 Y7.43 Z-1.187
N16800 X244.961 Y7.408 Z-1.194
N16805 X245 Y7.4 Z-1.2
N16810 G3 Y7.6 J0.1
N16815 Y7.4 J-0.1
N16820 G1 X245.025 Y7.407
N16825 X245.043 Y7.425
N16830 X245.05 Y7.45
N16835 X245 Y7.5
N16840 G0 Z2.3
N16845 X265
N16850 Z2
N16855 G1 Z0.3 F50
N16860 X264.95 Y7.45
N16865 X264.957 Y7.425
N16870 X264.975 Y7.407
N16875 X265 Y7.4
N16880 X265.039 Y7.408 Z0.294 F800
N16885 X265.072 Y7.43 Z0.287
N16890 X265.093 Y7.464 Z0.281
N16895 X265.1 Y7.503 Z0.275
N16900 X265.091 Y7.541 Z0.268
N16905 X265.068 Y7.573 Z0.262
N16910 X265.034 Y7.594 Z0.256
N16915 X264.995 Y7.6 Z0.249
N16920 X264.956 Y7.59 Z0.243
N16925 X264.925 Y7.566 Z0.236
N16930 X264.905 Y7.531 Z0.23
N16935 X264.9 Y7.492 Z0.224
N16940 X264.911 Y7.454 Z0.217
N16945 X264.936 Y7.423 Z0.211
N16950 X264.971 Y7.404 Z0.205
N16955 X265.011 Y7.401 Z0.198
N16960 X265.048 Y7.413 Z0.192
N16965 X265.079 Y7.438 Z0.186
N16970 X265.096 Y7.474 Z0.179
N16975 X265.099 Y7.513 Z0.173
N16980 X265.086 Y7.551 Z0.167
N16985 X265.06 Y7.58 Z0.16
N16990 X265.024 Y7.597 Z0.154
N16995 X264.984 Y7.599 Z0.147
N17000 X264.947 Y7.585 Z0.141
N17005 X264.918 Y7.557 Z0.135
N17010 X264.902 Y7.521 Z0.128
N17015 Y7.481 Z0.122
N17020 X264.917 Y7.445 Z0.116
N17025 X264.945 Y7.417 Z0.109
N17030 X264.981 Y7.402 Z0.103
N17035 X265.021 Z0.097
N17040 X265.057 Y7.418 Z0.09
N17045 X265.085 Y7.447 Z0.084
N17050 X265.099 Y7.484 Z0.078
N17055 X265.097 Y7.524 Z0.071
N17060 X265.08 Y7.56 Z0.065
N17065 X265.051 Y7.586 Z0.058
N17070 X265.013 Y7.599 Z0.052
N17075 X264.974 Y7.596 Z0.046
N17080 X264.938 Y7.579 Z0.039
N17085 X264.913 Y7.548 Z0.033
N17090 X264.901 Y7.511 Z0.027
N17095 X264.904 Y7.471 Z0.02
N17100 X264.923 Y7.436 Z0.014
N17105 X264.954 Y7.411 Z0.008
N17110 X264.992 Y7.4 Z0.001
N17115 X265.031 Y7.405 Z-0.005
N17120 X265.066 Y7.425 Z-0.011
N17125 X265.09 Y7.456 Z-0.018
N17130 X265.1 Y7.495 Z-0.024
N17135 X265.094 Y7.534 Z-0.031
N17140 X265.073 Y7.568 Z-0.037
N17145 X265.041 Y7.591 Z-0.043
N17150 X265.003 Y7.6 Z-0.05
N17155 X264.964 Y7.593 Z-0.056
N17160 X264.93 Y7.572 Z-0.062
N17165 X264.908 Y7.539 Z-0.069
N17170 X264.9 Y7.5 Z-0.075
N17175 X264.908 Y7.461 Z-0.081
N17180 X264.93 Y7.428 Z-0.088
N17185 X264.964 Y7.407 Z-0.094
N17190 X265.003 Y7.4 Z-0.1
N17195 X265.041 Y7.409 Z-0.107
N17200 X265.073 Y7.432 Z-0.113
N17205 X265.094 Y7.466 Z-0.119
N17210 X265.1 Y7.505 Z-0.126
N17215 X265.09 Y7.544 Z-0.132
N17220 X265.066 Y7.575 Z-0.139
N17225 X265.031 Y7.595 Z-0.145
N17230 X264.992 Y7.6 Z-0.151
N17235 X264.954 Y7.589 Z-0.158
N17240 X264.923 Y7.564 Z-0.164
N17245 X264.904 Y7.529 Z-0.17
N17250 X264.901 Y7.489 Z-0.177
N17255 X264.913 Y7.452 Z-0.183
N17260 X264.938 Y7.421 Z-0.189
N17265 X264.974 Y7.404 Z-0.196
N17270 X265.013 Y7.401 Z-0.202
N17275 X265.051 Y7.414 Z-0.208
N17280 X265.08 Y7.44 Z-0.215
N17285 X265.097 Y7.476 Z-0.221
N17290 X265.099 Y7.516 Z-0.228
N17295 X265.085 Y7.553 Z-0.234
N17300 X265.057 Y7.582 Z-0.24
N17305 X265.021 Y7.598 Z-0.247
N17310 X264.981 Z-0.253
N17315 X264.945 Y7.583 Z-0.259
N17320 X264.917 Y7.555 Z-0.266
N17325 X264.902 Y7.519 Z-0.272
N17330 Y7.479 Z-0.278
N17335 X264.918 Y7.443 Z-0.285
N17340 X264.947 Y7.415 Z-0.291
N17345 X264.984 Y7.401 Z-0.297
N17350 X265.024 Y7.403 Z-0.304
N17355 X265.06 Y7.42 Z-0.31
N17360 X265.086 Y7.449 Z-0.317
N17365 X265.099 Y7.487 Z-0.323
N17370 X265.096 Y7.526 Z-0.329
N17375 X265.079 Y7.562 Z-0.336
N17380 X265.048 Y7.587 Z-0.342
N17385 X265.011 Y7.599 Z-0.348
N17390 X264.971 Y7.596 Z-0.355
N17395 X264.936 Y7.577 Z-0.361
N17400 X264.911 Y7.546 Z-0.367
N17405 X264.9 Y7.508 Z-0.374
N17410 X264.905 Y7.469 Z-0.38
N17415 X264.925 Y7.434 Z-0.386
N17420 X264.956 Y7.41 Z-0.393
N17425 X264.995 Y7.4 Z-0.399
N17430 X265.034 Y7.406 Z-0.406
N17435 X265.068 Y7.427 Z-0.412
N17440 X265.091 Y7.459 Z-0.418
N17445 X265.1 Y7.497 Z-0.425
N17450 X265.093 Y7.536 Z-0.431
N17455 X265.072 Y7.57 Z-0.437
N17460 X265.039 Y7.592 Z-0.444
N17465 X265 Y7.6 Z-0.45
N17470 X264.961 Y7.592 Z-0.456
N17475 X264.928 Y7.57 Z-0.463
N17480 X264.907 Y7.536 Z-0.469
N17485 X264.9 Y7.497 Z-0.475
N17490 X264.909 Y7.459 Z-0.482
N17495 X264.932 Y7.427 Z-0.488
N17500 X264.966 Y7.406 Z-0.494
N17505 X265.005 Y7.4 Z-0.501
N17510 X265.044 Y7.41 Z-0.507
N17515 X265.075 Y7.434 Z-0.514
N17520 X265.095 Y7.469 Z-0.52
N17525 X265.1 Y7.508 Z-0.526
N17530 X265.089 Y7.546 Z-0.533
N17535 X265.064 Y7.577 Z-0.539
N17540 X265.029 Y7.596 Z-0.545
N17545 X264.989 Y7.599 Z-0.552
N17550 X264.952 Y7.587 Z-0.558
N17555 X264.921 Y7.562 Z-0.564
N17560 X264.904 Y7.526 Z-0.571
N17565 X264.901 Y7.487 Z-0.577
N17570 X264.914 Y7.449 Z-0.583
N17575 X264.94 Y7.42 Z-0.59
N17580 X264.976 Y7.403 Z-0.596
N17585 X265.016 Y7.401 Z-0.603
N17590 X265.053 Y7.415 Z-0.609
N17595 X265.082 Y7.443 Z-0.615
N17600 X265.098 Y7.479 Z-0.622
N17605 Y7.519 Z-0.628
N17610 X265.083 Y7.555 Z-0.634
N17615 X265.055 Y7.583 Z-0.641
N17620 X265.019 Y7.598 Z-0.647
N17625 X264.979 Z-0.653
N17630 X264.943 Y7.582 Z-0.66
N17635 X264.915 Y7.553 Z-0.666
N17640 X264.901 Y7.516 Z-0.672
N17645 X264.903 Y7.476 Z-0.679
