%
(1001)
(T3 D=3 CR=0 - ZMIN=-2.2 - flat end mill)
N10 G90 G94
N15 G17
N20 G21
N25 G28

(??1)
N30 T3 M6
N35 S20000 M3
N40 G54
N45 M8
N50 G0 X44.112 Y8.763
N55 G43 Z2.3
N60 Z2
N65 G1 Z0.3 F50
N70 X44.162 Y8.813
N75 X44.155 Y8.838
N80 X44.137 Y8.856
N85 X44.112 Y8.863
N90 X44.073 Y8.855 Z0.294 F800
N95 X44.04 Y8.832 Z0.287
N100 X44.018 Y8.799 Z0.281
N105 X44.012 Y8.76 Z0.275
N110 X44.021 Y8.721 Z0.268
N115 X44.044 Y8.689 Z0.262
N120 X44.078 Y8.669 Z0.256
N125 X44.117 Y8.663 Z0.249
N130 X44.155 Y8.673 Z0.243
N135 X44.187 Y8.697 Z0.236
N140 X44.207 Y8.731 Z0.23
N145 X44.211 Y8.771 Z0.224
N150 X44.2 Y8.809 Z0.217
N155 X44.175 Y8.84 Z0.211
N160 X44.14 Y8.858 Z0.205
N165 X44.101 Y8.862 Z0.198
N170 X44.063 Y8.85 Z0.192
N175 X44.033 Y8.824 Z0.186
N180 X44.015 Y8.789 Z0.179
N185 X44.013 Y8.749 Z0.173
N190 X44.025 Y8.712 Z0.167
N195 X44.052 Y8.682 Z0.16
N200 X44.088 Y8.666 Z0.154
N205 X44.128 Y8.664 Z0.147
N210 X44.165 Y8.678 Z0.141
N215 X44.193 Y8.705 Z0.135
N220 X44.209 Y8.742 Z0.128
N225 X44.21 Y8.781 Z0.122
N230 X44.195 Y8.818 Z0.116
N235 X44.167 Y8.846 Z0.109
N240 X44.13 Y8.861 Z0.103
N245 X44.09 Y8.86 Z0.097
N250 X44.054 Y8.844 Z0.09
N255 X44.027 Y8.816 Z0.084
N260 X44.013 Y8.779 Z0.078
N265 X44.014 Y8.739 Z0.071
N270 X44.031 Y8.703 Z0.065
N275 X44.061 Y8.677 Z0.058
N280 X44.098 Y8.664 Z0.052
N285 X44.138 Y8.666 Z0.046
N290 X44.173 Y8.684 Z0.039
N295 X44.199 Y8.714 Z0.033
N300 X44.211 Y8.752 Z0.027
N305 X44.207 Y8.792 Z0.02
N310 X44.189 Y8.826 Z0.014
N315 X44.158 Y8.851 Z0.008
N320 X44.12 Y8.862 Z0.001
N325 X44.08 Y8.858 Z-0.005
N330 X44.046 Y8.838 Z-0.011
N335 X44.022 Y8.806 Z-0.018
N340 X44.012 Y8.768 Z-0.024
N345 X44.018 Y8.729 Z-0.031
N350 X44.038 Y8.695 Z-0.037
N355 X44.07 Y8.672 Z-0.043
N360 X44.109 Y8.663 Z-0.05
N365 X44.148 Y8.67 Z-0.056
N370 X44.181 Y8.691 Z-0.062
N375 X44.204 Y8.724 Z-0.069
N380 X44.212 Y8.763 Z-0.075
N385 X44.204 Y8.802 Z-0.081
N390 X44.181 Y8.834 Z-0.088
N395 X44.148 Y8.856 Z-0.094
N400 X44.109 Y8.863 Z-0.1
N405 X44.07 Y8.854 Z-0.107
N410 X44.038 Y8.83 Z-0.113
N415 X44.018 Y8.797 Z-0.119
N420 X44.012 Y8.757 Z-0.126
N425 X44.022 Y8.719 Z-0.132
N430 X44.046 Y8.687 Z-0.139
N435 X44.08 Y8.668 Z-0.145
N440 X44.12 Y8.663 Z-0.151
N445 X44.158 Y8.674 Z-0.158
N450 X44.189 Y8.699 Z-0.164
N455 X44.207 Y8.734 Z-0.17
N460 X44.211 Y8.773 Z-0.177
N465 X44.199 Y8.811 Z-0.183
N470 X44.173 Y8.841 Z-0.189
N475 X44.138 Y8.859 Z-0.196
N480 X44.098 Y8.862 Z-0.202
N485 X44.061 Y8.849 Z-0.208
N490 X44.031 Y8.822 Z-0.215
N495 X44.014 Y8.786 Z-0.221
N500 X44.013 Y8.747 Z-0.228
N505 X44.027 Y8.71 Z-0.234
N510 X44.054 Y8.681 Z-0.24
N515 X44.09 Y8.665 Z-0.247
N520 X44.13 Y8.664 Z-0.253
N525 X44.167 Y8.679 Z-0.259
N530 X44.195 Y8.707 Z-0.266
N535 X44.21 Y8.744 Z-0.272
N540 X44.209 Y8.784 Z-0.278
N545 X44.193 Y8.82 Z-0.285
N550 X44.165 Y8.847 Z-0.291
N555 X44.128 Y8.861 Z-0.297
N560 X44.088 Y8.86 Z-0.304
N565 X44.052 Y8.843 Z-0.31
N570 X44.025 Y8.813 Z-0.317
N575 X44.013 Y8.776 Z-0.323
N580 X44.015 Y8.736 Z-0.329
N585 X44.033 Y8.701 Z-0.336
N590 X44.063 Y8.675 Z-0.342
N595 X44.101 Y8.663 Z-0.348
N600 X44.14 Y8.667 Z-0.355
N605 X44.175 Y8.686 Z-0.361
N610 X44.2 Y8.717 Z-0.367
N615 X44.211 Y8.755 Z-0.374
N620 X44.207 Y8.794 Z-0.38
N625 X44.187 Y8.829 Z-0.386
N630 X44.155 Y8.853 Z-0.393
N635 X44.117 Y8.863 Z-0.399
N640 X44.078 Y8.857 Z-0.406
N645 X44.044 Y8.836 Z-0.412
N650 X44.021 Y8.804 Z-0.418
N655 X44.012 Y8.765 Z-0.425
N660 X44.018 Y8.726 Z-0.431
N665 X44.04 Y8.693 Z-0.437
N670 X44.073 Y8.671 Z-0.444
N675 X44.112 Y8.663 Z-0.45
N680 X44.151 Y8.671 Z-0.456
N685 X44.183 Y8.693 Z-0.463
N690 X44.205 Y8.726 Z-0.469
N695 X44.212 Y8.765 Z-0.475
N700 X44.203 Y8.804 Z-0.482
N705 X44.179 Y8.836 Z-0.488
N710 X44.146 Y8.857 Z-0.494
N715 X44.106 Y8.863 Z-0.501
N720 X44.068 Y8.853 Z-0.507
N725 X44.036 Y8.829 Z-0.514
N730 X44.017 Y8.794 Z-0.52
N735 X44.012 Y8.755 Z-0.526
N740 X44.023 Y8.717 Z-0.533
N745 X44.048 Y8.686 Z-0.539
N750 X44.083 Y8.667 Z-0.545
N755 X44.122 Y8.663 Z-0.552
N760 X44.16 Y8.675 Z-0.558
N765 X44.19 Y8.701 Z-0.564
N770 X44.208 Y8.736 Z-0.571
N775 X44.211 Y8.776 Z-0.577
N780 X44.198 Y8.813 Z-0.583
N785 X44.171 Y8.843 Z-0.59
N790 X44.135 Y8.86 Z-0.596
N795 X44.096 Y8.861 Z-0.603
N800 X44.059 Y8.847 Z-0.609
N805 X44.03 Y8.82 Z-0.615
N810 X44.014 Y8.784 Z-0.622
N815 X44.013 Y8.744 Z-0.628
N820 X44.028 Y8.707 Z-0.634
N825 X44.056 Y8.679 Z-0.641
N830 X44.093 Y8.664 Z-0.647
N835 X44.133 Y8.665 Z-0.653
N840 X44.169 Y8.681 Z-0.66
N845 X44.196 Y8.71 Z-0.666
N850 X44.21 Y8.747 Z-0.672
N855 X44.209 Y8.786 Z-0.679
N860 X44.192 Y8.822 Z-0.685
N865 X44.162 Y8.849 Z-0.692
N870 X44.125 Y8.862 Z-0.698
N875 X44.085 Y8.859 Z-0.704
N880 X44.05 Y8.841 Z-0.711
N885 X44.024 Y8.811 Z-0.717
N890 X44.012 Y8.773 Z-0.723
N895 X44.016 Y8.734 Z-0.73
N900 X44.035 Y8.699 Z-0.736
N905 X44.066 Y8.674 Z-0.742
N910 X44.104 Y8.663 Z-0.749
N915 X44.143 Y8.668 Z-0.755
N920 X44.177 Y8.687 Z-0.761
N925 X44.202 Y8.719 Z-0.768
N930 X44.211 Y8.757 Z-0.774
N935 X44.206 Y8.797 Z-0.781
N940 X44.185 Y8.83 Z-0.787
N945 X44.153 Y8.854 Z-0.793
N950 X44.114 Y8.863 Z-0.8
N955 X44.075 Y8.856 Z-0.806
N960 X44.042 Y8.834 Z-0.812
N965 X44.019 Y8.802 Z-0.819
N970 X44.012 Y8.763 Z-0.825
N975 X44.019 Y8.724 Z-0.831
N980 X44.042 Y8.691 Z-0.838
N985 X44.075 Y8.67 Z-0.844
N990 X44.114 Y8.663 Z-0.85
N995 X44.153 Y8.672 Z-0.857
N1000 X44.185 Y8.695 Z-0.863
N1005 X44.206 Y8.729 Z-0.869
N1010 X44.211 Y8.768 Z-0.876
N1015 X44.202 Y8.806 Z-0.882
N1020 X44.177 Y8.838 Z-0.889
N1025 X44.143 Y8.858 Z-0.895
N1030 X44.104 Y8.862 Z-0.901
N1035 X44.066 Y8.851 Z-0.908
N1040 X44.035 Y8.826 Z-0.914
N1045 X44.016 Y8.792 Z-0.92
N1050 X44.012 Y8.752 Z-0.927
N1055 X44.024 Y8.714 Z-0.933
N1060 X44.05 Y8.684 Z-0.939
N1065 X44.085 Y8.666 Z-0.946
N1070 X44.125 Y8.664 Z-0.952
N1075 X44.162 Y8.677 Z-0.958
N1080 X44.192 Y8.703 Z-0.965
N1085 X44.209 Y8.739 Z-0.971
N1090 X44.21 Y8.779 Z-0.978
N1095 X44.196 Y8.816 Z-0.984
N1100 X44.169 Y8.844 Z-0.99
N1105 X44.133 Y8.86 Z-0.997
N1110 X44.093 Y8.861 Z-1.003
N1115 X44.056 Y8.846 Z-1.009
N1120 X44.028 Y8.818 Z-1.016
N1125 X44.013 Y8.781 Z-1.022
N1130 X44.014 Y8.742 Z-1.028
N1135 X44.03 Y8.705 Z-1.035
N1140 X44.059 Y8.678 Z-1.041
N1145 X44.096 Y8.664 Z-1.047
N1150 X44.135 Y8.666 Z-1.054
N1155 X44.171 Y8.682 Z-1.06
N1160 X44.198 Y8.712 Z-1.067
N1165 X44.211 Y8.749 Z-1.073
N1170 X44.208 Y8.789 Z-1.079
N1175 X44.19 Y8.824 Z-1.086
N1180 X44.16 Y8.85 Z-1.092
N1185 X44.122 Y8.862 Z-1.098
N1190 X44.083 Y8.858 Z-1.105
N1195 X44.048 Y8.84 Z-1.111
N1200 X44.023 Y8.809 Z-1.117
N1205 X44.012 Y8.771 Z-1.124
N1210 X44.017 Y8.731 Z-1.13
N1215 X44.036 Y8.697 Z-1.136
N1220 X44.068 Y8.673 Z-1.143
N1225 X44.106 Y8.663 Z-1.149
N1230 X44.146 Y8.669 Z-1.156
N1235 X44.179 Y8.689 Z-1.162
N1240 X44.203 Y8.721 Z-1.168
N1245 X44.212 Y8.76 Z-1.175
N1250 X44.205 Y8.799 Z-1.181
N1255 X44.183 Y8.832 Z-1.187
N1260 X44.151 Y8.855 Z-1.194
N1265 X44.112 Y8.863 Z-1.2
N1270 G3 Y8.663 J-0.1
N1275 Y8.863 J0.1
N1280 G1 X44.087 Y8.856
N1285 X44.068 Y8.838
N1290 X44.062 Y8.813
N1295 X44.112 Y8.763
N1300 G0 Z2.3
N1305 X23.888
N1310 Z2
N1315 G1 Z0.3 F50
N1320 X23.938 Y8.813
N1325 X23.932 Y8.838
N1330 X23.913 Y8.856
N1335 X23.888 Y8.863
N1340 X23.849 Y8.855 Z0.294 F800
N1345 X23.817 Y8.832 Z0.287
N1350 X23.795 Y8.799 Z0.281
N1355 X23.788 Y8.76 Z0.275
N1360 X23.797 Y8.721 Z0.268
N1365 X23.821 Y8.689 Z0.262
N1370 X23.854 Y8.669 Z0.256
N1375 X23.894 Y8.663 Z0.249
N1380 X23.932 Y8.673 Z0.243
N1385 X23.964 Y8.697 Z0.236
N1390 X23.983 Y8.731 Z0.23
N1395 X23.988 Y8.771 Z0.224
N1400 X23.977 Y8.809 Z0.217
N1405 X23.952 Y8.84 Z0.211
N1410 X23.917 Y8.858 Z0.205
N1415 X23.878 Y8.862 Z0.198
N1420 X23.84 Y8.85 Z0.192
N1425 X23.81 Y8.824 Z0.186
N1430 X23.792 Y8.789 Z0.179
N1435 X23.789 Y8.749 Z0.173
N1440 X23.802 Y8.712 Z0.167
N1445 X23.829 Y8.682 Z0.16
N1450 X23.865 Y8.666 Z0.154
N1455 X23.904 Y8.664 Z0.147
N1460 X23.941 Y8.678 Z0.141
N1465 X23.97 Y8.705 Z0.135
N1470 X23.986 Y8.742 Z0.128
N1475 X23.987 Y8.781 Z0.122
N1480 X23.972 Y8.818 Z0.116
N1485 X23.944 Y8.846 Z0.109
N1490 X23.907 Y8.861 Z0.103
N1495 X23.867 Y8.86 Z0.097
N1500 X23.831 Y8.844 Z0.09
N1505 X23.804 Y8.816 Z0.084
N1510 X23.79 Y8.779 Z0.078
N1515 X23.791 Y8.739 Z0.071
N1520 X23.808 Y8.703 Z0.065
N1525 X23.838 Y8.677 Z0.058
N1530 X23.875 Y8.664 Z0.052
N1535 X23.915 Y8.666 Z0.046
N1540 X23.95 Y8.684 Z0.039
N1545 X23.976 Y8.714 Z0.033
N1550 X23.988 Y8.752 Z0.027
N1555 X23.984 Y8.792 Z0.02
N1560 X23.965 Y8.826 Z0.014
N1565 X23.934 Y8.851 Z0.008
N1570 X23.896 Y8.862 Z0.001
N1575 X23.857 Y8.858 Z-0.005
N1580 X23.823 Y8.838 Z-0.011
N1585 X23.798 Y8.806 Z-0.018
N1590 X23.789 Y8.768 Z-0.024
N1595 X23.794 Y8.729 Z-0.031
N1600 X23.815 Y8.695 Z-0.037
N1605 X23.847 Y8.672 Z-0.043
N1610 X23.886 Y8.663 Z-0.05
N1615 X23.925 Y8.67 Z-0.056
N1620 X23.958 Y8.691 Z-0.062
N1625 X23.981 Y8.724 Z-0.069
N1630 X23.988 Y8.763 Z-0.075
N1635 X23.981 Y8.802 Z-0.081
N1640 X23.958 Y8.834 Z-0.088
N1645 X23.925 Y8.856 Z-0.094
N1650 X23.886 Y8.863 Z-0.1
N1655 X23.847 Y8.854 Z-0.107
N1660 X23.815 Y8.83 Z-0.113
N1665 X23.794 Y8.797 Z-0.119
N1670 X23.789 Y8.757 Z-0.126
N1675 X23.798 Y8.719 Z-0.132
N1680 X23.823 Y8.687 Z-0.139
N1685 X23.857 Y8.668 Z-0.145
N1690 X23.896 Y8.663 Z-0.151
N1695 X23.934 Y8.674 Z-0.158
N1700 X23.965 Y8.699 Z-0.164
N1705 X23.984 Y8.734 Z-0.17
N1710 X23.988 Y8.773 Z-0.177
N1715 X23.976 Y8.811 Z-0.183
N1720 X23.95 Y8.841 Z-0.189
N1725 X23.915 Y8.859 Z-0.196
N1730 X23.875 Y8.862 Z-0.202
N1735 X23.838 Y8.849 Z-0.208
N1740 X23.808 Y8.822 Z-0.215
N1745 X23.791 Y8.786 Z-0.221
N1750 X23.79 Y8.747 Z-0.228
N1755 X23.804 Y8.71 Z-0.234
N1760 X23.831 Y8.681 Z-0.24
N1765 X23.867 Y8.665 Z-0.247
N1770 X23.907 Y8.664 Z-0.253
N1775 X23.944 Y8.679 Z-0.259
N1780 X23.972 Y8.707 Z-0.266
N1785 X23.987 Y8.744 Z-0.272
N1790 X23.986 Y8.784 Z-0.278
N1795 X23.97 Y8.82 Z-0.285
N1800 X23.941 Y8.847 Z-0.291
N1805 X23.904 Y8.861 Z-0.297
N1810 X23.865 Y8.86 Z-0.304
N1815 X23.829 Y8.843 Z-0.31
N1820 X23.802 Y8.813 Z-0.317
N1825 X23.789 Y8.776 Z-0.323
N1830 X23.792 Y8.736 Z-0.329
N1835 X23.81 Y8.701 Z-0.336
N1840 X23.84 Y8.675 Z-0.342
N1845 X23.878 Y8.663 Z-0.348
N1850 X23.917 Y8.667 Z-0.355
N1855 X23.952 Y8.686 Z-0.361
N1860 X23.977 Y8.717 Z-0.367
N1865 X23.988 Y8.755 Z-0.374
N1870 X23.983 Y8.794 Z-0.38
N1875 X23.964 Y8.829 Z-0.386
N1880 X23.932 Y8.853 Z-0.393
N1885 X23.894 Y8.863 Z-0.399
N1890 X23.854 Y8.857 Z-0.406
N1895 X23.821 Y8.836 Z-0.412
N1900 X23.797 Y8.804 Z-0.418
N1905 X23.788 Y8.765 Z-0.425
N1910 X23.795 Y8.726 Z-0.431
N1915 X23.817 Y8.693 Z-0.437
N1920 X23.849 Y8.671 Z-0.444
N1925 X23.888 Y8.663 Z-0.45
N1930 X23.927 Y8.671 Z-0.456
N1935 X23.96 Y8.693 Z-0.463
N1940 X23.982 Y8.726 Z-0.469
N1945 X23.988 Y8.765 Z-0.475
N1950 X23.979 Y8.804 Z-0.482
N1955 X23.956 Y8.836 Z-0.488
N1960 X23.922 Y8.857 Z-0.494
N1965 X23.883 Y8.863 Z-0.501
N1970 X23.845 Y8.853 Z-0.507
N1975 X23.813 Y8.829 Z-0.514
N1980 X23.793 Y8.794 Z-0.52
N1985 X23.789 Y8.755 Z-0.526
N1990 X23.8 Y8.717 Z-0.533
N1995 X23.825 Y8.686 Z-0.539
N2000 X23.86 Y8.667 Z-0.545
N2005 X23.899 Y8.663 Z-0.552
N2010 X23.937 Y8.675 Z-0.558
N2015 X23.967 Y8.701 Z-0.564
N2020 X23.985 Y8.736 Z-0.571
N2025 X23.987 Y8.776 Z-0.577
N2030 X23.975 Y8.813 Z-0.583
N2035 X23.948 Y8.843 Z-0.59
N2040 X23.912 Y8.86 Z-0.596
N2045 X23.872 Y8.861 Z-0.603
N2050 X23.835 Y8.847 Z-0.609
N2055 X23.807 Y8.82 Z-0.615
N2060 X23.791 Y8.784 Z-0.622
N2065 X23.79 Y8.744 Z-0.628
N2070 X23.805 Y8.707 Z-0.634
N2075 X23.833 Y8.679 Z-0.641
N2080 X23.87 Y8.664 Z-0.647
N2085 X23.91 Y8.665 Z-0.653
N2090 X23.946 Y8.681 Z-0.66
N2095 X23.973 Y8.71 Z-0.666
N2100 X23.987 Y8.747 Z-0.672
N2105 X23.986 Y8.786 Z-0.679
N2110 X23.969 Y8.822 Z-0.685
N2115 X23.939 Y8.849 Z-0.692
N2120 X23.902 Y8.862 Z-0.698
N2125 X23.862 Y8.859 Z-0.704
N2130 X23.827 Y8.841 Z-0.711
N2135 X23.801 Y8.811 Z-0.717
N2140 X23.789 Y8.773 Z-0.723
N2145 X23.793 Y8.734 Z-0.73
N2150 X23.811 Y8.699 Z-0.736
N2155 X23.842 Y8.674 Z-0.742
N2160 X23.88 Y8.663 Z-0.749
N2165 X23.92 Y8.668 Z-0.755
N2170 X23.954 Y8.687 Z-0.761
N2175 X23.978 Y8.719 Z-0.768
N2180 X23.988 Y8.757 Z-0.774
N2185 X23.982 Y8.797 Z-0.781
N2190 X23.962 Y8.83 Z-0.787
N2195 X23.93 Y8.854 Z-0.793
N2200 X23.891 Y8.863 Z-0.8
N2205 X23.852 Y8.856 Z-0.806
N2210 X23.819 Y8.834 Z-0.812
N2215 X23.796 Y8.802 Z-0.819
N2220 X23.788 Y8.763 Z-0.825
N2225 X23.796 Y8.724 Z-0.831
N2230 X23.819 Y8.691 Z-0.838
N2235 X23.852 Y8.67 Z-0.844
N2240 X23.891 Y8.663 Z-0.85
N2245 X23.93 Y8.672 Z-0.857
N2250 X23.962 Y8.695 Z-0.863
N2255 X23.982 Y8.729 Z-0.869
N2260 X23.988 Y8.768 Z-0.876
N2265 X23.978 Y8.806 Z-0.882
N2270 X23.954 Y8.838 Z-0.889
N2275 X23.92 Y8.858 Z-0.895
N2280 X23.88 Y8.862 Z-0.901
N2285 X23.842 Y8.851 Z-0.908
N2290 X23.811 Y8.826 Z-0.914
N2295 X23.793 Y8.792 Z-0.92
N2300 X23.789 Y8.752 Z-0.927
N2305 X23.801 Y8.714 Z-0.933
N2310 X23.827 Y8.684 Z-0.939
N2315 X23.862 Y8.666 Z-0.946
N2320 X23.902 Y8.664 Z-0.952
N2325 X23.939 Y8.677 Z-0.958
N2330 X23.969 Y8.703 Z-0.965
N2335 X23.986 Y8.739 Z-0.971
N2340 X23.987 Y8.779 Z-0.978
N2345 X23.973 Y8.816 Z-0.984
N2350 X23.946 Y8.844 Z-0.99
N2355 X23.91 Y8.86 Z-0.997
N2360 X23.87 Y8.861 Z-1.003
N2365 X23.833 Y8.846 Z-1.009
N2370 X23.805 Y8.818 Z-1.016
N2375 X23.79 Y8.781 Z-1.022
N2380 X23.791 Y8.742 Z-1.028
N2385 X23.807 Y8.705 Z-1.035
N2390 X23.835 Y8.678 Z-1.041
N2395 X23.872 Y8.664 Z-1.047
N2400 X23.912 Y8.666 Z-1.054
N2405 X23.948 Y8.682 Z-1.06
N2410 X23.975 Y8.712 Z-1.067
N2415 X23.987 Y8.749 Z-1.073
N2420 X23.985 Y8.789 Z-1.079
N2425 X23.967 Y8.824 Z-1.086
N2430 X23.937 Y8.85 Z-1.092
N2435 X23.899 Y8.862 Z-1.098
N2440 X23.86 Y8.858 Z-1.105
N2445 X23.825 Y8.84 Z-1.111
N2450 X23.8 Y8.809 Z-1.117
N2455 X23.789 Y8.771 Z-1.124
N2460 X23.793 Y8.731 Z-1.13
N2465 X23.813 Y8.697 Z-1.136
N2470 X23.845 Y8.673 Z-1.143
N2475 X23.883 Y8.663 Z-1.149
N2480 X23.922 Y8.669 Z-1.156
N2485 X23.956 Y8.689 Z-1.162
N2490 X23.979 Y8.721 Z-1.168
N2495 X23.988 Y8.76 Z-1.175
N2500 X23.982 Y8.799 Z-1.181
N2505 X23.96 Y8.832 Z-1.187
N2510 X23.927 Y8.855 Z-1.194
N2515 X23.888 Y8.863 Z-1.2
N2520 G3 Y8.663 J-0.1
N2525 Y8.863 J0.1
N2530 G1 X23.863 Y8.856
N2535 X23.845 Y8.838
N2540 X23.838 Y8.813
N2545 X23.888 Y8.763
N2550 G0 Z2.3
N2555 X3 Y29.626
N2560 Z2
N2565 G1 Z0.3 F50
N2570 X2.975 Y29.601
N2575 X2.982 Y29.584
N2580 X3 Y29.576
N2585 X3.027 Y29.584 Z0.291 F800
N2590 X3.045 Y29.605 Z0.282
N2595 X3.05 Y29.633 Z0.273
N2600 X3.038 Y29.658 Z0.264
N2605 X3.015 Y29.674 Z0.255
N2610 X2.987 Y29.675 Z0.246
N2615 X2.963 Y29.66 Z0.237
N2620 X2.951 Y29.635 Z0.228
N2625 X2.954 Y29.607 Z0.219
N2630 X2.971 Y29.585 Z0.21
N2635 X2.998 Y29.576 Z0.201
N2640 X3.025 Y29.583 Z0.192
N2645 X3.044 Y29.603 Z0.183
N2650 X3.05 Y29.631 Z0.174
N2655 X3.04 Y29.657 Z0.165
N2660 X3.017 Y29.673 Z0.156
N2665 X2.989 Y29.675 Z0.147
N2670 X2.965 Y29.662 Z0.138
N2675 X2.951 Y29.637 Z0.129
N2680 X2.953 Y29.609 Z0.119
N2685 X2.969 Y29.587 Z0.11
N2690 X2.995 Y29.576 Z0.101
N2695 X3.023 Y29.582 Z0.092
N2700 X3.043 Y29.601 Z0.083
N2705 X3.05 Y29.628 Z0.074
N2710 X3.041 Y29.655 Z0.065
N2715 X3.019 Y29.672 Z0.056
N2720 X2.992 Y29.676 Z0.047
N2725 X2.966 Y29.663 Z0.038
N2730 X2.952 Y29.639 Z0.029
N2735 Y29.611 Z0.02
N2740 X2.968 Y29.588 Z0.011
N2745 X2.993 Y29.577 Z0.002
N2750 X3.021 Y29.581 Z-0.007
N2755 X3.042 Y29.599 Z-0.016
N2760 X3.05 Y29.626 Z-0.025
N2765 X3.042 Y29.653 Z-0.034
N2770 X3.021 Y29.671 Z-0.043
N2775 X2.994 Y29.676 Z-0.052
N2780 X2.968 Y29.665 Z-0.061
N2785 X2.952 Y29.642 Z-0.07
N2790 Y29.614 Z-0.079
N2795 X2.966 Y29.59 Z-0.088
N2800 X2.991 Y29.577 Z-0.097
N2805 X3.019 Y29.58 Z-0.106
N2810 X3.041 Y29.597 Z-0.115
N2815 X3.05 Y29.624 Z-0.124
N2820 X3.043 Y29.651 Z-0.133
N2825 X3.023 Y29.67 Z-0.142
N2830 X2.996 Y29.676 Z-0.151
N2835 X2.97 Y29.666 Z-0.16
N2840 X2.953 Y29.644 Z-0.169
N2845 X2.951 Y29.616 Z-0.178
N2850 X2.964 Y29.591 Z-0.187
N2855 X2.989 Y29.578 Z-0.196
N2860 X3.017 Y29.579 Z-0.205
N2865 X3.039 Y29.595 Z-0.214
N2870 X3.05 Y29.621 Z-0.223
N2875 X3.045 Y29.649 Z-0.232
N2880 X3.025 Y29.669 Z-0.242
N2885 X2.998 Y29.676 Z-0.251
N2890 X2.972 Y29.668 Z-0.26
N2895 X2.954 Y29.646 Z-0.269
N2900 X2.951 Y29.618 Z-0.278
N2905 X2.963 Y29.593 Z-0.287
N2910 X2.987 Y29.578 Z-0.296
N2915 X3.015 Z-0.305
N2920 X3.038 Y29.594 Z-0.314
N2925 X3.049 Y29.619 Z-0.323
N2930 X3.046 Y29.647 Z-0.332
N2935 X3.027 Y29.668 Z-0.341
N2940 X3.001 Y29.676 Z-0.35
N2945 X2.974 Y29.669 Z-0.359
N2950 X2.955 Y29.648 Z-0.368
N2955 X2.95 Y29.62 Z-0.377
N2960 X2.961 Y29.595 Z-0.386
N2965 X2.984 Y29.579 Z-0.395
N2970 X3.012 Y29.578 Z-0.404
N2975 X3.036 Y29.592 Z-0.413
N2980 X3.049 Y29.617 Z-0.422
N2985 X3.046 Y29.645 Z-0.431
N2990 X3.029 Y29.667 Z-0.44
N2995 X3.003 Y29.676 Z-0.449
N3000 X2.976 Y29.67 Z-0.458
N3005 X2.956 Y29.65 Z-0.467
N3010 X2.95 Y29.623 Z-0.476
N3015 X2.96 Y29.596 Z-0.485
N3020 X2.982 Y29.58 Z-0.494
N3025 X3.01 Y29.577 Z-0.503
N3030 X3.035 Y29.59 Z-0.512
N3035 X3.049 Y29.615 Z-0.521
N3040 X3.047 Y29.643 Z-0.53
N3045 X3.031 Y29.666 Z-0.539
N3050 X3.005 Y29.676 Z-0.548
N3055 X2.978 Y29.671 Z-0.557
N3060 X2.957 Y29.652 Z-0.566
N3065 X2.95 Y29.625 Z-0.575
N3070 X2.959 Y29.598 Z-0.584
N3075 X2.98 Y29.58 Z-0.594
N3080 X3.008 Y29.577 Z-0.603
N3085 X3.033 Y29.589 Z-0.612
N3090 X3.048 Y29.613 Z-0.621
N3095 Y29.641 Z-0.63
N3100 X3.033 Y29.664 Z-0.639
N3105 X3.007 Y29.676 Z-0.648
N3110 X2.98 Y29.672 Z-0.657
N3115 X2.958 Y29.654 Z-0.666
N3120 X2.95 Y29.627 Z-0.675
N3125 X2.957 Y29.6 Z-0.684
N3130 X2.978 Y29.581 Z-0.693
N3135 X3.006 Y29.577 Z-0.702
N3140 X3.031 Y29.587 Z-0.711
N3145 X3.047 Y29.61 Z-0.72
N3150 X3.049 Y29.638 Z-0.729
N3155 X3.034 Y29.663 Z-0.738
N3160 X3.01 Y29.675 Z-0.747
N3165 X2.982 Y29.673 Z-0.756
N3170 X2.96 Y29.656 Z-0.765
N3175 X2.95 Y29.629 Z-0.774
N3180 X2.956 Y29.602 Z-0.783
N3185 X2.976 Y29.582 Z-0.792
N3190 X3.003 Y29.576 Z-0.801
N3195 X3.03 Y29.586 Z-0.81
N3200 X3.047 Y29.608 Z-0.819
N3205 X3.049 Y29.636 Z-0.828
N3210 X3.036 Y29.661 Z-0.837
N3215 X3.012 Y29.675 Z-0.846
N3220 X2.984 Y29.674 Z-0.855
N3225 X2.961 Y29.658 Z-0.864
N3230 X2.95 Y29.632 Z-0.873
N3235 X2.955 Y29.604 Z-0.882
N3240 X2.974 Y29.584 Z-0.891
N3245 X3.001 Y29.576 Z-0.9
N3250 X3.028 Y29.585 Z-0.909
N3255 X3.046 Y29.606 Z-0.918
N3260 X3.049 Y29.634 Z-0.927
N3265 X3.038 Y29.659 Z-0.936
N3270 X3.014 Y29.674 Z-0.945
N3275 X2.986 Z-0.955
N3280 X2.962 Y29.659 Z-0.964
N3285 X2.951 Y29.634 Z-0.973
N3290 X2.954 Y29.606 Z-0.982
N3295 X2.972 Y29.585 Z-0.991
N3300 X2.999 Y29.576 Z-1
N3305 X3.026 Y29.584 Z-1.009
N3310 X3.045 Y29.604 Z-1.018
N3315 X3.05 Y29.632 Z-1.027
N3320 X3.039 Y29.658 Z-1.036
N3325 X3.016 Y29.674 Z-1.045
N3330 X2.988 Y29.675 Z-1.054
N3335 X2.964 Y29.661 Z-1.063
N3340 X2.951 Y29.636 Z-1.072
N3345 X2.953 Y29.608 Z-1.081
N3350 X2.97 Y29.586 Z-1.09
N3355 X2.997 Y29.576 Z-1.099
N3360 X3.024 Y29.582 Z-1.108
N3365 X3.044 Y29.602 Z-1.117
N3370 X3.05 Y29.629 Z-1.126
N3375 X3.04 Y29.656 Z-1.135
N3380 X3.018 Y29.673 Z-1.144
N3385 X2.99 Y29.675 Z-1.153
N3390 X2.966 Y29.663 Z-1.162
N3395 X2.951 Y29.638 Z-1.171
N3400 X2.953 Y29.61 Z-1.18
N3405 X2.969 Y29.587 Z-1.189
N3410 X2.994 Y29.577 Z-1.198
N3415 X3.022 Y29.581 Z-1.207
N3420 X3.043 Y29.6 Z-1.216
N3425 X3.05 Y29.627 Z-1.225
N3430 X3.042 Y29.654 Z-1.234
N3435 X3.02 Y29.672 Z-1.243
N3440 X2.993 Y29.676 Z-1.252
N3445 X2.967 Y29.664 Z-1.261
N3450 X2.952 Y29.641 Z-1.27
N3455 Y29.613 Z-1.279
N3460 X2.967 Y29.589 Z-1.288
N3465 X2.992 Y29.577 Z-1.297
N3470 X3.02 Y29.58 Z-1.306
N3475 X3.041 Y29.598 Z-1.316
N3480 X3.05 Y29.625 Z-1.325
N3485 X3.043 Y29.652 Z-1.334
N3490 X3.022 Y29.671 Z-1.343
N3495 X2.995 Y29.676 Z-1.352
N3500 X2.969 Y29.666 Z-1.361
N3505 X2.953 Y29.643 Z-1.37
N3510 X2.951 Y29.615 Z-1.379
N3515 X2.965 Y29.59 Z-1.388
N3520 X2.99 Y29.577 Z-1.397
N3525 X3.018 Y29.58 Z-1.406
N3530 X3.04 Y29.596 Z-1.415
N3535 X3.05 Y29.623 Z-1.424
N3540 X3.044 Y29.65 Z-1.433
N3545 X3.024 Y29.67 Z-1.442
N3550 X2.997 Y29.676 Z-1.451
N3555 X2.971 Y29.667 Z-1.46
N3560 X2.954 Y29.645 Z-1.469
N3565 X2.951 Y29.617 Z-1.478
N3570 X2.964 Y29.592 Z-1.487
N3575 X2.988 Y29.578 Z-1.496
N3580 X3.016 Y29.579 Z-1.505
N3585 X3.039 Y29.595 Z-1.514
N3590 X3.05 Y29.62 Z-1.523
N3595 X3.045 Y29.648 Z-1.532
N3600 X3.026 Y29.669 Z-1.541
N3605 X2.999 Y29.676 Z-1.55
N3610 X2.973 Y29.668 Z-1.559
N3615 X2.954 Y29.647 Z-1.568
N3620 X2.951 Y29.619 Z-1.577
N3625 X2.962 Y29.594 Z-1.586
N3630 X2.985 Y29.578 Z-1.595
N3635 X3.013 Z-1.604
N3640 X3.037 Y29.593 Z-1.613
N3645 X3.049 Y29.618 Z-1.622
N3650 X3.046 Y29.646 Z-1.631
N3655 X3.028 Y29.668 Z-1.64
N3660 X3.002 Y29.676 Z-1.649
N3665 X2.975 Y29.669 Z-1.658
N3670 X2.955 Y29.649 Z-1.668
N3675 X2.95 Y29.621 Z-1.677
N3680 X2.961 Y29.595 Z-1.686
N3685 X2.983 Y29.579 Z-1.695
N3690 X3.011 Y29.578 Z-1.704
N3695 X3.036 Y29.591 Z-1.713
N3700 X3.049 Y29.616 Z-1.722
N3705 X3.047 Y29.644 Z-1.731
N3710 X3.03 Y29.666 Z-1.74
N3715 X3.004 Y29.676 Z-1.749
N3720 X2.977 Y29.67 Z-1.758
N3725 X2.957 Y29.651 Z-1.767
N3730 X2.95 Y29.624 Z-1.776
N3735 X2.959 Y29.597 Z-1.785
N3740 X2.981 Y29.58 Z-1.794
N3745 X3.009 Y29.577 Z-1.803
N3750 X3.034 Y29.59 Z-1.812
N3755 X3.048 Y29.614 Z-1.821
N3760 Y29.642 Z-1.83
N3765 X3.032 Y29.665 Z-1.839
N3770 X3.006 Y29.676 Z-1.848
N3775 X2.979 Y29.671 Z-1.857
N3780 X2.958 Y29.653 Z-1.866
N3785 X2.95 Y29.626 Z-1.875
N3790 X2.958 Y29.599 Z-1.884
N3795 X2.979 Y29.581 Z-1.893
N3800 X3.007 Y29.577 Z-1.902
N3805 X3.032 Y29.588 Z-1.911
N3810 X3.048 Y29.611 Z-1.92
N3815 Y29.639 Z-1.929
N3820 X3.034 Y29.663 Z-1.938
N3825 X3.008 Y29.676 Z-1.947
N3830 X2.981 Y29.672 Z-1.956
N3835 X2.959 Y29.655 Z-1.965
N3840 X2.95 Y29.628 Z-1.974
N3845 X2.957 Y29.601 Z-1.983
N3850 X2.977 Y29.582 Z-1.992
N3855 X3.005 Y29.576 Z-2.001
N3860 X3.031 Y29.587 Z-2.01
N3865 X3.047 Y29.609 Z-2.019
N3870 X3.049 Y29.637 Z-2.029
N3875 X3.035 Y29.662 Z-2.038
N3880 X3.011 Y29.675 Z-2.047
N3885 X2.983 Y29.673 Z-2.056
N3890 X2.96 Y29.657 Z-2.065
N3895 X2.95 Y29.631 Z-2.074
N3900 X2.956 Y29.603 Z-2.083
N3905 X2.975 Y29.583 Z-2.092
N3910 X3.002 Y29.576 Z-2.101
N3915 X3.029 Y29.585 Z-2.11
N3920 X3.046 Y29.607 Z-2.119
N3925 X3.049 Y29.635 Z-2.128
N3930 X3.037 Y29.66 Z-2.137
N3935 X3.013 Y29.675 Z-2.146
N3940 X2.985 Y29.674 Z-2.155
N3945 X2.962 Y29.658 Z-2.164
N3950 X2.95 Y29.633 Z-2.173
N3955 X2.955 Y29.605 Z-2.182
N3960 X2.973 Y29.584 Z-2.191
N3965 X3 Y29.576 Z-2.2
N3970 G3 Y29.676 J0.05
N3975 Y29.576 J-0.05
N3980 G1 X3.018 Y29.584
N3985 X3.025 Y29.601
N3990 X3 Y29.626
N3995 G0 Z2.3
N4000 X23.888 Y28.986
N4005 Z2
N4010 G1 Z0.3 F50
N4015 X23.838 Y28.936
N4020 X23.845 Y28.911
N4025 X23.863 Y28.893
N4030 X23.888 Y28.886
N4035 X23.927 Y28.894 Z0.294 F800
N4040 X23.96 Y28.916 Z0.287
N4045 X23.982 Y28.95 Z0.281
N4050 X23.988 Y28.989 Z0.275
N4055 X23.979 Y29.027 Z0.268
N4060 X23.956 Y29.059 Z0.262
N4065 X23.922 Y29.08 Z0.256
N4070 X23.883 Y29.086 Z0.249
N4075 X23.845 Y29.076 Z0.243
N4080 X23.813 Y29.052 Z0.236
N4085 X23.793 Y29.017 Z0.23
N4090 X23.789 Y28.978 Z0.224
N4095 X23.8 Y28.94 Z0.217
N4100 X23.825 Y28.909 Z0.211
N4105 X23.86 Y28.89 Z0.205
N4110 X23.899 Y28.886 Z0.198
N4115 X23.937 Y28.898 Z0.192
N4120 X23.967 Y28.924 Z0.186
N4125 X23.985 Y28.96 Z0.179
N4130 X23.987 Y28.999 Z0.173
N4135 X23.975 Y29.037 Z0.167
N4140 X23.948 Y29.066 Z0.16
N4145 X23.912 Y29.083 Z0.154
N4150 X23.872 Y29.085 Z0.147
N4155 X23.835 Y29.071 Z0.141
N4160 X23.807 Y29.043 Z0.135
N4165 X23.791 Y29.007 Z0.128
N4170 X23.79 Y28.967 Z0.122
N4175 X23.805 Y28.931 Z0.116
N4180 X23.833 Y28.903 Z0.109
N4185 X23.87 Y28.888 Z0.103
N4190 X23.91 Z0.097
N4195 X23.946 Y28.904 Z0.09
N4200 X23.973 Y28.933 Z0.084
N4205 X23.987 Y28.97 Z0.078
N4210 X23.986 Y29.01 Z0.071
N4215 X23.969 Y29.046 Z0.065
N4220 X23.939 Y29.072 Z0.058
N4225 X23.902 Y29.085 Z0.052
N4230 X23.862 Y29.082 Z0.046
N4235 X23.827 Y29.065 Z0.039
N4240 X23.801 Y29.034 Z0.033
N4245 X23.789 Y28.997 Z0.027
N4250 X23.793 Y28.957 Z0.02
N4255 X23.811 Y28.922 Z0.014
N4260 X23.842 Y28.897 Z0.008
N4265 X23.88 Y28.886 Z0.001
N4270 X23.92 Y28.891 Z-0.005
N4275 X23.954 Y28.911 Z-0.011
N4280 X23.978 Y28.942 Z-0.018
N4285 X23.988 Y28.981 Z-0.024
N4290 X23.982 Y29.02 Z-0.031
N4295 X23.962 Y29.054 Z-0.037
N4300 X23.93 Y29.077 Z-0.043
N4305 X23.891 Y29.086 Z-0.05
N4310 X23.852 Y29.079 Z-0.056
N4315 X23.819 Y29.058 Z-0.062
N4320 X23.796 Y29.025 Z-0.069
N4325 X23.788 Y28.986 Z-0.075
N4330 X23.796 Y28.947 Z-0.081
N4335 X23.819 Y28.914 Z-0.088
N4340 X23.852 Y28.893 Z-0.094
N4345 X23.891 Y28.886 Z-0.1
N4350 X23.93 Y28.895 Z-0.107
N4355 X23.962 Y28.918 Z-0.113
N4360 X23.982 Y28.952 Z-0.119
N4365 X23.988 Y28.991 Z-0.126
N4370 X23.978 Y29.03 Z-0.132
N4375 X23.954 Y29.061 Z-0.139
N4380 X23.92 Y29.081 Z-0.145
N4385 X23.88 Y29.086 Z-0.151
N4390 X23.842 Y29.075 Z-0.158
N4395 X23.811 Y29.05 Z-0.164
N4400 X23.793 Y29.015 Z-0.17
N4405 X23.789 Y28.975 Z-0.177
N4410 X23.801 Y28.937 Z-0.183
N4415 X23.827 Y28.907 Z-0.189
N4420 X23.862 Y28.889 Z-0.196
N4425 X23.902 Y28.887 Z-0.202
N4430 X23.939 Y28.9 Z-0.208
N4435 X23.969 Y28.926 Z-0.215
N4440 X23.986 Y28.962 Z-0.221
N4445 X23.987 Y29.002 Z-0.228
N4450 X23.973 Y29.039 Z-0.234
N4455 X23.946 Y29.068 Z-0.24
N4460 X23.91 Y29.084 Z-0.247
N4465 X23.87 Z-0.253
N4470 X23.833 Y29.069 Z-0.259
N4475 X23.805 Y29.041 Z-0.266
N4480 X23.79 Y29.004 Z-0.272
N4485 X23.791 Y28.965 Z-0.278
N4490 X23.807 Y28.928 Z-0.285
N4495 X23.835 Y28.901 Z-0.291
N4500 X23.872 Y28.887 Z-0.297
N4505 X23.912 Y28.889 Z-0.304
N4510 X23.948 Y28.906 Z-0.31
N4515 X23.975 Y28.935 Z-0.317
N4520 X23.987 Y28.973 Z-0.323
N4525 X23.985 Y29.012 Z-0.329
N4530 X23.967 Y29.048 Z-0.336
N4535 X23.937 Y29.073 Z-0.342
N4540 X23.899 Y29.085 Z-0.348
N4545 X23.86 Y29.082 Z-0.355
N4550 X23.825 Y29.063 Z-0.361
N4555 X23.8 Y29.032 Z-0.367
N4560 X23.789 Y28.994 Z-0.374
N4565 X23.793 Y28.955 Z-0.38
N4570 X23.813 Y28.92 Z-0.386
N4575 X23.845 Y28.896 Z-0.393
N4580 X23.883 Y28.886 Z-0.399
N4585 X23.922 Y28.892 Z-0.406
N4590 X23.956 Y28.912 Z-0.412
N4595 X23.979 Y28.945 Z-0.418
N4600 X23.988 Y28.983 Z-0.425
N4605 X23.982 Y29.022 Z-0.431
N4610 X23.96 Y29.056 Z-0.437
N4615 X23.927 Y29.078 Z-0.444
N4620 X23.888 Y29.086 Z-0.45
N4625 X23.849 Y29.078 Z-0.456
N4630 X23.817 Y29.056 Z-0.463
N4635 X23.795 Y29.022 Z-0.469
N4640 X23.788 Y28.983 Z-0.475
N4645 X23.797 Y28.945 Z-0.482
N4650 X23.821 Y28.912 Z-0.488
N4655 X23.854 Y28.892 Z-0.494
N4660 X23.894 Y28.886 Z-0.501
N4665 X23.932 Y28.896 Z-0.507
N4670 X23.964 Y28.92 Z-0.514
N4675 X23.983 Y28.955 Z-0.52
N4680 X23.988 Y28.994 Z-0.526
N4685 X23.977 Y29.032 Z-0.533
N4690 X23.952 Y29.063 Z-0.539
N4695 X23.917 Y29.082 Z-0.545
N4700 X23.878 Y29.085 Z-0.552
N4705 X23.84 Y29.073 Z-0.558
N4710 X23.81 Y29.048 Z-0.564
N4715 X23.792 Y29.012 Z-0.571
N4720 X23.789 Y28.973 Z-0.577
N4725 X23.802 Y28.935 Z-0.583
N4730 X23.829 Y28.906 Z-0.59
N4735 X23.865 Y28.889 Z-0.596
N4740 X23.904 Y28.887 Z-0.603
N4745 X23.941 Y28.901 Z-0.609
N4750 X23.97 Y28.928 Z-0.615
N4755 X23.986 Y28.965 Z-0.622
N4760 X23.987 Y29.004 Z-0.628
N4765 X23.972 Y29.041 Z-0.634
N4770 X23.944 Y29.069 Z-0.641
N4775 X23.907 Y29.084 Z-0.647
N4780 X23.867 Z-0.653
N4785 X23.831 Y29.068 Z-0.66
N4790 X23.804 Y29.039 Z-0.666
N4795 X23.79 Y29.002 Z-0.672
N4800 X23.791 Y28.962 Z-0.679
N4805 X23.808 Y28.926 Z-0.685
N4810 X23.838 Y28.9 Z-0.692
N4815 X23.875 Y28.887 Z-0.698
N4820 X23.915 Y28.889 Z-0.704
N4825 X23.95 Y28.907 Z-0.711
N4830 X23.976 Y28.937 Z-0.717
N4835 X23.988 Y28.975 Z-0.723
N4840 X23.984 Y29.015 Z-0.73
N4845 X23.965 Y29.05 Z-0.736
N4850 X23.934 Y29.075 Z-0.742
N4855 X23.896 Y29.086 Z-0.749
N4860 X23.857 Y29.081 Z-0.755
N4865 X23.823 Y29.061 Z-0.761
N4870 X23.798 Y29.03 Z-0.768
N4875 X23.789 Y28.991 Z-0.774
N4880 X23.794 Y28.952 Z-0.781
N4885 X23.815 Y28.918 Z-0.787
N4890 X23.847 Y28.895 Z-0.793
N4895 X23.886 Y28.886 Z-0.8
N4900 X23.925 Y28.893 Z-0.806
N4905 X23.958 Y28.914 Z-0.812
N4910 X23.981 Y28.947 Z-0.819
N4915 X23.988 Y28.986 Z-0.825
N4920 X23.981 Y29.025 Z-0.831
N4925 X23.958 Y29.058 Z-0.838
N4930 X23.925 Y29.079 Z-0.844
N4935 X23.886 Y29.086 Z-0.85
N4940 X23.847 Y29.077 Z-0.857
N4945 X23.815 Y29.054 Z-0.863
N4950 X23.794 Y29.02 Z-0.869
N4955 X23.789 Y28.981 Z-0.876
N4960 X23.798 Y28.942 Z-0.882
N4965 X23.823 Y28.911 Z-0.889
N4970 X23.857 Y28.891 Z-0.895
N4975 X23.896 Y28.886 Z-0.901
N4980 X23.934 Y28.897 Z-0.908
N4985 X23.965 Y28.922 Z-0.914
N4990 X23.984 Y28.957 Z-0.92
N4995 X23.988 Y28.997 Z-0.927
N5000 X23.976 Y29.034 Z-0.933
N5005 X23.95 Y29.065 Z-0.939
N5010 X23.915 Y29.082 Z-0.946
N5015 X23.875 Y29.085 Z-0.952
N5020 X23.838 Y29.072 Z-0.958
N5025 X23.808 Y29.046 Z-0.965
N5030 X23.791 Y29.01 Z-0.971
N5035 X23.79 Y28.97 Z-0.978
N5040 X23.804 Y28.933 Z-0.984
N5045 X23.831 Y28.904 Z-0.99
N5050 X23.867 Y28.888 Z-0.997
N5055 X23.907 Z-1.003
N5060 X23.944 Y28.903 Z-1.009
N5065 X23.972 Y28.931 Z-1.016
N5070 X23.987 Y28.967 Z-1.022
N5075 X23.986 Y29.007 Z-1.028
N5080 X23.97 Y29.043 Z-1.035
N5085 X23.941 Y29.071 Z-1.041
N5090 X23.904 Y29.085 Z-1.047
N5095 X23.865 Y29.083 Z-1.054
N5100 X23.829 Y29.066 Z-1.06
N5105 X23.802 Y29.037 Z-1.067
N5110 X23.789 Y28.999 Z-1.073
N5115 X23.792 Y28.96 Z-1.079
N5120 X23.81 Y28.924 Z-1.086
N5125 X23.84 Y28.898 Z-1.092
N5130 X23.878 Y28.886 Z-1.098
N5135 X23.917 Y28.89 Z-1.105
N5140 X23.952 Y28.909 Z-1.111
N5145 X23.977 Y28.94 Z-1.117
N5150 X23.988 Y28.978 Z-1.124
N5155 X23.983 Y29.017 Z-1.13
N5160 X23.964 Y29.052 Z-1.136
N5165 X23.932 Y29.076 Z-1.143
N5170 X23.894 Y29.086 Z-1.149
N5175 X23.854 Y29.08 Z-1.156
N5180 X23.821 Y29.059 Z-1.162
N5185 X23.797 Y29.027 Z-1.168
N5190 X23.788 Y28.989 Z-1.175
N5195 X23.795 Y28.95 Z-1.181
N5200 X23.817 Y28.916 Z-1.187
N5205 X23.849 Y28.894 Z-1.194
N5210 X23.888 Y28.886 Z-1.2
N5215 G3 Y29.086 J0.1
N5220 Y28.886 J-0.1
N5225 G1 X23.913 Y28.893
N5230 X23.932 Y28.911
N5235 X23.938 Y28.936
N5240 X23.888 Y28.986
N5245 G0 Z2.3
N5250 X44.112
N5255 Z2
N5260 G1 Z0.3 F50
N5265 X44.162 Y29.036
N5270 X44.155 Y29.061
N5275 X44.137 Y29.079
N5280 X44.112 Y29.086
N5285 X44.073 Y29.078 Z0.294 F800
N5290 X44.04 Y29.056 Z0.287
N5295 X44.018 Y29.022 Z0.281
N5300 X44.012 Y28.983 Z0.275
N5305 X44.021 Y28.945 Z0.268
N5310 X44.044 Y28.912 Z0.262
N5315 X44.078 Y28.892 Z0.256
N5320 X44.117 Y28.886 Z0.249
N5325 X44.155 Y28.896 Z0.243
N5330 X44.187 Y28.92 Z0.236
N5335 X44.207 Y28.955 Z0.23
N5340 X44.211 Y28.994 Z0.224
N5345 X44.2 Y29.032 Z0.217
N5350 X44.175 Y29.063 Z0.211
N5355 X44.14 Y29.082 Z0.205
N5360 X44.101 Y29.085 Z0.198
N5365 X44.063 Y29.073 Z0.192
N5370 X44.033 Y29.048 Z0.186
N5375 X44.015 Y29.012 Z0.179
N5380 X44.013 Y28.973 Z0.173
N5385 X44.025 Y28.935 Z0.167
N5390 X44.052 Y28.906 Z0.16
N5395 X44.088 Y28.889 Z0.154
N5400 X44.128 Y28.887 Z0.147
N5405 X44.165 Y28.901 Z0.141
N5410 X44.193 Y28.928 Z0.135
N5415 X44.209 Y28.965 Z0.128
N5420 X44.21 Y29.004 Z0.122
N5425 X44.195 Y29.041 Z0.116
N5430 X44.167 Y29.069 Z0.109
N5435 X44.13 Y29.084 Z0.103
N5440 X44.09 Z0.097
N5445 X44.054 Y29.068 Z0.09
N5450 X44.027 Y29.039 Z0.084
N5455 X44.013 Y29.002 Z0.078
N5460 X44.014 Y28.962 Z0.071
N5465 X44.031 Y28.926 Z0.065
N5470 X44.061 Y28.9 Z0.058
N5475 X44.098 Y28.887 Z0.052
N5480 X44.138 Y28.889 Z0.046
N5485 X44.173 Y28.907 Z0.039
N5490 X44.199 Y28.937 Z0.033
N5495 X44.211 Y28.975 Z0.027
N5500 X44.207 Y29.015 Z0.02
N5505 X44.189 Y29.05 Z0.014
N5510 X44.158 Y29.075 Z0.008
N5515 X44.12 Y29.086 Z0.001
N5520 X44.08 Y29.081 Z-0.005
N5525 X44.046 Y29.061 Z-0.011
N5530 X44.022 Y29.03 Z-0.018
N5535 X44.012 Y28.991 Z-0.024
N5540 X44.018 Y28.952 Z-0.031
N5545 X44.038 Y28.918 Z-0.037
N5550 X44.07 Y28.895 Z-0.043
N5555 X44.109 Y28.886 Z-0.05
N5560 X44.148 Y28.893 Z-0.056
N5565 X44.181 Y28.914 Z-0.062
N5570 X44.204 Y28.947 Z-0.069
N5575 X44.212 Y28.986 Z-0.075
N5580 X44.204 Y29.025 Z-0.081
N5585 X44.181 Y29.058 Z-0.088
N5590 X44.148 Y29.079 Z-0.094
N5595 X44.109 Y29.086 Z-0.1
N5600 X44.07 Y29.077 Z-0.107
N5605 X44.038 Y29.054 Z-0.113
N5610 X44.018 Y29.02 Z-0.119
N5615 X44.012 Y28.981 Z-0.126
N5620 X44.022 Y28.942 Z-0.132
N5625 X44.046 Y28.911 Z-0.139
N5630 X44.08 Y28.891 Z-0.145
N5635 X44.12 Y28.886 Z-0.151
N5640 X44.158 Y28.897 Z-0.158
N5645 X44.189 Y28.922 Z-0.164
N5650 X44.207 Y28.957 Z-0.17
N5655 X44.211 Y28.997 Z-0.177
N5660 X44.199 Y29.034 Z-0.183
N5665 X44.173 Y29.065 Z-0.189
N5670 X44.138 Y29.082 Z-0.196
N5675 X44.098 Y29.085 Z-0.202
N5680 X44.061 Y29.072 Z-0.208
N5685 X44.031 Y29.046 Z-0.215
N5690 X44.014 Y29.01 Z-0.221
N5695 X44.013 Y28.97 Z-0.228
N5700 X44.027 Y28.933 Z-0.234
N5705 X44.054 Y28.904 Z-0.24
N5710 X44.09 Y28.888 Z-0.247
N5715 X44.13 Z-0.253
N5720 X44.167 Y28.903 Z-0.259
N5725 X44.195 Y28.931 Z-0.266
N5730 X44.21 Y28.967 Z-0.272
N5735 X44.209 Y29.007 Z-0.278
N5740 X44.193 Y29.043 Z-0.285
N5745 X44.165 Y29.071 Z-0.291
N5750 X44.128 Y29.085 Z-0.297
N5755 X44.088 Y29.083 Z-0.304
N5760 X44.052 Y29.066 Z-0.31
N5765 X44.025 Y29.037 Z-0.317
N5770 X44.013 Y28.999 Z-0.323
N5775 X44.015 Y28.96 Z-0.329
N5780 X44.033 Y28.924 Z-0.336
N5785 X44.063 Y28.898 Z-0.342
N5790 X44.101 Y28.886 Z-0.348
N5795 X44.14 Y28.89 Z-0.355
N5800 X44.175 Y28.909 Z-0.361
N5805 X44.2 Y28.94 Z-0.367
N5810 X44.211 Y28.978 Z-0.374
N5815 X44.207 Y29.017 Z-0.38
N5820 X44.187 Y29.052 Z-0.386
N5825 X44.155 Y29.076 Z-0.393
N5830 X44.117 Y29.086 Z-0.399
N5835 X44.078 Y29.08 Z-0.406
N5840 X44.044 Y29.059 Z-0.412
N5845 X44.021 Y29.027 Z-0.418
N5850 X44.012 Y28.989 Z-0.425
N5855 X44.018 Y28.95 Z-0.431
N5860 X44.04 Y28.916 Z-0.437
N5865 X44.073 Y28.894 Z-0.444
N5870 X44.112 Y28.886 Z-0.45
N5875 X44.151 Y28.894 Z-0.456
N5880 X44.183 Y28.916 Z-0.463
N5885 X44.205 Y28.95 Z-0.469
N5890 X44.212 Y28.989 Z-0.475
N5895 X44.203 Y29.027 Z-0.482
N5900 X44.179 Y29.059 Z-0.488
N5905 X44.146 Y29.08 Z-0.494
N5910 X44.106 Y29.086 Z-0.501
N5915 X44.068 Y29.076 Z-0.507
N5920 X44.036 Y29.052 Z-0.514
N5925 X44.017 Y29.017 Z-0.52
N5930 X44.012 Y28.978 Z-0.526
N5935 X44.023 Y28.94 Z-0.533
N5940 X44.048 Y28.909 Z-0.539
N5945 X44.083 Y28.89 Z-0.545
N5950 X44.122 Y28.886 Z-0.552
N5955 X44.16 Y28.898 Z-0.558
N5960 X44.19 Y28.924 Z-0.564
N5965 X44.208 Y28.96 Z-0.571
N5970 X44.211 Y28.999 Z-0.577
N5975 X44.198 Y29.037 Z-0.583
N5980 X44.171 Y29.066 Z-0.59
N5985 X44.135 Y29.083 Z-0.596
N5990 X44.096 Y29.085 Z-0.603
N5995 X44.059 Y29.071 Z-0.609
N6000 X44.03 Y29.043 Z-0.615
N6005 X44.014 Y29.007 Z-0.622
N6010 X44.013 Y28.967 Z-0.628
N6015 X44.028 Y28.931 Z-0.634
N6020 X44.056 Y28.903 Z-0.641
N6025 X44.093 Y28.888 Z-0.647
N6030 X44.133 Z-0.653
N6035 X44.169 Y28.904 Z-0.66
N6040 X44.196 Y28.933 Z-0.666
N6045 X44.21 Y28.97 Z-0.672
N6050 X44.209 Y29.01 Z-0.679
N6055 X44.192 Y29.046 Z-0.685
N6060 X44.162 Y29.072 Z-0.692
N6065 X44.125 Y29.085 Z-0.698
N6070 X44.085 Y29.082 Z-0.704
N6075 X44.05 Y29.065 Z-0.711
N6080 X44.024 Y29.034 Z-0.717
N6085 X44.012 Y28.997 Z-0.723
N6090 X44.016 Y28.957 Z-0.73
N6095 X44.035 Y28.922 Z-0.736
N6100 X44.066 Y28.897 Z-0.742
N6105 X44.104 Y28.886 Z-0.749
N6110 X44.143 Y28.891 Z-0.755
N6115 X44.177 Y28.911 Z-0.761
N6120 X44.202 Y28.942 Z-0.768
N6125 X44.211 Y28.981 Z-0.774
N6130 X44.206 Y29.02 Z-0.781
N6135 X44.185 Y29.054 Z-0.787
N6140 X44.153 Y29.077 Z-0.793
N6145 X44.114 Y29.086 Z-0.8
N6150 X44.075 Y29.079 Z-0.806
N6155 X44.042 Y29.058 Z-0.812
N6160 X44.019 Y29.025 Z-0.819
N6165 X44.012 Y28.986 Z-0.825
N6170 X44.019 Y28.947 Z-0.831
N6175 X44.042 Y28.914 Z-0.838
N6180 X44.075 Y28.893 Z-0.844
N6185 X44.114 Y28.886 Z-0.85
N6190 X44.153 Y28.895 Z-0.857
N6195 X44.185 Y28.918 Z-0.863
N6200 X44.206 Y28.952 Z-0.869
N6205 X44.211 Y28.991 Z-0.876
N6210 X44.202 Y29.03 Z-0.882
N6215 X44.177 Y29.061 Z-0.889
N6220 X44.143 Y29.081 Z-0.895
N6225 X44.104 Y29.086 Z-0.901
N6230 X44.066 Y29.075 Z-0.908
N6235 X44.035 Y29.05 Z-0.914
N6240 X44.016 Y29.015 Z-0.92
N6245 X44.012 Y28.975 Z-0.927
N6250 X44.024 Y28.937 Z-0.933
N6255 X44.05 Y28.907 Z-0.939
N6260 X44.085 Y28.889 Z-0.946
N6265 X44.125 Y28.887 Z-0.952
N6270 X44.162 Y28.9 Z-0.958
N6275 X44.192 Y28.926 Z-0.965
N6280 X44.209 Y28.962 Z-0.971
N6285 X44.21 Y29.002 Z-0.978
N6290 X44.196 Y29.039 Z-0.984
N6295 X44.169 Y29.068 Z-0.99
N6300 X44.133 Y29.084 Z-0.997
N6305 X44.093 Z-1.003
N6310 X44.056 Y29.069 Z-1.009
N6315 X44.028 Y29.041 Z-1.016
N6320 X44.013 Y29.004 Z-1.022
N6325 X44.014 Y28.965 Z-1.028
N6330 X44.03 Y28.928 Z-1.035
N6335 X44.059 Y28.901 Z-1.041
N6340 X44.096 Y28.887 Z-1.047
N6345 X44.135 Y28.889 Z-1.054
N6350 X44.171 Y28.906 Z-1.06
N6355 X44.198 Y28.935 Z-1.067
N6360 X44.211 Y28.973 Z-1.073
N6365 X44.208 Y29.012 Z-1.079
N6370 X44.19 Y29.048 Z-1.086
N6375 X44.16 Y29.073 Z-1.092
N6380 X44.122 Y29.085 Z-1.098
N6385 X44.083 Y29.082 Z-1.105
N6390 X44.048 Y29.063 Z-1.111
N6395 X44.023 Y29.032 Z-1.117
N6400 X44.012 Y28.994 Z-1.124
N6405 X44.017 Y28.955 Z-1.13
N6410 X44.036 Y28.92 Z-1.136
N6415 X44.068 Y28.896 Z-1.143
N6420 X44.106 Y28.886 Z-1.149
N6425 X44.146 Y28.892 Z-1.156
N6430 X44.179 Y28.912 Z-1.162
N6435 X44.203 Y28.945 Z-1.168
N6440 X44.212 Y28.983 Z-1.175
N6445 X44.205 Y29.022 Z-1.181
N6450 X44.183 Y29.056 Z-1.187
N6455 X44.151 Y29.078 Z-1.194
N6460 X44.112 Y29.086 Z-1.2
N6465 G3 Y28.886 J-0.1
N6470 Y29.086 J0.1
N6475 G1 X44.087 Y29.079
N6480 X44.068 Y29.061
N6485 X44.062 Y29.036
N6490 X44.112 Y28.986
N6495 G0 Z2.3
N6500 X65 Y29.626
N6505 Z2
N6510 G1 Z0.3 F50
N6515 X65.025 Y29.651
N6520 X65.018 Y29.669
N6525 X65 Y29.676
N6530 X64.973 Y29.668 Z0.291 F800
N6535 X64.955 Y29.647 Z0.282
N6540 X64.95 Y29.62 Z0.273
N6545 X64.962 Y29.594 Z0.264
N6550 X64.985 Y29.579 Z0.255
N6555 X65.013 Y29.578 Z0.246
N6560 X65.037 Y29.592 Z0.237
N6565 X65.049 Y29.618 Z0.228
N6570 X65.046 Y29.645 Z0.219
N6575 X65.029 Y29.667 Z0.21
N6580 X65.002 Y29.676 Z0.201
N6585 X64.975 Y29.67 Z0.192
N6590 X64.956 Y29.649 Z0.183
N6595 X64.95 Y29.622 Z0.174
N6600 X64.96 Y29.596 Z0.165
N6605 X64.983 Y29.579 Z0.156
N6610 X65.011 Y29.577 Z0.147
N6615 X65.035 Y29.591 Z0.138
N6620 X65.049 Y29.615 Z0.129
N6625 X65.047 Y29.643 Z0.119
N6630 X65.031 Y29.666 Z0.11
N6635 X65.005 Y29.676 Z0.101
N6640 X64.977 Y29.671 Z0.092
N6645 X64.957 Y29.651 Z0.083
N6650 X64.95 Y29.624 Z0.074
N6655 X64.959 Y29.598 Z0.065
N6660 X64.981 Y29.58 Z0.056
N6665 X65.008 Y29.577 Z0.047
N6670 X65.034 Y29.589 Z0.038
N6675 X65.048 Y29.613 Z0.029
N6680 Y29.641 Z0.02
N6685 X65.032 Y29.664 Z0.011
N6690 X65.007 Y29.676 Z0.002
N6695 X64.979 Y29.672 Z-0.007
N6700 X64.958 Y29.653 Z-0.016
N6705 X64.95 Y29.627 Z-0.025
N6710 X64.958 Y29.6 Z-0.034
N6715 X64.979 Y29.581 Z-0.043
N6720 X65.006 Y29.577 Z-0.052
N6725 X65.032 Y29.588 Z-0.061
N6730 X65.048 Y29.611 Z-0.07
N6735 Y29.639 Z-0.079
N6740 X65.034 Y29.663 Z-0.088
N6745 X65.009 Y29.675 Z-0.097
N6750 X64.981 Y29.673 Z-0.106
N6755 X64.959 Y29.655 Z-0.115
N6760 X64.95 Y29.629 Z-0.124
N6765 X64.957 Y29.602 Z-0.133
N6770 X64.977 Y29.582 Z-0.142
N6775 X65.004 Y29.576 Z-0.151
N6780 X65.03 Y29.586 Z-0.16
N6785 X65.047 Y29.609 Z-0.169
N6790 X65.049 Y29.637 Z-0.178
N6795 X65.036 Y29.661 Z-0.187
N6800 X65.011 Y29.675 Z-0.196
N6805 X64.983 Y29.673 Z-0.205
N6810 X64.961 Y29.657 Z-0.214
N6815 X64.95 Y29.631 Z-0.223
N6820 X64.955 Y29.604 Z-0.232
N6825 X64.975 Y29.583 Z-0.242
N6830 X65.002 Y29.576 Z-0.251
N6835 X65.028 Y29.585 Z-0.26
N6840 X65.046 Y29.607 Z-0.269
N6845 X65.049 Y29.634 Z-0.278
N6850 X65.037 Y29.66 Z-0.287
N6855 X65.013 Y29.674 Z-0.296
N6860 X64.985 Z-0.305
N6865 X64.962 Y29.659 Z-0.314
N6870 X64.951 Y29.633 Z-0.323
N6875 X64.954 Y29.606 Z-0.332
N6880 X64.973 Y29.584 Z-0.341
N6885 X64.999 Y29.576 Z-0.35
N6890 X65.026 Y29.584 Z-0.359
N6895 X65.045 Y29.605 Z-0.368
N6900 X65.05 Y29.632 Z-0.377
N6905 X65.039 Y29.658 Z-0.386
N6910 X65.016 Y29.674 Z-0.395
N6915 X64.988 Y29.675 Z-0.404
N6920 X64.964 Y29.661 Z-0.413
N6925 X64.951 Y29.636 Z-0.422
N6930 X64.954 Y29.608 Z-0.431
N6935 X64.971 Y29.586 Z-0.44
N6940 X64.997 Y29.576 Z-0.449
N6945 X65.024 Y29.583 Z-0.458
N6950 X65.044 Y29.603 Z-0.467
N6955 X65.05 Y29.63 Z-0.476
N6960 X65.04 Y29.656 Z-0.485
N6965 X65.018 Y29.673 Z-0.494
N6970 X64.99 Y29.675 Z-0.503
N6975 X64.965 Y29.662 Z-0.512
N6980 X64.951 Y29.638 Z-0.521
N6985 X64.953 Y29.61 Z-0.53
N6990 X64.969 Y29.587 Z-0.539
N6995 X64.995 Y29.577 Z-0.548
N7000 X65.022 Y29.582 Z-0.557
N7005 X65.043 Y29.601 Z-0.566
N7010 X65.05 Y29.628 Z-0.575
N7015 X65.041 Y29.654 Z-0.584
N7020 X65.02 Y29.672 Z-0.594
N7025 X64.992 Y29.676 Z-0.603
N7030 X64.967 Y29.664 Z-0.612
N7035 X64.952 Y29.64 Z-0.621
N7040 Y29.612 Z-0.63
N7045 X64.967 Y29.589 Z-0.639
N7050 X64.993 Y29.577 Z-0.648
N7055 X65.02 Y29.581 Z-0.657
N7060 X65.042 Y29.599 Z-0.666
N7065 X65.05 Y29.625 Z-0.675
N7070 X65.043 Y29.652 Z-0.684
N7075 X65.022 Y29.671 Z-0.693
N7080 X64.994 Y29.676 Z-0.702
N7085 X64.969 Y29.665 Z-0.711
N7090 X64.953 Y29.642 Z-0.72
N7095 X64.951 Y29.614 Z-0.729
N7100 X64.966 Y29.59 Z-0.738
N7105 X64.99 Y29.577 Z-0.747
N7110 X65.018 Y29.58 Z-0.756
N7115 X65.04 Y29.597 Z-0.765
N7120 X65.05 Y29.623 Z-0.774
N7125 X65.044 Y29.65 Z-0.783
N7130 X65.024 Y29.67 Z-0.792
N7135 X64.997 Y29.676 Z-0.801
N7140 X64.97 Y29.667 Z-0.81
N7145 X64.953 Y29.644 Z-0.819
N7150 X64.951 Y29.616 Z-0.828
N7155 X64.964 Y29.592 Z-0.837
N7160 X64.988 Y29.578 Z-0.846
N7165 X65.016 Y29.579 Z-0.855
N7170 X65.039 Y29.595 Z-0.864
N7175 X65.05 Y29.621 Z-0.873
N7180 X65.045 Y29.648 Z-0.882
N7185 X65.026 Y29.669 Z-0.891
N7190 X64.999 Y29.676 Z-0.9
N7195 X64.972 Y29.668 Z-0.909
N7200 X64.954 Y29.646 Z-0.918
N7205 X64.951 Y29.619 Z-0.927
N7210 X64.962 Y29.593 Z-0.936
N7215 X64.986 Y29.578 Z-0.945
N7220 X65.014 Z-0.955
N7225 X65.038 Y29.593 Z-0.964
N7230 X65.049 Y29.619 Z-0.973
N7235 X65.046 Y29.646 Z-0.982
N7240 X65.028 Y29.668 Z-0.991
N7245 X65.001 Y29.676 Z-1
N7250 X64.974 Y29.669 Z-1.009
N7255 X64.955 Y29.648 Z-1.018
N7260 X64.95 Y29.621 Z-1.027
N7265 X64.961 Y29.595 Z-1.036
N7270 X64.984 Y29.579 Z-1.045
N7275 X65.012 Y29.578 Z-1.054
N7280 X65.036 Y29.592 Z-1.063
N7285 X65.049 Y29.616 Z-1.072
N7290 X65.047 Y29.644 Z-1.081
N7295 X65.03 Y29.667 Z-1.09
N7300 X65.003 Y29.676 Z-1.099
N7305 X64.976 Y29.67 Z-1.108
N7310 X64.956 Y29.65 Z-1.117
N7315 X64.95 Y29.623 Z-1.126
N7320 X64.96 Y29.597 Z-1.135
N7325 X64.982 Y29.58 Z-1.144
N7330 X65.01 Y29.577 Z-1.153
N7335 X65.034 Y29.59 Z-1.162
N7340 X65.049 Y29.614 Z-1.171
N7345 X65.047 Y29.642 Z-1.18
N7350 X65.031 Y29.665 Z-1.189
N7355 X65.006 Y29.676 Z-1.198
N7360 X64.978 Y29.671 Z-1.207
N7365 X64.957 Y29.652 Z-1.216
N7370 X64.95 Y29.625 Z-1.225
N7375 X64.958 Y29.599 Z-1.234
N7380 X64.98 Y29.581 Z-1.243
N7385 X65.007 Y29.577 Z-1.252
N7390 X65.033 Y29.589 Z-1.261
N7395 X65.048 Y29.612 Z-1.27
N7400 Y29.64 Z-1.279
N7405 X65.033 Y29.664 Z-1.288
N7410 X65.008 Y29.676 Z-1.297
N7415 X64.98 Y29.672 Z-1.306
N7420 X64.959 Y29.654 Z-1.316
N7425 X64.95 Y29.628 Z-1.325
N7430 X64.957 Y29.601 Z-1.334
N7435 X64.978 Y29.582 Z-1.343
N7440 X65.005 Y29.577 Z-1.352
N7445 X65.031 Y29.587 Z-1.361
N7450 X65.047 Y29.61 Z-1.37
N7455 X65.049 Y29.638 Z-1.379
N7460 X65.035 Y29.662 Z-1.388
N7465 X65.01 Y29.675 Z-1.397
N7470 X64.982 Y29.673 Z-1.406
N7475 X64.96 Y29.656 Z-1.415
N7480 X64.95 Y29.63 Z-1.424
N7485 X64.956 Y29.603 Z-1.433
N7490 X64.976 Y29.583 Z-1.442
N7495 X65.003 Y29.576 Z-1.451
N7500 X65.029 Y29.586 Z-1.46
N7505 X65.046 Y29.608 Z-1.469
N7510 X65.049 Y29.636 Z-1.478
N7515 X65.036 Y29.661 Z-1.487
N7520 X65.012 Y29.675 Z-1.496
N7525 X64.984 Y29.674 Z-1.505
N7530 X64.961 Y29.658 Z-1.514
N7535 X64.95 Y29.632 Z-1.523
N7540 X64.955 Y29.605 Z-1.532
N7545 X64.974 Y29.584 Z-1.541
N7550 X65.001 Y29.576 Z-1.55
N7555 X65.027 Y29.584 Z-1.559
N7560 X65.046 Y29.606 Z-1.568
N7565 X65.049 Y29.633 Z-1.577
N7570 X65.038 Y29.659 Z-1.586
N7575 X65.015 Y29.674 Z-1.595
N7580 X64.987 Z-1.604
N7585 X64.963 Y29.66 Z-1.613
N7590 X64.951 Y29.634 Z-1.622
N7595 X64.954 Y29.607 Z-1.631
N7600 X64.972 Y29.585 Z-1.64
N7605 X64.998 Y29.576 Z-1.649
N7610 X65.025 Y29.583 Z-1.658
N7615 X65.045 Y29.604 Z-1.668
N7620 X65.05 Y29.631 Z-1.677
N7625 X65.039 Y29.657 Z-1.686
N7630 X65.017 Y29.673 Z-1.695
N7635 X64.989 Y29.675 Z-1.704
N7640 X64.964 Y29.661 Z-1.713
N7645 X64.951 Y29.637 Z-1.722
N7650 X64.953 Y29.609 Z-1.731
N7655 X64.97 Y29.586 Z-1.74
N7660 X64.996 Y29.576 Z-1.749
N7665 X65.023 Y29.582 Z-1.758
N7670 X65.043 Y29.602 Z-1.767
N7675 X65.05 Y29.629 Z-1.776
N7680 X65.041 Y29.655 Z-1.785
N7685 X65.019 Y29.673 Z-1.794
N7690 X64.991 Y29.675 Z-1.803
N7695 X64.966 Y29.663 Z-1.812
N7700 X64.952 Y29.639 Z-1.821
N7705 Y29.611 Z-1.83
N7710 X64.968 Y29.588 Z-1.839
N7715 X64.994 Y29.577 Z-1.848
N7720 X65.021 Y29.581 Z-1.857
N7725 X65.042 Y29.6 Z-1.866
N7730 X65.05 Y29.627 Z-1.875
N7735 X65.042 Y29.653 Z-1.884
N7740 X65.021 Y29.672 Z-1.893
N7745 X64.993 Y29.676 Z-1.902
N7750 X64.968 Y29.664 Z-1.911
N7755 X64.952 Y29.641 Z-1.92
N7760 Y29.613 Z-1.929
N7765 X64.966 Y29.589 Z-1.938
N7770 X64.992 Y29.577 Z-1.947
N7775 X65.019 Y29.58 Z-1.956
N7780 X65.041 Y29.598 Z-1.965
N7785 X65.05 Y29.624 Z-1.974
N7790 X65.043 Y29.651 Z-1.983
N7795 X65.023 Y29.671 Z-1.992
N7800 X64.995 Y29.676 Z-2.001
N7805 X64.969 Y29.666 Z-2.01
N7810 X64.953 Y29.643 Z-2.019
N7815 X64.951 Y29.615 Z-2.029
N7820 X64.965 Y29.591 Z-2.038
N7825 X64.989 Y29.577 Z-2.047
N7830 X65.017 Y29.579 Z-2.056
N7835 X65.04 Y29.596 Z-2.065
N7840 X65.05 Y29.622 Z-2.074
N7845 X65.044 Y29.649 Z-2.083
N7850 X65.025 Y29.67 Z-2.092
N7855 X64.998 Y29.676 Z-2.101
N7860 X64.971 Y29.667 Z-2.11
N7865 X64.954 Y29.645 Z-2.119
N7870 X64.951 Y29.618 Z-2.128
N7875 X64.963 Y29.592 Z-2.137
N7880 X64.987 Y29.578 Z-2.146
N7885 X65.015 Y29.579 Z-2.155
N7890 X65.038 Y29.594 Z-2.164
N7895 X65.05 Y29.62 Z-2.173
N7900 X65.045 Y29.647 Z-2.182
N7905 X65.027 Y29.668 Z-2.191
N7910 X65 Y29.676 Z-2.2
N7915 G3 Y29.576 J-0.05
N7920 Y29.676 J0.05
N7925 G1 X64.982 Y29.669
N7930 X64.975 Y29.651
N7935 X65 Y29.626
N7940 G0 Z2.3
N7945 X79.75 Y10
N7950 Z1
N7955 G1 Z-0.7 F50
N7960 X79.775 Y10.025
N7965 X79.768 Y10.043
N7970 X79.75 Y10.05
N7975 X79.723 Y10.042 Z-0.709 F800
N7980 X79.705 Y10.021 Z-0.718
N7985 X79.7 Y9.994 Z-0.727
N7990 X79.711 Y9.968 Z-0.736
N7995 X79.734 Y9.953 Z-0.745
N8000 X79.762 Y9.951 Z-0.754
N8005 X79.786 Y9.965 Z-0.763
N8010 X79.799 Y9.99 Z-0.772
N8015 X79.797 Y10.018 Z-0.781
N8020 X79.78 Y10.04 Z-0.79
N8025 X79.754 Y10.05 Z-0.799
N8030 X79.727 Y10.044 Z-0.808
N8035 X79.707 Y10.025 Z-0.817
N8040 X79.7 Y9.998 Z-0.826
N8045 X79.709 Y9.971 Z-0.835
N8050 X79.731 Y9.954 Z-0.844
N8055 X79.758 Y9.951 Z-0.853
N8060 X79.783 Y9.963 Z-0.862
N8065 X79.798 Y9.987 Z-0.871
N8070 Y10.014 Z-0.88
N8075 X79.783 Y10.038 Z-0.889
N8080 X79.757 Y10.049 Z-0.898
N8085 X79.73 Y10.046 Z-0.907
N8090 X79.709 Y10.028 Z-0.916
N8095 X79.7 Y10.001 Z-0.925
N8100 X79.707 Y9.974 Z-0.934
N8105 X79.727 Y9.955 Z-0.943
N8110 X79.755 Y9.95 Z-0.951
N8115 X79.781 Y9.96 Z-0.96
N8120 X79.797 Y9.983 Z-0.969
N8125 X79.799 Y10.011 Z-0.978
N8130 X79.786 Y10.035 Z-0.987
N8135 X79.761 Y10.049 Z-0.996
N8140 X79.733 Y10.047 Z-1.005
N8145 X79.711 Y10.031 Z-1.014
N8150 X79.7 Y10.005 Z-1.023
N8155 X79.705 Y9.978 Z-1.032
N8160 X79.724 Y9.957 Z-1.041
N8165 X79.751 Y9.95 Z-1.05
N8170 X79.778 Y9.958 Z-1.059
N8175 X79.796 Y9.979 Z-1.068
N8180 X79.8 Y10.007 Z-1.077
N8185 X79.788 Y10.032 Z-1.086
N8190 X79.765 Y10.048 Z-1.095
N8195 X79.737 Z-1.104
N8200 X79.713 Y10.034 Z-1.113
N8205 X79.701 Y10.009 Z-1.122
N8210 X79.704 Y9.981 Z-1.131
N8215 X79.721 Y9.959 Z-1.14
N8220 X79.747 Y9.95 Z-1.149
N8225 X79.774 Y9.956 Z-1.158
N8230 X79.794 Y9.976 Z-1.167
N8235 X79.8 Y10.003 Z-1.176
N8240 X79.79 Y10.029 Z-1.185
N8245 X79.768 Y10.047 Z-1.194
N8250 X79.741 Y10.049 Z-1.203
N8255 X79.716 Y10.037 Z-1.212
N8260 X79.702 Y10.013 Z-1.221
N8265 Y9.985 Z-1.23
N8270 X79.718 Y9.962 Z-1.239
N8275 X79.743 Y9.95 Z-1.248
N8280 X79.771 Y9.955 Z-1.257
N8285 X79.792 Y9.973 Z-1.266
N8290 X79.8 Y10 Z-1.275
N8295 X79.792 Y10.026 Z-1.284
N8300 X79.772 Y10.045 Z-1.293
N8305 X79.744 Y10.05 Z-1.302
N8310 X79.719 Y10.039 Z-1.311
N8315 X79.703 Y10.016 Z-1.32
N8320 X79.701 Y9.988 Z-1.329
N8325 X79.715 Y9.964 Z-1.338
N8330 X79.74 Y9.951 Z-1.347
N8335 X79.767 Y9.953 Z-1.356
N8340 X79.79 Y9.97 Z-1.365
N8345 X79.8 Y9.996 Z-1.374
N8350 X79.794 Y10.023 Z-1.383
N8355 X79.775 Y10.043 Z-1.392
N8360 X79.748 Y10.05 Z-1.401
N8365 X79.722 Y10.041 Z-1.41
N8370 X79.704 Y10.02 Z-1.419
N8375 X79.701 Y9.992 Z-1.428
N8380 X79.713 Y9.967 Z-1.437
N8385 X79.736 Y9.952 Z-1.446
N8390 X79.764 Z-1.454
N8395 X79.787 Y9.967 Z-1.463
N8400 X79.799 Y9.992 Z-1.472
N8405 X79.796 Y10.02 Z-1.481
N8410 X79.778 Y10.041 Z-1.49
N8415 X79.752 Y10.05 Z-1.499
N8420 X79.725 Y10.043 Z-1.508
N8425 X79.706 Y10.023 Z-1.517
N8430 X79.7 Y9.996 Z-1.526
N8435 X79.71 Y9.97 Z-1.535
N8440 X79.733 Y9.953 Z-1.544
N8445 X79.76 Y9.951 Z-1.553
N8450 X79.785 Y9.964 Z-1.562
N8455 X79.799 Y9.988 Z-1.571
N8460 X79.797 Y10.016 Z-1.58
N8465 X79.781 Y10.039 Z-1.589
N8470 X79.756 Y10.05 Z-1.598
N8475 X79.728 Y10.045 Z-1.607
N8480 X79.708 Y10.026 Z-1.616
N8485 X79.7 Y10 Z-1.625
N8490 X79.708 Y9.973 Z-1.634
N8495 X79.729 Y9.955 Z-1.643
N8500 X79.757 Y9.95 Z-1.652
N8505 X79.782 Y9.962 Z-1.661
N8510 X79.798 Y9.985 Z-1.67
N8515 Y10.013 Z-1.679
N8520 X79.784 Y10.037 Z-1.688
N8525 X79.759 Y10.049 Z-1.697
N8530 X79.732 Y10.047 Z-1.706
N8535 X79.71 Y10.029 Z-1.715
N8540 X79.7 Y10.003 Z-1.724
N8545 X79.706 Y9.976 Z-1.733
N8550 X79.726 Y9.956 Z-1.742
N8555 X79.753 Y9.95 Z-1.751
N8560 X79.779 Y9.959 Z-1.76
N8565 X79.796 Y9.981 Z-1.769
N8570 X79.799 Y10.009 Z-1.778
N8575 X79.787 Y10.034 Z-1.787
N8580 X79.763 Y10.048 Z-1.796
N8585 X79.735 Z-1.805
N8590 X79.712 Y10.032 Z-1.814
N8595 X79.7 Y10.007 Z-1.823
N8600 X79.704 Y9.979 Z-1.832
N8605 X79.722 Y9.958 Z-1.841
N8610 X79.749 Y9.95 Z-1.85
N8615 X79.776 Y9.957 Z-1.859
N8620 X79.795 Y9.978 Z-1.868
N8625 X79.8 Y10.005 Z-1.877
N8630 X79.789 Y10.031 Z-1.886
N8635 X79.767 Y10.047 Z-1.895
N8640 X79.739 Y10.049 Z-1.904
N8645 X79.714 Y10.035 Z-1.913
N8650 X79.701 Y10.011 Z-1.922
N8655 X79.703 Y9.983 Z-1.931
N8660 X79.719 Y9.96 Z-1.94
N8665 X79.745 Y9.95 Z-1.949
N8670 X79.773 Y9.955 Z-1.957
N8675 X79.793 Y9.974 Z-1.966
N8680 X79.8 Y10.001 Z-1.975
N8685 X79.791 Y10.028 Z-1.984
N8690 X79.77 Y10.046 Z-1.993
N8695 X79.743 Y10.049 Z-2.002
N8700 X79.717 Y10.038 Z-2.011
N8705 X79.702 Y10.014 Z-2.02
N8710 Y9.987 Z-2.029
N8715 X79.717 Y9.963 Z-2.038
N8720 X79.742 Y9.951 Z-2.047
N8725 X79.769 Y9.954 Z-2.056
N8730 X79.791 Y9.971 Z-2.065
N8735 X79.8 Y9.998 Z-2.074
N8740 X79.793 Y10.025 Z-2.083
N8745 X79.773 Y10.044 Z-2.092
N8750 X79.746 Y10.05 Z-2.101
N8755 X79.72 Y10.04 Z-2.11
N8760 X79.703 Y10.018 Z-2.119
N8765 X79.701 Y9.99 Z-2.128
N8770 X79.714 Y9.965 Z-2.137
N8775 X79.738 Y9.951 Z-2.146
N8780 X79.766 Y9.953 Z-2.155
N8785 X79.789 Y9.968 Z-2.164
N8790 X79.8 Y9.994 Z-2.173
N8795 X79.795 Y10.021 Z-2.182
N8800 X79.777 Y10.042 Z-2.191
N8805 X79.75 Y10.05 Z-2.2
N8810 G3 Y9.95 J-0.05
N8815 Y10.05 J0.05
N8820 G1 X79.732 Y10.043
N8825 X79.725 Y10.025
N8830 X79.75 Y10
N8835 G0 Z2.3
N8840 X97.25
N8845 Z1
N8850 G1 Z-0.7 F50
N8855 X97.225 Y9.975
N8860 X97.232 Y9.957
N8865 X97.25 Y9.95
N8870 X97.277 Y9.958 Z-0.709 F800
N8875 X97.295 Y9.979 Z-0.718
N8880 X97.3 Y10.006 Z-0.727
N8885 X97.289 Y10.032 Z-0.736
N8890 X97.266 Y10.047 Z-0.745
N8895 X97.238 Y10.049 Z-0.754
N8900 X97.214 Y10.035 Z-0.763
N8905 X97.201 Y10.01 Z-0.772
N8910 X97.203 Y9.982 Z-0.781
N8915 X97.22 Y9.96 Z-0.79
N8920 X97.246 Y9.95 Z-0.799
N8925 X97.273 Y9.956 Z-0.808
N8930 X97.293 Y9.975 Z-0.817
N8935 X97.3 Y10.002 Z-0.826
N8940 X97.291 Y10.029 Z-0.835
N8945 X97.269 Y10.046 Z-0.844
N8950 X97.242 Y10.049 Z-0.853
N8955 X97.217 Y10.037 Z-0.862
N8960 X97.202 Y10.013 Z-0.871
N8965 Y9.986 Z-0.88
N8970 X97.217 Y9.962 Z-0.889
N8975 X97.243 Y9.951 Z-0.898
N8980 X97.27 Y9.954 Z-0.907
N8985 X97.291 Y9.972 Z-0.916
N8990 X97.3 Y9.999 Z-0.925
N8995 X97.293 Y10.026 Z-0.934
N9000 X97.273 Y10.045 Z-0.943
N9005 X97.245 Y10.05 Z-0.951
N9010 X97.219 Y10.04 Z-0.96
N9015 X97.203 Y10.017 Z-0.969
N9020 X97.201 Y9.989 Z-0.978
N9025 X97.214 Y9.965 Z-0.987
N9030 X97.239 Y9.951 Z-0.996
N9035 X97.267 Y9.953 Z-1.005
N9040 X97.289 Y9.969 Z-1.014
N9045 X97.3 Y9.995 Z-1.023
N9050 X97.295 Y10.022 Z-1.032
N9055 X97.276 Y10.043 Z-1.041
N9060 X97.249 Y10.05 Z-1.05
N9065 X97.222 Y10.042 Z-1.059
N9070 X97.204 Y10.021 Z-1.068
N9075 X97.2 Y9.993 Z-1.077
N9080 X97.212 Y9.968 Z-1.086
N9085 X97.235 Y9.952 Z-1.095
N9090 X97.263 Z-1.104
N9095 X97.287 Y9.966 Z-1.113
N9100 X97.299 Y9.991 Z-1.122
N9105 X97.296 Y10.019 Z-1.131
N9110 X97.279 Y10.041 Z-1.14
N9115 X97.253 Y10.05 Z-1.149
N9120 X97.226 Y10.044 Z-1.158
N9125 X97.206 Y10.024 Z-1.167
N9130 X97.2 Y9.997 Z-1.176
N9135 X97.21 Y9.971 Z-1.185
N9140 X97.232 Y9.953 Z-1.194
N9145 X97.259 Y9.951 Z-1.203
N9150 X97.284 Y9.963 Z-1.212
N9155 X97.298 Y9.987 Z-1.221
N9160 Y10.015 Z-1.23
N9165 X97.282 Y10.038 Z-1.239
N9170 X97.257 Y10.05 Z-1.248
N9175 X97.229 Y10.045 Z-1.257
N9180 X97.208 Y10.027 Z-1.266
N9185 X97.2 Y10 Z-1.275
N9190 X97.208 Y9.974 Z-1.284
N9195 X97.228 Y9.955 Z-1.293
N9200 X97.256 Y9.95 Z-1.302
N9205 X97.281 Y9.961 Z-1.311
N9210 X97.297 Y9.984 Z-1.32
N9215 X97.299 Y10.012 Z-1.329
N9220 X97.285 Y10.036 Z-1.338
N9225 X97.26 Y10.049 Z-1.347
N9230 X97.233 Y10.047 Z-1.356
N9235 X97.21 Y10.03 Z-1.365
N9240 X97.2 Y10.004 Z-1.374
N9245 X97.206 Y9.977 Z-1.383
N9250 X97.225 Y9.957 Z-1.392
N9255 X97.252 Y9.95 Z-1.401
N9260 X97.278 Y9.959 Z-1.41
N9265 X97.296 Y9.98 Z-1.419
N9270 X97.299 Y10.008 Z-1.428
N9275 X97.287 Y10.033 Z-1.437
N9280 X97.264 Y10.048 Z-1.446
N9285 X97.236 Z-1.454
N9290 X97.213 Y10.033 Z-1.463
N9295 X97.201 Y10.008 Z-1.472
N9300 X97.204 Y9.98 Z-1.481
N9305 X97.222 Y9.959 Z-1.49
N9310 X97.248 Y9.95 Z-1.499
N9315 X97.275 Y9.957 Z-1.508
N9320 X97.294 Y9.977 Z-1.517
N9325 X97.3 Y10.004 Z-1.526
N9330 X97.29 Y10.03 Z-1.535
N9335 X97.267 Y10.047 Z-1.544
N9340 X97.24 Y10.049 Z-1.553
N9345 X97.215 Y10.036 Z-1.562
N9350 X97.201 Y10.012 Z-1.571
N9355 X97.203 Y9.984 Z-1.58
N9360 X97.219 Y9.961 Z-1.589
N9365 X97.244 Y9.95 Z-1.598
N9370 X97.272 Y9.955 Z-1.607
N9375 X97.292 Y9.974 Z-1.616
N9380 X97.3 Y10 Z-1.625
N9385 X97.292 Y10.027 Z-1.634
N9390 X97.271 Y10.045 Z-1.643
N9395 X97.243 Y10.05 Z-1.652
N9400 X97.218 Y10.038 Z-1.661
N9405 X97.202 Y10.015 Z-1.67
N9410 Y9.987 Z-1.679
N9415 X97.216 Y9.963 Z-1.688
N9420 X97.241 Y9.951 Z-1.697
N9425 X97.268 Y9.953 Z-1.706
N9430 X97.29 Y9.971 Z-1.715
N9435 X97.3 Y9.997 Z-1.724
N9440 X97.294 Y10.024 Z-1.733
N9445 X97.274 Y10.044 Z-1.742
N9450 X97.247 Y10.05 Z-1.751
N9455 X97.221 Y10.041 Z-1.76
N9460 X97.204 Y10.019 Z-1.769
N9465 X97.201 Y9.991 Z-1.778
N9470 X97.213 Y9.966 Z-1.787
N9475 X97.237 Y9.952 Z-1.796
N9480 X97.265 Z-1.805
N9485 X97.288 Y9.968 Z-1.814
N9490 X97.3 Y9.993 Z-1.823
N9495 X97.296 Y10.021 Z-1.832
N9500 X97.278 Y10.042 Z-1.841
N9505 X97.251 Y10.05 Z-1.85
N9510 X97.224 Y10.043 Z-1.859
N9515 X97.205 Y10.022 Z-1.868
N9520 X97.2 Y9.995 Z-1.877
N9525 X97.211 Y9.969 Z-1.886
N9530 X97.233 Y9.953 Z-1.895
N9535 X97.261 Y9.951 Z-1.904
N9540 X97.286 Y9.965 Z-1.913
N9545 X97.299 Y9.989 Z-1.922
N9550 X97.297 Y10.017 Z-1.931
N9555 X97.281 Y10.04 Z-1.94
N9560 X97.255 Y10.05 Z-1.949
N9565 X97.227 Y10.045 Z-1.957
N9570 X97.207 Y10.026 Z-1.966
N9575 X97.2 Y9.999 Z-1.975
N9580 X97.209 Y9.972 Z-1.984
N9585 X97.23 Y9.954 Z-1.993
N9590 X97.257 Y9.951 Z-2.002
N9595 X97.283 Y9.962 Z-2.011
N9600 X97.298 Y9.986 Z-2.02
N9605 Y10.013 Z-2.029
N9610 X97.283 Y10.037 Z-2.038
N9615 X97.258 Y10.049 Z-2.047
N9620 X97.231 Y10.046 Z-2.056
N9625 X97.209 Y10.029 Z-2.065
N9630 X97.2 Y10.002 Z-2.074
N9635 X97.207 Y9.975 Z-2.083
N9640 X97.227 Y9.956 Z-2.092
N9645 X97.254 Y9.95 Z-2.101
N9650 X97.28 Y9.96 Z-2.11
N9655 X97.297 Y9.982 Z-2.119
N9660 X97.299 Y10.01 Z-2.128
N9665 X97.286 Y10.035 Z-2.137
N9670 X97.262 Y10.049 Z-2.146
N9675 X97.234 Y10.047 Z-2.155
N9680 X97.211 Y10.032 Z-2.164
N9685 X97.2 Y10.006 Z-2.173
N9690 X97.205 Y9.979 Z-2.182
N9695 X97.223 Y9.958 Z-2.191
N9700 X97.25 Y9.95 Z-2.2
N9705 G3 Y10.05 J0.05
N9710 Y9.95 J-0.05
N9715 G1 X97.268 Y9.957
N9720 X97.275 Y9.975
N9725 X97.25 Y10
N9730 G0 Z2.3
N9735 X111.75
N9740 Z1
N9745 G1 Z-0.7 F50
N9750 X111.775 Y10.025
N9755 X111.768 Y10.043
N9760 X111.75 Y10.05
N9765 X111.723 Y10.042 Z-0.709 F800
N9770 X111.705 Y10.021 Z-0.718
N9775 X111.7 Y9.994 Z-0.727
N9780 X111.711 Y9.968 Z-0.736
N9785 X111.734 Y9.953 Z-0.745
N9790 X111.762 Y9.951 Z-0.754
N9795 X111.786 Y9.965 Z-0.763
N9800 X111.799 Y9.99 Z-0.772
N9805 X111.797 Y10.018 Z-0.781
N9810 X111.78 Y10.04 Z-0.79
N9815 X111.754 Y10.05 Z-0.799
N9820 X111.727 Y10.044 Z-0.808
N9825 X111.707 Y10.025 Z-0.817
N9830 X111.7 Y9.998 Z-0.826
N9835 X111.709 Y9.971 Z-0.835
N9840 X111.731 Y9.954 Z-0.844
N9845 X111.758 Y9.951 Z-0.853
N9850 X111.783 Y9.963 Z-0.862
N9855 X111.798 Y9.987 Z-0.871
N9860 Y10.014 Z-0.88
N9865 X111.783 Y10.038 Z-0.889
N9870 X111.757 Y10.049 Z-0.898
N9875 X111.73 Y10.046 Z-0.907
N9880 X111.709 Y10.028 Z-0.916
N9885 X111.7 Y10.001 Z-0.925
N9890 X111.707 Y9.974 Z-0.934
N9895 X111.727 Y9.955 Z-0.943
N9900 X111.755 Y9.95 Z-0.951
N9905 X111.781 Y9.96 Z-0.96
N9910 X111.797 Y9.983 Z-0.969
N9915 X111.799 Y10.011 Z-0.978
N9920 X111.786 Y10.035 Z-0.987
N9925 X111.761 Y10.049 Z-0.996
N9930 X111.733 Y10.047 Z-1.005
N9935 X111.711 Y10.031 Z-1.014
N9940 X111.7 Y10.005 Z-1.023
N9945 X111.705 Y9.978 Z-1.032
N9950 X111.724 Y9.957 Z-1.041
N9955 X111.751 Y9.95 Z-1.05
N9960 X111.778 Y9.958 Z-1.059
N9965 X111.796 Y9.979 Z-1.068
N9970 X111.8 Y10.007 Z-1.077
N9975 X111.788 Y10.032 Z-1.086
N9980 X111.765 Y10.048 Z-1.095
N9985 X111.737 Z-1.104
N9990 X111.713 Y10.034 Z-1.113
N9995 X111.701 Y10.009 Z-1.122
N10000 X111.704 Y9.981 Z-1.131
N10005 X111.721 Y9.959 Z-1.14
N10010 X111.747 Y9.95 Z-1.149
N10015 X111.774 Y9.956 Z-1.158
N10020 X111.794 Y9.976 Z-1.167
N10025 X111.8 Y10.003 Z-1.176
N10030 X111.79 Y10.029 Z-1.185
N10035 X111.768 Y10.047 Z-1.194
N10040 X111.741 Y10.049 Z-1.203
N10045 X111.716 Y10.037 Z-1.212
N10050 X111.702 Y10.013 Z-1.221
N10055 Y9.985 Z-1.23
N10060 X111.718 Y9.962 Z-1.239
N10065 X111.743 Y9.95 Z-1.248
N10070 X111.771 Y9.955 Z-1.257
N10075 X111.792 Y9.973 Z-1.266
N10080 X111.8 Y10 Z-1.275
N10085 X111.792 Y10.026 Z-1.284
N10090 X111.772 Y10.045 Z-1.293
N10095 X111.744 Y10.05 Z-1.302
N10100 X111.719 Y10.039 Z-1.311
N10105 X111.703 Y10.016 Z-1.32
N10110 X111.701 Y9.988 Z-1.329
N10115 X111.715 Y9.964 Z-1.338
N10120 X111.74 Y9.951 Z-1.347
N10125 X111.767 Y9.953 Z-1.356
N10130 X111.79 Y9.97 Z-1.365
N10135 X111.8 Y9.996 Z-1.374
N10140 X111.794 Y10.023 Z-1.383
N10145 X111.775 Y10.043 Z-1.392
N10150 X111.748 Y10.05 Z-1.401
N10155 X111.722 Y10.041 Z-1.41
N10160 X111.704 Y10.02 Z-1.419
N10165 X111.701 Y9.992 Z-1.428
N10170 X111.713 Y9.967 Z-1.437
N10175 X111.736 Y9.952 Z-1.446
N10180 X111.764 Z-1.454
N10185 X111.787 Y9.967 Z-1.463
N10190 X111.799 Y9.992 Z-1.472
N10195 X111.796 Y10.02 Z-1.481
N10200 X111.778 Y10.041 Z-1.49
N10205 X111.752 Y10.05 Z-1.499
N10210 X111.725 Y10.043 Z-1.508
N10215 X111.706 Y10.023 Z-1.517
N10220 X111.7 Y9.996 Z-1.526
N10225 X111.71 Y9.97 Z-1.535
N10230 X111.733 Y9.953 Z-1.544
N10235 X111.76 Y9.951 Z-1.553
N10240 X111.785 Y9.964 Z-1.562
N10245 X111.799 Y9.988 Z-1.571
N10250 X111.797 Y10.016 Z-1.58
N10255 X111.781 Y10.039 Z-1.589
N10260 X111.756 Y10.05 Z-1.598
N10265 X111.728 Y10.045 Z-1.607
N10270 X111.708 Y10.026 Z-1.616
N10275 X111.7 Y10 Z-1.625
N10280 X111.708 Y9.973 Z-1.634
N10285 X111.729 Y9.955 Z-1.643
N10290 X111.757 Y9.95 Z-1.652
N10295 X111.782 Y9.962 Z-1.661
N10300 X111.798 Y9.985 Z-1.67
N10305 Y10.013 Z-1.679
N10310 X111.784 Y10.037 Z-1.688
N10315 X111.759 Y10.049 Z-1.697
N10320 X111.732 Y10.047 Z-1.706
N10325 X111.71 Y10.029 Z-1.715
N10330 X111.7 Y10.003 Z-1.724
N10335 X111.706 Y9.976 Z-1.733
N10340 X111.726 Y9.956 Z-1.742
N10345 X111.753 Y9.95 Z-1.751
N10350 X111.779 Y9.959 Z-1.76
N10355 X111.796 Y9.981 Z-1.769
N10360 X111.799 Y10.009 Z-1.778
N10365 X111.787 Y10.034 Z-1.787
N10370 X111.763 Y10.048 Z-1.796
N10375 X111.735 Z-1.805
N10380 X111.712 Y10.032 Z-1.814
N10385 X111.7 Y10.007 Z-1.823
N10390 X111.704 Y9.979 Z-1.832
N10395 X111.722 Y9.958 Z-1.841
N10400 X111.749 Y9.95 Z-1.85
N10405 X111.776 Y9.957 Z-1.859
N10410 X111.795 Y9.978 Z-1.868
N10415 X111.8 Y10.005 Z-1.877
N10420 X111.789 Y10.031 Z-1.886
N10425 X111.767 Y10.047 Z-1.895
N10430 X111.739 Y10.049 Z-1.904
N10435 X111.714 Y10.035 Z-1.913
N10440 X111.701 Y10.011 Z-1.922
N10445 X111.703 Y9.983 Z-1.931
N10450 X111.719 Y9.96 Z-1.94
N10455 X111.745 Y9.95 Z-1.949
N10460 X111.773 Y9.955 Z-1.957
N10465 X111.793 Y9.974 Z-1.966
N10470 X111.8 Y10.001 Z-1.975
N10475 X111.791 Y10.028 Z-1.984
N10480 X111.77 Y10.046 Z-1.993
N10485 X111.743 Y10.049 Z-2.002
N10490 X111.717 Y10.038 Z-2.011
N10495 X111.702 Y10.014 Z-2.02
N10500 Y9.987 Z-2.029
N10505 X111.717 Y9.963 Z-2.038
N10510 X111.742 Y9.951 Z-2.047
N10515 X111.769 Y9.954 Z-2.056
N10520 X111.791 Y9.971 Z-2.065
N10525 X111.8 Y9.998 Z-2.074
N10530 X111.793 Y10.025 Z-2.083
N10535 X111.773 Y10.044 Z-2.092
N10540 X111.746 Y10.05 Z-2.101
N10545 X111.72 Y10.04 Z-2.11
N10550 X111.703 Y10.018 Z-2.119
N10555 X111.701 Y9.99 Z-2.128
N10560 X111.714 Y9.965 Z-2.137
N10565 X111.738 Y9.951 Z-2.146
N10570 X111.766 Y9.953 Z-2.155
N10575 X111.789 Y9.968 Z-2.164
N10580 X111.8 Y9.994 Z-2.173
N10585 X111.795 Y10.021 Z-2.182
N10590 X111.777 Y10.042 Z-2.191
N10595 X111.75 Y10.05 Z-2.2
N10600 G3 Y9.95 J-0.05
N10605 Y10.05 J0.05
N10610 G1 X111.732 Y10.043
N10615 X111.725 Y10.025
N10620 X111.75 Y10
N10625 G0 Z2.3
N10630 X123.75
N10635 Z1
N10640 G1 Z-0.7 F50
N10645 X123.775 Y10.025
N10650 X123.768 Y10.043
N10655 X123.75 Y10.05
N10660 X123.723 Y10.042 Z-0.709 F800
N10665 X123.705 Y10.021 Z-0.718
N10670 X123.7 Y9.994 Z-0.727
N10675 X123.711 Y9.968 Z-0.736
N10680 X123.734 Y9.953 Z-0.745
N10685 X123.762 Y9.951 Z-0.754
N10690 X123.786 Y9.965 Z-0.763
N10695 X123.799 Y9.99 Z-0.772
N10700 X123.797 Y10.018 Z-0.781
N10705 X123.78 Y10.04 Z-0.79
N10710 X123.754 Y10.05 Z-0.799
N10715 X123.727 Y10.044 Z-0.808
N10720 X123.707 Y10.025 Z-0.817
N10725 X123.7 Y9.998 Z-0.826
N10730 X123.709 Y9.971 Z-0.835
N10735 X123.731 Y9.954 Z-0.844
N10740 X123.758 Y9.951 Z-0.853
N10745 X123.783 Y9.963 Z-0.862
N10750 X123.798 Y9.987 Z-0.871
N10755 Y10.014 Z-0.88
N10760 X123.783 Y10.038 Z-0.889
N10765 X123.757 Y10.049 Z-0.898
N10770 X123.73 Y10.046 Z-0.907
N10775 X123.709 Y10.028 Z-0.916
N10780 X123.7 Y10.001 Z-0.925
N10785 X123.707 Y9.974 Z-0.934
N10790 X123.727 Y9.955 Z-0.943
N10795 X123.755 Y9.95 Z-0.951
N10800 X123.781 Y9.96 Z-0.96
N10805 X123.797 Y9.983 Z-0.969
N10810 X123.799 Y10.011 Z-0.978
N10815 X123.786 Y10.035 Z-0.987
N10820 X123.761 Y10.049 Z-0.996
N10825 X123.733 Y10.047 Z-1.005
N10830 X123.711 Y10.031 Z-1.014
N10835 X123.7 Y10.005 Z-1.023
N10840 X123.705 Y9.978 Z-1.032
N10845 X123.724 Y9.957 Z-1.041
N10850 X123.751 Y9.95 Z-1.05
N10855 X123.778 Y9.958 Z-1.059
N10860 X123.796 Y9.979 Z-1.068
N10865 X123.8 Y10.007 Z-1.077
N10870 X123.788 Y10.032 Z-1.086
N10875 X123.765 Y10.048 Z-1.095
N10880 X123.737 Z-1.104
N10885 X123.713 Y10.034 Z-1.113
N10890 X123.701 Y10.009 Z-1.122
N10895 X123.704 Y9.981 Z-1.131
N10900 X123.721 Y9.959 Z-1.14
N10905 X123.747 Y9.95 Z-1.149
N10910 X123.774 Y9.956 Z-1.158
N10915 X123.794 Y9.976 Z-1.167
N10920 X123.8 Y10.003 Z-1.176
N10925 X123.79 Y10.029 Z-1.185
N10930 X123.768 Y10.047 Z-1.194
N10935 X123.741 Y10.049 Z-1.203
N10940 X123.716 Y10.037 Z-1.212
N10945 X123.702 Y10.013 Z-1.221
N10950 Y9.985 Z-1.23
N10955 X123.718 Y9.962 Z-1.239
N10960 X123.743 Y9.95 Z-1.248
N10965 X123.771 Y9.955 Z-1.257
N10970 X123.792 Y9.973 Z-1.266
N10975 X123.8 Y10 Z-1.275
N10980 X123.792 Y10.026 Z-1.284
N10985 X123.772 Y10.045 Z-1.293
N10990 X123.744 Y10.05 Z-1.302
N10995 X123.719 Y10.039 Z-1.311
N11000 X123.703 Y10.016 Z-1.32
N11005 X123.701 Y9.988 Z-1.329
N11010 X123.715 Y9.964 Z-1.338
N11015 X123.74 Y9.951 Z-1.347
N11020 X123.767 Y9.953 Z-1.356
N11025 X123.79 Y9.97 Z-1.365
N11030 X123.8 Y9.996 Z-1.374
N11035 X123.794 Y10.023 Z-1.383
N11040 X123.775 Y10.043 Z-1.392
N11045 X123.748 Y10.05 Z-1.401
N11050 X123.722 Y10.041 Z-1.41
N11055 X123.704 Y10.02 Z-1.419
N11060 X123.701 Y9.992 Z-1.428
N11065 X123.713 Y9.967 Z-1.437
N11070 X123.736 Y9.952 Z-1.446
N11075 X123.764 Z-1.454
N11080 X123.787 Y9.967 Z-1.463
N11085 X123.799 Y9.992 Z-1.472
N11090 X123.796 Y10.02 Z-1.481
N11095 X123.778 Y10.041 Z-1.49
N11100 X123.752 Y10.05 Z-1.499
N11105 X123.725 Y10.043 Z-1.508
N11110 X123.706 Y10.023 Z-1.517
N11115 X123.7 Y9.996 Z-1.526
N11120 X123.71 Y9.97 Z-1.535
N11125 X123.733 Y9.953 Z-1.544
N11130 X123.76 Y9.951 Z-1.553
N11135 X123.785 Y9.964 Z-1.562
N11140 X123.799 Y9.988 Z-1.571
N11145 X123.797 Y10.016 Z-1.58
N11150 X123.781 Y10.039 Z-1.589
N11155 X123.756 Y10.05 Z-1.598
N11160 X123.728 Y10.045 Z-1.607
N11165 X123.708 Y10.026 Z-1.616
N11170 X123.7 Y10 Z-1.625
N11175 X123.708 Y9.973 Z-1.634
N11180 X123.729 Y9.955 Z-1.643
N11185 X123.757 Y9.95 Z-1.652
N11190 X123.782 Y9.962 Z-1.661
N11195 X123.798 Y9.985 Z-1.67
N11200 Y10.013 Z-1.679
N11205 X123.784 Y10.037 Z-1.688
N11210 X123.759 Y10.049 Z-1.697
N11215 X123.732 Y10.047 Z-1.706
N11220 X123.71 Y10.029 Z-1.715
N11225 X123.7 Y10.003 Z-1.724
N11230 X123.706 Y9.976 Z-1.733
N11235 X123.726 Y9.956 Z-1.742
N11240 X123.753 Y9.95 Z-1.751
N11245 X123.779 Y9.959 Z-1.76
N11250 X123.796 Y9.981 Z-1.769
N11255 X123.799 Y10.009 Z-1.778
N11260 X123.787 Y10.034 Z-1.787
N11265 X123.763 Y10.048 Z-1.796
N11270 X123.735 Z-1.805
N11275 X123.712 Y10.032 Z-1.814
N11280 X123.7 Y10.007 Z-1.823
N11285 X123.704 Y9.979 Z-1.832
N11290 X123.722 Y9.958 Z-1.841
N11295 X123.749 Y9.95 Z-1.85
N11300 X123.776 Y9.957 Z-1.859
N11305 X123.795 Y9.978 Z-1.868
N11310 X123.8 Y10.005 Z-1.877
N11315 X123.789 Y10.031 Z-1.886
N11320 X123.767 Y10.047 Z-1.895
N11325 X123.739 Y10.049 Z-1.904
N11330 X123.714 Y10.035 Z-1.913
N11335 X123.701 Y10.011 Z-1.922
N11340 X123.703 Y9.983 Z-1.931
N11345 X123.719 Y9.96 Z-1.94
N11350 X123.745 Y9.95 Z-1.949
N11355 X123.773 Y9.955 Z-1.957
N11360 X123.793 Y9.974 Z-1.966
N11365 X123.8 Y10.001 Z-1.975
N11370 X123.791 Y10.028 Z-1.984
N11375 X123.77 Y10.046 Z-1.993
N11380 X123.743 Y10.049 Z-2.002
N11385 X123.717 Y10.038 Z-2.011
N11390 X123.702 Y10.014 Z-2.02
N11395 Y9.987 Z-2.029
N11400 X123.717 Y9.963 Z-2.038
N11405 X123.742 Y9.951 Z-2.047
N11410 X123.769 Y9.954 Z-2.056
N11415 X123.791 Y9.971 Z-2.065
N11420 X123.8 Y9.998 Z-2.074
N11425 X123.793 Y10.025 Z-2.083
N11430 X123.773 Y10.044 Z-2.092
N11435 X123.746 Y10.05 Z-2.101
N11440 X123.72 Y10.04 Z-2.11
N11445 X123.703 Y10.018 Z-2.119
N11450 X123.701 Y9.99 Z-2.128
N11455 X123.714 Y9.965 Z-2.137
N11460 X123.738 Y9.951 Z-2.146
N11465 X123.766 Y9.953 Z-2.155
N11470 X123.789 Y9.968 Z-2.164
N11475 X123.8 Y9.994 Z-2.173
N11480 X123.795 Y10.021 Z-2.182
N11485 X123.777 Y10.042 Z-2.191
N11490 X123.75 Y10.05 Z-2.2
N11495 G3 Y9.95 J-0.05
N11500 Y10.05 J0.05
N11505 G1 X123.732 Y10.043
N11510 X123.725 Y10.025
N11515 X123.75 Y10
N11520 G0 Z2.3
N11525 X142 Y7.5
N11530 Z2
N11535 G1 Z0.3 F50
N11540 X141.975 Y7.475
N11545 X141.982 Y7.457
N11550 X142 Y7.45
N11555 X142.027 Y7.458 Z0.291 F800
N11560 X142.045 Y7.479 Z0.282
N11565 X142.05 Y7.507 Z0.273
N11570 X142.038 Y7.532 Z0.264
N11575 X142.015 Y7.548 Z0.255
N11580 X141.987 Z0.246
N11585 X141.963 Y7.534 Z0.237
N11590 X141.951 Y7.509 Z0.228
N11595 X141.954 Y7.481 Z0.219
N11600 X141.971 Y7.459 Z0.21
N11605 X141.998 Y7.45 Z0.201
N11610 X142.025 Y7.457 Z0.192
N11615 X142.044 Y7.477 Z0.183
N11620 X142.05 Y7.504 Z0.174
N11625 X142.04 Y7.53 Z0.165
N11630 X142.017 Y7.547 Z0.156
N11635 X141.989 Y7.549 Z0.147
N11640 X141.965 Y7.535 Z0.138
N11645 X141.951 Y7.511 Z0.129
N11650 X141.953 Y7.483 Z0.119
N11655 X141.969 Y7.46 Z0.11
N11660 X141.995 Y7.45 Z0.101
N11665 X142.023 Y7.456 Z0.092
N11670 X142.043 Y7.475 Z0.083
N11675 X142.05 Y7.502 Z0.074
N11680 X142.041 Y7.529 Z0.065
N11685 X142.019 Y7.546 Z0.056
N11690 X141.992 Y7.549 Z0.047
N11695 X141.966 Y7.537 Z0.038
N11700 X141.952 Y7.513 Z0.029
N11705 Y7.485 Z0.02
N11710 X141.968 Y7.462 Z0.011
N11715 X141.993 Y7.45 Z0.002
N11720 X142.021 Y7.455 Z-0.007
N11725 X142.042 Y7.473 Z-0.016
N11730 X142.05 Y7.5 Z-0.025
N11735 X142.042 Y7.527 Z-0.034
N11740 X142.021 Y7.545 Z-0.043
N11745 X141.994 Y7.55 Z-0.052
N11750 X141.968 Y7.539 Z-0.061
N11755 X141.952 Y7.515 Z-0.07
N11760 Y7.487 Z-0.079
N11765 X141.966 Y7.463 Z-0.088
N11770 X141.991 Y7.451 Z-0.097
N11775 X142.019 Y7.454 Z-0.106
N11780 X142.041 Y7.471 Z-0.115
N11785 X142.05 Y7.497 Z-0.124
N11790 X142.043 Y7.525 Z-0.133
N11795 X142.023 Y7.544 Z-0.142
N11800 X141.996 Y7.55 Z-0.151
N11805 X141.97 Y7.54 Z-0.16
N11810 X141.953 Y7.517 Z-0.169
N11815 X141.951 Y7.49 Z-0.178
N11820 X141.964 Y7.465 Z-0.187
N11825 X141.989 Y7.451 Z-0.196
N11830 X142.017 Y7.453 Z-0.205
N11835 X142.039 Y7.469 Z-0.214
N11840 X142.05 Y7.495 Z-0.223
N11845 X142.045 Y7.523 Z-0.232
N11850 X142.025 Y7.543 Z-0.242
N11855 X141.998 Y7.55 Z-0.251
N11860 X141.972 Y7.541 Z-0.26
N11865 X141.954 Y7.52 Z-0.269
N11870 X141.951 Y7.492 Z-0.278
N11875 X141.963 Y7.467 Z-0.287
N11880 X141.987 Y7.452 Z-0.296
N11885 X142.015 Z-0.305
N11890 X142.038 Y7.467 Z-0.314
N11895 X142.049 Y7.493 Z-0.323
N11900 X142.046 Y7.521 Z-0.332
N11905 X142.027 Y7.542 Z-0.341
N11910 X142.001 Y7.55 Z-0.35
N11915 X141.974 Y7.542 Z-0.359
N11920 X141.955 Y7.522 Z-0.368
N11925 X141.95 Y7.494 Z-0.377
N11930 X141.961 Y7.468 Z-0.386
N11935 X141.984 Y7.452 Z-0.395
N11940 X142.012 Z-0.404
N11945 X142.036 Y7.466 Z-0.413
N11950 X142.049 Y7.491 Z-0.422
N11955 X142.046 Y7.519 Z-0.431
N11960 X142.029 Y7.541 Z-0.44
N11965 X142.003 Y7.55 Z-0.449
N11970 X141.976 Y7.544 Z-0.458
N11975 X141.956 Y7.524 Z-0.467
N11980 X141.95 Y7.496 Z-0.476
N11985 X141.96 Y7.47 Z-0.485
N11990 X141.982 Y7.453 Z-0.494
N11995 X142.01 Y7.451 Z-0.503
N12000 X142.035 Y7.464 Z-0.512
N12005 X142.049 Y7.488 Z-0.521
N12010 X142.047 Y7.516 Z-0.53
N12015 X142.031 Y7.539 Z-0.539
N12020 X142.005 Y7.55 Z-0.548
N12025 X141.978 Y7.545 Z-0.557
N12030 X141.957 Y7.526 Z-0.566
N12035 X141.95 Y7.499 Z-0.575
N12040 X141.959 Y7.472 Z-0.584
N12045 X141.98 Y7.454 Z-0.594
N12050 X142.008 Y7.451 Z-0.603
N12055 X142.033 Y7.463 Z-0.612
N12060 X142.048 Y7.486 Z-0.621
N12065 Y7.514 Z-0.63
N12070 X142.033 Y7.538 Z-0.639
N12075 X142.007 Y7.549 Z-0.648
N12080 X141.98 Y7.546 Z-0.657
N12085 X141.958 Y7.528 Z-0.666
N12090 X141.95 Y7.501 Z-0.675
N12095 X141.957 Y7.474 Z-0.684
N12100 X141.978 Y7.455 Z-0.693
N12105 X142.006 Y7.45 Z-0.702
N12110 X142.031 Y7.461 Z-0.711
N12115 X142.047 Y7.484 Z-0.72
N12120 X142.049 Y7.512 Z-0.729
N12125 X142.034 Y7.536 Z-0.738
N12130 X142.01 Y7.549 Z-0.747
N12135 X141.982 Y7.547 Z-0.756
N12140 X141.96 Y7.529 Z-0.765
N12145 X141.95 Y7.503 Z-0.774
N12150 X141.956 Y7.476 Z-0.783
N12155 X141.976 Y7.456 Z-0.792
N12160 X142.003 Y7.45 Z-0.801
N12165 X142.03 Y7.46 Z-0.81
N12170 X142.047 Y7.482 Z-0.819
N12175 X142.049 Y7.51 Z-0.828
N12180 X142.036 Y7.535 Z-0.837
N12185 X142.012 Y7.549 Z-0.846
N12190 X141.984 Y7.547 Z-0.855
N12195 X141.961 Y7.531 Z-0.864
N12200 X141.95 Y7.505 Z-0.873
N12205 X141.955 Y7.478 Z-0.882
N12210 X141.974 Y7.457 Z-0.891
N12215 X142.001 Y7.45 Z-0.9
N12220 X142.028 Y7.458 Z-0.909
N12225 X142.046 Y7.48 Z-0.918
N12230 X142.049 Y7.508 Z-0.927
N12235 X142.038 Y7.533 Z-0.936
N12240 X142.014 Y7.548 Z-0.945
N12245 X141.986 Z-0.955
N12250 X141.962 Y7.533 Z-0.964
N12255 X141.951 Y7.508 Z-0.973
N12260 X141.954 Y7.48 Z-0.982
N12265 X141.972 Y7.458 Z-0.991
N12270 X141.999 Y7.45 Z-1
N12275 X142.026 Y7.457 Z-1.009
N12280 X142.045 Y7.478 Z-1.018
N12285 X142.05 Y7.505 Z-1.027
N12290 X142.039 Y7.531 Z-1.036
N12295 X142.016 Y7.547 Z-1.045
N12300 X141.988 Y7.549 Z-1.054
N12305 X141.964 Y7.535 Z-1.063
N12310 X141.951 Y7.51 Z-1.072
N12315 X141.953 Y7.482 Z-1.081
N12320 X141.97 Y7.46 Z-1.09
N12325 X141.997 Y7.45 Z-1.099
N12330 X142.024 Y7.456 Z-1.108
N12335 X142.044 Y7.476 Z-1.117
N12340 X142.05 Y7.503 Z-1.126
N12345 X142.04 Y7.529 Z-1.135
N12350 X142.018 Y7.547 Z-1.144
N12355 X141.99 Y7.549 Z-1.153
N12360 X141.966 Y7.536 Z-1.162
N12365 X141.951 Y7.512 Z-1.171
N12370 X141.953 Y7.484 Z-1.18
N12375 X141.969 Y7.461 Z-1.189
N12380 X141.994 Y7.45 Z-1.198
N12385 X142.022 Y7.455 Z-1.207
N12390 X142.043 Y7.474 Z-1.216
N12395 X142.05 Y7.501 Z-1.225
N12400 X142.042 Y7.528 Z-1.234
N12405 X142.02 Y7.546 Z-1.243
N12410 X141.993 Y7.549 Z-1.252
N12415 X141.967 Y7.538 Z-1.261
N12420 X141.952 Y7.514 Z-1.27
N12425 Y7.486 Z-1.279
N12430 X141.967 Y7.463 Z-1.288
N12435 X141.992 Y7.451 Z-1.297
N12440 X142.02 Y7.454 Z-1.306
N12445 X142.041 Y7.472 Z-1.316
N12450 X142.05 Y7.499 Z-1.325
N12455 X142.043 Y7.526 Z-1.334
N12460 X142.022 Y7.545 Z-1.343
N12465 X141.995 Y7.55 Z-1.352
N12470 X141.969 Y7.539 Z-1.361
N12475 X141.953 Y7.516 Z-1.37
N12480 X141.951 Y7.488 Z-1.379
N12485 X141.965 Y7.464 Z-1.388
N12490 X141.99 Y7.451 Z-1.397
N12495 X142.018 Y7.453 Z-1.406
N12500 X142.04 Y7.47 Z-1.415
N12505 X142.05 Y7.496 Z-1.424
N12510 X142.044 Y7.524 Z-1.433
N12515 X142.024 Y7.544 Z-1.442
N12520 X141.997 Y7.55 Z-1.451
N12525 X141.971 Y7.541 Z-1.46
N12530 X141.954 Y7.519 Z-1.469
N12535 X141.951 Y7.491 Z-1.478
N12540 X141.964 Y7.466 Z-1.487
N12545 X141.988 Y7.452 Z-1.496
N12550 X142.016 Z-1.505
N12555 X142.039 Y7.468 Z-1.514
N12560 X142.05 Y7.494 Z-1.523
N12565 X142.045 Y7.522 Z-1.532
N12570 X142.026 Y7.542 Z-1.541
N12575 X141.999 Y7.55 Z-1.55
N12580 X141.973 Y7.542 Z-1.559
N12585 X141.954 Y7.521 Z-1.568
N12590 X141.951 Y7.493 Z-1.577
N12595 X141.962 Y7.467 Z-1.586
N12600 X141.985 Y7.452 Z-1.595
N12605 X142.013 Z-1.604
N12610 X142.037 Y7.467 Z-1.613
N12615 X142.049 Y7.492 Z-1.622
N12620 X142.046 Y7.52 Z-1.631
N12625 X142.028 Y7.541 Z-1.64
N12630 X142.002 Y7.55 Z-1.649
N12635 X141.975 Y7.543 Z-1.658
N12640 X141.955 Y7.523 Z-1.668
N12645 X141.95 Y7.495 Z-1.677
N12650 X141.961 Y7.469 Z-1.686
N12655 X141.983 Y7.453 Z-1.695
N12660 X142.011 Y7.451 Z-1.704
N12665 X142.036 Y7.465 Z-1.713
N12670 X142.049 Y7.49 Z-1.722
N12675 X142.047 Y7.517 Z-1.731
N12680 X142.03 Y7.54 Z-1.74
N12685 X142.004 Y7.55 Z-1.749
N12690 X141.977 Y7.544 Z-1.758
N12695 X141.957 Y7.525 Z-1.767
N12700 X141.95 Y7.497 Z-1.776
N12705 X141.959 Y7.471 Z-1.785
N12710 X141.981 Y7.454 Z-1.794
N12715 X142.009 Y7.451 Z-1.803
N12720 X142.034 Y7.463 Z-1.812
N12725 X142.048 Y7.487 Z-1.821
N12730 Y7.515 Z-1.83
N12735 X142.032 Y7.539 Z-1.839
N12740 X142.006 Y7.55 Z-1.848
N12745 X141.979 Y7.545 Z-1.857
N12750 X141.958 Y7.527 Z-1.866
N12755 X141.95 Y7.5 Z-1.875
N12760 X141.958 Y7.473 Z-1.884
N12765 X141.979 Y7.455 Z-1.893
N12770 X142.007 Y7.45 Z-1.902
N12775 X142.032 Y7.462 Z-1.911
N12780 X142.048 Y7.485 Z-1.92
N12785 Y7.513 Z-1.929
N12790 X142.034 Y7.537 Z-1.938
N12795 X142.008 Y7.549 Z-1.947
N12800 X141.981 Y7.546 Z-1.956
N12805 X141.959 Y7.529 Z-1.965
N12810 X141.95 Y7.502 Z-1.974
N12815 X141.957 Y7.475 Z-1.983
N12820 X141.977 Y7.456 Z-1.992
N12825 X142.005 Y7.45 Z-2.001
N12830 X142.031 Y7.46 Z-2.01
N12835 X142.047 Y7.483 Z-2.019
N12840 X142.049 Y7.511 Z-2.029
N12845 X142.035 Y7.535 Z-2.038
N12850 X142.011 Y7.549 Z-2.047
N12855 X141.983 Y7.547 Z-2.056
N12860 X141.96 Y7.53 Z-2.065
N12865 X141.95 Y7.504 Z-2.074
N12870 X141.956 Y7.477 Z-2.083
N12875 X141.975 Y7.457 Z-2.092
N12880 X142.002 Y7.45 Z-2.101
N12885 X142.029 Y7.459 Z-2.11
N12890 X142.046 Y7.481 Z-2.119
N12895 X142.049 Y7.509 Z-2.128
N12900 X142.037 Y7.534 Z-2.137
N12905 X142.013 Y7.548 Z-2.146
N12910 X141.985 Z-2.155
N12915 X141.962 Y7.532 Z-2.164
N12920 X141.95 Y7.507 Z-2.173
N12925 X141.955 Y7.479 Z-2.182
N12930 X141.973 Y7.458 Z-2.191
N12935 X142 Y7.45 Z-2.2
N12940 G3 Y7.55 J0.05
N12945 Y7.45 J-0.05
N12950 G1 X142.018 Y7.457
N12955 X142.025 Y7.475
N12960 X142 Y7.5
N12965 G0 Z2.3
N12970 Y37.5
N12975 Z2
N12980 G1 Z0.3 F50
N12985 X141.975 Y37.475
N12990 X141.982 Y37.457
N12995 X142 Y37.45
N13000 X142.027 Y37.458 Z0.291 F800
N13005 X142.045 Y37.479 Z0.282
N13010 X142.05 Y37.507 Z0.273
N13015 X142.038 Y37.532 Z0.264
N13020 X142.015 Y37.548 Z0.255
N13025 X141.987 Z0.246
N13030 X141.963 Y37.534 Z0.237
N13035 X141.951 Y37.509 Z0.228
N13040 X141.954 Y37.481 Z0.219
N13045 X141.971 Y37.459 Z0.21
N13050 X141.998 Y37.45 Z0.201
N13055 X142.025 Y37.457 Z0.192
N13060 X142.044 Y37.477 Z0.183
N13065 X142.05 Y37.504 Z0.174
N13070 X142.04 Y37.53 Z0.165
N13075 X142.017 Y37.547 Z0.156
N13080 X141.989 Y37.549 Z0.147
N13085 X141.965 Y37.535 Z0.138
N13090 X141.951 Y37.511 Z0.129
N13095 X141.953 Y37.483 Z0.119
N13100 X141.969 Y37.46 Z0.11
N13105 X141.995 Y37.45 Z0.101
N13110 X142.023 Y37.456 Z0.092
N13115 X142.043 Y37.475 Z0.083
N13120 X142.05 Y37.502 Z0.074
N13125 X142.041 Y37.529 Z0.065
N13130 X142.019 Y37.546 Z0.056
N13135 X141.992 Y37.549 Z0.047
N13140 X141.966 Y37.537 Z0.038
N13145 X141.952 Y37.513 Z0.029
N13150 Y37.485 Z0.02
N13155 X141.968 Y37.462 Z0.011
N13160 X141.993 Y37.45 Z0.002
N13165 X142.021 Y37.455 Z-0.007
N13170 X142.042 Y37.473 Z-0.016
N13175 X142.05 Y37.5 Z-0.025
N13180 X142.042 Y37.527 Z-0.034
N13185 X142.021 Y37.545 Z-0.043
N13190 X141.994 Y37.55 Z-0.052
N13195 X141.968 Y37.539 Z-0.061
N13200 X141.952 Y37.515 Z-0.07
N13205 Y37.487 Z-0.079
N13210 X141.966 Y37.463 Z-0.088
N13215 X141.991 Y37.451 Z-0.097
N13220 X142.019 Y37.454 Z-0.106
N13225 X142.041 Y37.471 Z-0.115
N13230 X142.05 Y37.497 Z-0.124
N13235 X142.043 Y37.525 Z-0.133
N13240 X142.023 Y37.544 Z-0.142
N13245 X141.996 Y37.55 Z-0.151
N13250 X141.97 Y37.54 Z-0.16
N13255 X141.953 Y37.517 Z-0.169
N13260 X141.951 Y37.49 Z-0.178
N13265 X141.964 Y37.465 Z-0.187
N13270 X141.989 Y37.451 Z-0.196
N13275 X142.017 Y37.453 Z-0.205
N13280 X142.039 Y37.469 Z-0.214
N13285 X142.05 Y37.495 Z-0.223
N13290 X142.045 Y37.523 Z-0.232
N13295 X142.025 Y37.543 Z-0.242
N13300 X141.998 Y37.55 Z-0.251
N13305 X141.972 Y37.541 Z-0.26
N13310 X141.954 Y37.52 Z-0.269
N13315 X141.951 Y37.492 Z-0.278
N13320 X141.963 Y37.467 Z-0.287
N13325 X141.987 Y37.452 Z-0.296
N13330 X142.015 Z-0.305
N13335 X142.038 Y37.467 Z-0.314
N13340 X142.049 Y37.493 Z-0.323
N13345 X142.046 Y37.521 Z-0.332
N13350 X142.027 Y37.542 Z-0.341
N13355 X142.001 Y37.55 Z-0.35
N13360 X141.974 Y37.542 Z-0.359
N13365 X141.955 Y37.522 Z-0.368
N13370 X141.95 Y37.494 Z-0.377
N13375 X141.961 Y37.468 Z-0.386
N13380 X141.984 Y37.453 Z-0.395
N13385 X142.012 Y37.452 Z-0.404
N13390 X142.036 Y37.466 Z-0.413
N13395 X142.049 Y37.491 Z-0.422
N13400 X142.046 Y37.519 Z-0.431
N13405 X142.029 Y37.541 Z-0.44
N13410 X142.003 Y37.55 Z-0.449
N13415 X141.976 Y37.544 Z-0.458
N13420 X141.956 Y37.524 Z-0.467
N13425 X141.95 Y37.496 Z-0.476
N13430 X141.96 Y37.47 Z-0.485
N13435 X141.982 Y37.453 Z-0.494
N13440 X142.01 Y37.451 Z-0.503
N13445 X142.035 Y37.464 Z-0.512
N13450 X142.049 Y37.488 Z-0.521
N13455 X142.047 Y37.516 Z-0.53
N13460 X142.031 Y37.539 Z-0.539
N13465 X142.005 Y37.55 Z-0.548
N13470 X141.978 Y37.545 Z-0.557
N13475 X141.957 Y37.526 Z-0.566
N13480 X141.95 Y37.499 Z-0.575
N13485 X141.959 Y37.472 Z-0.584
N13490 X141.98 Y37.454 Z-0.594
N13495 X142.008 Y37.451 Z-0.603
N13500 X142.033 Y37.463 Z-0.612
N13505 X142.048 Y37.486 Z-0.621
N13510 Y37.514 Z-0.63
N13515 X142.033 Y37.538 Z-0.639
N13520 X142.007 Y37.549 Z-0.648
N13525 X141.98 Y37.546 Z-0.657
N13530 X141.958 Y37.528 Z-0.666
N13535 X141.95 Y37.501 Z-0.675
N13540 X141.957 Y37.474 Z-0.684
N13545 X141.978 Y37.455 Z-0.693
N13550 X142.006 Y37.45 Z-0.702
N13555 X142.031 Y37.461 Z-0.711
N13560 X142.047 Y37.484 Z-0.72
N13565 X142.049 Y37.512 Z-0.729
N13570 X142.034 Y37.536 Z-0.738
N13575 X142.01 Y37.549 Z-0.747
N13580 X141.982 Y37.547 Z-0.756
N13585 X141.96 Y37.529 Z-0.765
N13590 X141.95 Y37.503 Z-0.774
N13595 X141.956 Y37.476 Z-0.783
N13600 X141.976 Y37.456 Z-0.792
N13605 X142.003 Y37.45 Z-0.801
N13610 X142.03 Y37.46 Z-0.81
N13615 X142.047 Y37.482 Z-0.819
N13620 X142.049 Y37.51 Z-0.828
N13625 X142.036 Y37.535 Z-0.837
N13630 X142.012 Y37.549 Z-0.846
N13635 X141.984 Y37.547 Z-0.855
N13640 X141.961 Y37.531 Z-0.864
N13645 X141.95 Y37.505 Z-0.873
N13650 X141.955 Y37.478 Z-0.882
N13655 X141.974 Y37.457 Z-0.891
N13660 X142.001 Y37.45 Z-0.9
N13665 X142.028 Y37.458 Z-0.909
N13670 X142.046 Y37.48 Z-0.918
N13675 X142.049 Y37.508 Z-0.927
N13680 X142.038 Y37.533 Z-0.936
N13685 X142.014 Y37.548 Z-0.945
N13690 X141.986 Z-0.955
N13695 X141.962 Y37.533 Z-0.964
N13700 X141.951 Y37.508 Z-0.973
N13705 X141.954 Y37.48 Z-0.982
N13710 X141.972 Y37.458 Z-0.991
N13715 X141.999 Y37.45 Z-1
N13720 X142.026 Y37.457 Z-1.009
N13725 X142.045 Y37.478 Z-1.018
N13730 X142.05 Y37.505 Z-1.027
N13735 X142.039 Y37.531 Z-1.036
N13740 X142.016 Y37.547 Z-1.045
N13745 X141.988 Y37.549 Z-1.054
N13750 X141.964 Y37.535 Z-1.063
N13755 X141.951 Y37.51 Z-1.072
N13760 X141.953 Y37.482 Z-1.081
N13765 X141.97 Y37.46 Z-1.09
N13770 X141.997 Y37.45 Z-1.099
N13775 X142.024 Y37.456 Z-1.108
N13780 X142.044 Y37.476 Z-1.117
N13785 X142.05 Y37.503 Z-1.126
N13790 X142.04 Y37.529 Z-1.135
N13795 X142.018 Y37.547 Z-1.144
N13800 X141.99 Y37.549 Z-1.153
N13805 X141.966 Y37.536 Z-1.162
N13810 X141.951 Y37.512 Z-1.171
N13815 X141.953 Y37.484 Z-1.18
N13820 X141.969 Y37.461 Z-1.189
N13825 X141.994 Y37.45 Z-1.198
N13830 X142.022 Y37.455 Z-1.207
N13835 X142.043 Y37.474 Z-1.216
N13840 X142.05 Y37.501 Z-1.225
N13845 X142.042 Y37.528 Z-1.234
N13850 X142.02 Y37.546 Z-1.243
N13855 X141.993 Y37.549 Z-1.252
N13860 X141.967 Y37.538 Z-1.261
N13865 X141.952 Y37.514 Z-1.27
N13870 Y37.486 Z-1.279
N13875 X141.967 Y37.463 Z-1.288
N13880 X141.992 Y37.451 Z-1.297
N13885 X142.02 Y37.454 Z-1.306
N13890 X142.041 Y37.472 Z-1.316
N13895 X142.05 Y37.499 Z-1.325
N13900 X142.043 Y37.526 Z-1.334
N13905 X142.022 Y37.545 Z-1.343
N13910 X141.995 Y37.55 Z-1.352
N13915 X141.969 Y37.539 Z-1.361
N13920 X141.953 Y37.516 Z-1.37
N13925 X141.951 Y37.488 Z-1.379
N13930 X141.965 Y37.464 Z-1.388
N13935 X141.99 Y37.451 Z-1.397
N13940 X142.018 Y37.453 Z-1.406
N13945 X142.04 Y37.47 Z-1.415
N13950 X142.05 Y37.496 Z-1.424
N13955 X142.044 Y37.524 Z-1.433
N13960 X142.024 Y37.544 Z-1.442
N13965 X141.997 Y37.55 Z-1.451
N13970 X141.971 Y37.541 Z-1.46
N13975 X141.954 Y37.519 Z-1.469
N13980 X141.951 Y37.491 Z-1.478
N13985 X141.964 Y37.466 Z-1.487
N13990 X141.988 Y37.452 Z-1.496
N13995 X142.016 Y37.453 Z-1.505
N14000 X142.039 Y37.468 Z-1.514
N14005 X142.05 Y37.494 Z-1.523
N14010 X142.045 Y37.522 Z-1.532
N14015 X142.026 Y37.542 Z-1.541
N14020 X141.999 Y37.55 Z-1.55
N14025 X141.973 Y37.542 Z-1.559
N14030 X141.954 Y37.521 Z-1.568
N14035 X141.951 Y37.493 Z-1.577
N14040 X141.962 Y37.467 Z-1.586
N14045 X141.985 Y37.452 Z-1.595
N14050 X142.013 Z-1.604
N14055 X142.037 Y37.467 Z-1.613
N14060 X142.049 Y37.492 Z-1.622
N14065 X142.046 Y37.52 Z-1.631
N14070 X142.028 Y37.541 Z-1.64
N14075 X142.002 Y37.55 Z-1.649
N14080 X141.975 Y37.543 Z-1.658
N14085 X141.955 Y37.523 Z-1.668
N14090 X141.95 Y37.495 Z-1.677
N14095 X141.961 Y37.469 Z-1.686
N14100 X141.983 Y37.453 Z-1.695
N14105 X142.011 Y37.451 Z-1.704
N14110 X142.036 Y37.465 Z-1.713
N14115 X142.049 Y37.49 Z-1.722
N14120 X142.047 Y37.517 Z-1.731
N14125 X142.03 Y37.54 Z-1.74
N14130 X142.004 Y37.55 Z-1.749
N14135 X141.977 Y37.544 Z-1.758
N14140 X141.957 Y37.525 Z-1.767
N14145 X141.95 Y37.497 Z-1.776
N14150 X141.959 Y37.471 Z-1.785
N14155 X141.981 Y37.454 Z-1.794
N14160 X142.009 Y37.451 Z-1.803
N14165 X142.034 Y37.463 Z-1.812
N14170 X142.048 Y37.487 Z-1.821
N14175 Y37.515 Z-1.83
N14180 X142.032 Y37.539 Z-1.839
N14185 X142.006 Y37.55 Z-1.848
N14190 X141.979 Y37.545 Z-1.857
N14195 X141.958 Y37.527 Z-1.866
N14200 X141.95 Y37.5 Z-1.875
N14205 X141.958 Y37.473 Z-1.884
N14210 X141.979 Y37.455 Z-1.893
N14215 X142.007 Y37.45 Z-1.902
N14220 X142.032 Y37.462 Z-1.911
N14225 X142.048 Y37.485 Z-1.92
N14230 Y37.513 Z-1.929
N14235 X142.034 Y37.537 Z-1.938
N14240 X142.008 Y37.549 Z-1.947
N14245 X141.981 Y37.546 Z-1.956
N14250 X141.959 Y37.529 Z-1.965
N14255 X141.95 Y37.502 Z-1.974
N14260 X141.957 Y37.475 Z-1.983
N14265 X141.977 Y37.456 Z-1.992
N14270 X142.005 Y37.45 Z-2.001
N14275 X142.031 Y37.46 Z-2.01
N14280 X142.047 Y37.483 Z-2.019
N14285 X142.049 Y37.511 Z-2.029
N14290 X142.035 Y37.535 Z-2.038
N14295 X142.011 Y37.549 Z-2.047
N14300 X141.983 Y37.547 Z-2.056
N14305 X141.96 Y37.53 Z-2.065
N14310 X141.95 Y37.504 Z-2.074
N14315 X141.956 Y37.477 Z-2.083
N14320 X141.975 Y37.457 Z-2.092
N14325 X142.002 Y37.45 Z-2.101
N14330 X142.029 Y37.459 Z-2.11
N14335 X142.046 Y37.481 Z-2.119
N14340 X142.049 Y37.509 Z-2.128
N14345 X142.037 Y37.534 Z-2.137
N14350 X142.013 Y37.548 Z-2.146
N14355 X141.985 Z-2.155
N14360 X141.962 Y37.532 Z-2.164
N14365 X141.95 Y37.507 Z-2.173
N14370 X141.955 Y37.479 Z-2.182
N14375 X141.973 Y37.458 Z-2.191
N14380 X142 Y37.45 Z-2.2
N14385 G3 Y37.55 J0.05
N14390 Y37.45 J-0.05
N14395 G1 X142.018 Y37.457
N14400 X142.025 Y37.475
N14405 X142 Y37.5
N14410 G0 Z2.3
N14415 X123.75 Y56.667
N14420 Z1
N14425 G1 Z-0.7 F50
N14430 X123.775 Y56.692
N14435 X123.768 Y56.709
N14440 X123.75 Y56.717
N14445 X123.723 Y56.709 Z-0.709 F800
N14450 X123.705 Y56.688 Z-0.718
N14455 X123.7 Y56.661 Z-0.727
N14460 X123.711 Y56.635 Z-0.736
N14465 X123.734 Y56.619 Z-0.745
N14470 X123.762 Y56.618 Z-0.754
N14475 X123.786 Y56.632 Z-0.763
N14480 X123.799 Y56.657 Z-0.772
N14485 X123.797 Y56.685 Z-0.781
N14490 X123.78 Y56.707 Z-0.79
N14495 X123.754 Y56.717 Z-0.799
N14500 X123.727 Y56.711 Z-0.808
N14505 X123.707 Y56.691 Z-0.817
N14510 X123.7 Y56.664 Z-0.826
N14515 X123.709 Y56.638 Z-0.835
N14520 X123.731 Y56.621 Z-0.844
N14525 X123.758 Y56.617 Z-0.853
N14530 X123.783 Y56.63 Z-0.862
N14535 X123.798 Y56.653 Z-0.871
N14540 Y56.681 Z-0.88
N14545 X123.783 Y56.704 Z-0.889
N14550 X123.757 Y56.716 Z-0.898
N14555 X123.73 Y56.712 Z-0.907
N14560 X123.709 Y56.695 Z-0.916
N14565 X123.7 Y56.668 Z-0.925
N14570 X123.707 Y56.641 Z-0.934
N14575 X123.727 Y56.622 Z-0.943
N14580 X123.755 Y56.617 Z-0.951
N14585 X123.781 Y56.627 Z-0.96
N14590 X123.797 Y56.65 Z-0.969
N14595 X123.799 Y56.677 Z-0.978
N14600 X123.786 Y56.702 Z-0.987
N14605 X123.761 Y56.715 Z-0.996
N14610 X123.733 Y56.714 Z-1.005
N14615 X123.711 Y56.698 Z-1.014
N14620 X123.7 Y56.672 Z-1.023
N14625 X123.705 Y56.644 Z-1.032
N14630 X123.724 Y56.624 Z-1.041
N14635 X123.751 Y56.617 Z-1.05
N14640 X123.778 Y56.625 Z-1.059
N14645 X123.796 Y56.646 Z-1.068
N14650 X123.8 Y56.674 Z-1.077
N14655 X123.788 Y56.699 Z-1.086
N14660 X123.765 Y56.714 Z-1.095
N14665 X123.737 Y56.715 Z-1.104
N14670 X123.713 Y56.7 Z-1.113
N14675 X123.701 Y56.676 Z-1.122
N14680 X123.704 Y56.648 Z-1.131
N14685 X123.721 Y56.626 Z-1.14
N14690 X123.747 Y56.617 Z-1.149
N14695 X123.774 Y56.623 Z-1.158
N14700 X123.794 Y56.643 Z-1.167
N14705 X123.8 Y56.67 Z-1.176
N14710 X123.79 Y56.696 Z-1.185
N14715 X123.768 Y56.713 Z-1.194
N14720 X123.741 Y56.716 Z-1.203
N14725 X123.716 Y56.703 Z-1.212
N14730 X123.702 Y56.679 Z-1.221
N14735 Y56.651 Z-1.23
N14740 X123.718 Y56.628 Z-1.239
N14745 X123.743 Y56.617 Z-1.248
N14750 X123.771 Y56.621 Z-1.257
N14755 X123.792 Y56.64 Z-1.266
N14760 X123.8 Y56.666 Z-1.275
N14765 X123.792 Y56.693 Z-1.284
N14770 X123.772 Y56.712 Z-1.293
N14775 X123.744 Y56.716 Z-1.302
N14780 X123.719 Y56.706 Z-1.311
N14785 X123.703 Y56.683 Z-1.32
N14790 X123.701 Y56.655 Z-1.329
N14795 X123.715 Y56.631 Z-1.338
N14800 X123.74 Y56.618 Z-1.347
N14805 X123.767 Y56.62 Z-1.356
N14810 X123.79 Y56.636 Z-1.365
N14815 X123.8 Y56.662 Z-1.374
N14820 X123.794 Y56.69 Z-1.383
N14825 X123.775 Y56.71 Z-1.392
N14830 X123.748 Y56.717 Z-1.401
N14835 X123.722 Y56.708 Z-1.41
N14840 X123.704 Y56.686 Z-1.419
N14845 X123.701 Y56.659 Z-1.428
N14850 X123.713 Y56.634 Z-1.437
N14855 X123.736 Y56.619 Z-1.446
N14860 X123.764 Z-1.454
N14865 X123.787 Y56.634 Z-1.463
N14870 X123.799 Y56.659 Z-1.472
N14875 X123.796 Y56.686 Z-1.481
N14880 X123.778 Y56.708 Z-1.49
N14885 X123.752 Y56.717 Z-1.499
N14890 X123.725 Y56.71 Z-1.508
N14895 X123.706 Y56.69 Z-1.517
N14900 X123.7 Y56.662 Z-1.526
N14905 X123.71 Y56.636 Z-1.535
N14910 X123.733 Y56.62 Z-1.544
N14915 X123.76 Y56.618 Z-1.553
N14920 X123.785 Y56.631 Z-1.562
N14925 X123.799 Y56.655 Z-1.571
N14930 X123.797 Y56.683 Z-1.58
N14935 X123.781 Y56.706 Z-1.589
N14940 X123.756 Y56.716 Z-1.598
N14945 X123.728 Y56.712 Z-1.607
N14950 X123.708 Y56.693 Z-1.616
N14955 X123.7 Y56.666 Z-1.625
N14960 X123.708 Y56.64 Z-1.634
N14965 X123.729 Y56.621 Z-1.643
N14970 X123.757 Y56.617 Z-1.652
N14975 X123.782 Y56.628 Z-1.661
N14980 X123.798 Y56.651 Z-1.67
N14985 Y56.679 Z-1.679
N14990 X123.784 Y56.703 Z-1.688
N14995 X123.759 Y56.716 Z-1.697
N15000 X123.732 Y56.713 Z-1.706
N15005 X123.71 Y56.696 Z-1.715
N15010 X123.7 Y56.67 Z-1.724
N15015 X123.706 Y56.643 Z-1.733
N15020 X123.726 Y56.623 Z-1.742
N15025 X123.753 Y56.617 Z-1.751
N15030 X123.779 Y56.626 Z-1.76
N15035 X123.796 Y56.648 Z-1.769
N15040 X123.799 Y56.676 Z-1.778
N15045 X123.787 Y56.7 Z-1.787
N15050 X123.763 Y56.715 Z-1.796
N15055 X123.735 Y56.714 Z-1.805
N15060 X123.712 Y56.699 Z-1.814
N15065 X123.7 Y56.674 Z-1.823
N15070 X123.704 Y56.646 Z-1.832
N15075 X123.722 Y56.625 Z-1.841
N15080 X123.749 Y56.617 Z-1.85
N15085 X123.776 Y56.624 Z-1.859
N15090 X123.795 Y56.644 Z-1.868
N15095 X123.8 Y56.672 Z-1.877
N15100 X123.789 Y56.698 Z-1.886
N15105 X123.767 Y56.714 Z-1.895
N15110 X123.739 Y56.715 Z-1.904
N15115 X123.714 Y56.702 Z-1.913
N15120 X123.701 Y56.677 Z-1.922
N15125 X123.703 Y56.65 Z-1.931
N15130 X123.719 Y56.627 Z-1.94
N15135 X123.745 Y56.617 Z-1.949
N15140 X123.773 Y56.622 Z-1.957
N15145 X123.793 Y56.641 Z-1.966
N15150 X123.8 Y56.668 Z-1.975
N15155 X123.791 Y56.695 Z-1.984
N15160 X123.77 Y56.712 Z-1.993
N15165 X123.743 Y56.716 Z-2.002
N15170 X123.717 Y56.704 Z-2.011
N15175 X123.702 Y56.681 Z-2.02
N15180 Y56.653 Z-2.029
N15185 X123.717 Y56.63 Z-2.038
N15190 X123.742 Y56.617 Z-2.047
N15195 X123.769 Y56.621 Z-2.056
N15200 X123.791 Y56.638 Z-2.065
N15205 X123.8 Y56.664 Z-2.074
N15210 X123.793 Y56.691 Z-2.083
N15215 X123.773 Y56.711 Z-2.092
N15220 X123.746 Y56.717 Z-2.101
N15225 X123.72 Y56.707 Z-2.11
N15230 X123.703 Y56.685 Z-2.119
N15235 X123.701 Y56.657 Z-2.128
N15240 X123.714 Y56.632 Z-2.137
N15245 X123.738 Y56.618 Z-2.146
N15250 X123.766 Y56.619 Z-2.155
N15255 X123.789 Y56.635 Z-2.164
N15260 X123.8 Y56.661 Z-2.173
N15265 X123.795 Y56.688 Z-2.182
N15270 X123.777 Y56.709 Z-2.191
N15275 X123.75 Y56.717 Z-2.2
N15280 G3 Y56.617 J-0.05
N15285 Y56.717 J0.05
N15290 G1 X123.732 Y56.709
N15295 X123.725 Y56.692
N15300 X123.75 Y56.667
N15305 G0 Z2.3
N15310 X111.75
N15315 Z1
N15320 G1 Z-0.7 F50
N15325 X111.775 Y56.692
N15330 X111.768 Y56.709
N15335 X111.75 Y56.717
N15340 X111.723 Y56.709 Z-0.709 F800
N15345 X111.705 Y56.688 Z-0.718
N15350 X111.7 Y56.661 Z-0.727
N15355 X111.711 Y56.635 Z-0.736
N15360 X111.734 Y56.619 Z-0.745
N15365 X111.762 Y56.618 Z-0.754
N15370 X111.786 Y56.632 Z-0.763
N15375 X111.799 Y56.657 Z-0.772
N15380 X111.797 Y56.685 Z-0.781
N15385 X111.78 Y56.707 Z-0.79
N15390 X111.754 Y56.717 Z-0.799
N15395 X111.727 Y56.711 Z-0.808
N15400 X111.707 Y56.691 Z-0.817
N15405 X111.7 Y56.664 Z-0.826
N15410 X111.709 Y56.638 Z-0.835
N15415 X111.731 Y56.621 Z-0.844
N15420 X111.758 Y56.617 Z-0.853
N15425 X111.783 Y56.63 Z-0.862
N15430 X111.798 Y56.653 Z-0.871
N15435 Y56.681 Z-0.88
N15440 X111.783 Y56.704 Z-0.889
N15445 X111.757 Y56.716 Z-0.898
N15450 X111.73 Y56.712 Z-0.907
N15455 X111.709 Y56.695 Z-0.916
N15460 X111.7 Y56.668 Z-0.925
N15465 X111.707 Y56.641 Z-0.934
N15470 X111.727 Y56.622 Z-0.943
N15475 X111.755 Y56.617 Z-0.951
N15480 X111.781 Y56.627 Z-0.96
N15485 X111.797 Y56.65 Z-0.969
N15490 X111.799 Y56.677 Z-0.978
N15495 X111.786 Y56.702 Z-0.987
N15500 X111.761 Y56.715 Z-0.996
N15505 X111.733 Y56.714 Z-1.005
N15510 X111.711 Y56.698 Z-1.014
N15515 X111.7 Y56.672 Z-1.023
N15520 X111.705 Y56.644 Z-1.032
N15525 X111.724 Y56.624 Z-1.041
N15530 X111.751 Y56.617 Z-1.05
N15535 X111.778 Y56.625 Z-1.059
N15540 X111.796 Y56.646 Z-1.068
N15545 X111.8 Y56.674 Z-1.077
N15550 X111.788 Y56.699 Z-1.086
N15555 X111.765 Y56.714 Z-1.095
N15560 X111.737 Y56.715 Z-1.104
N15565 X111.713 Y56.7 Z-1.113
N15570 X111.701 Y56.676 Z-1.122
N15575 X111.704 Y56.648 Z-1.131
N15580 X111.721 Y56.626 Z-1.14
N15585 X111.747 Y56.617 Z-1.149
N15590 X111.774 Y56.623 Z-1.158
N15595 X111.794 Y56.643 Z-1.167
N15600 X111.8 Y56.67 Z-1.176
N15605 X111.79 Y56.696 Z-1.185
N15610 X111.768 Y56.713 Z-1.194
N15615 X111.741 Y56.716 Z-1.203
N15620 X111.716 Y56.703 Z-1.212
N15625 X111.702 Y56.679 Z-1.221
N15630 Y56.651 Z-1.23
N15635 X111.718 Y56.628 Z-1.239
N15640 X111.743 Y56.617 Z-1.248
N15645 X111.771 Y56.621 Z-1.257
N15650 X111.792 Y56.64 Z-1.266
N15655 X111.8 Y56.666 Z-1.275
N15660 X111.792 Y56.693 Z-1.284
N15665 X111.772 Y56.712 Z-1.293
N15670 X111.744 Y56.716 Z-1.302
N15675 X111.719 Y56.706 Z-1.311
N15680 X111.703 Y56.683 Z-1.32
N15685 X111.701 Y56.655 Z-1.329
N15690 X111.715 Y56.631 Z-1.338
N15695 X111.74 Y56.618 Z-1.347
N15700 X111.767 Y56.62 Z-1.356
N15705 X111.79 Y56.636 Z-1.365
N15710 X111.8 Y56.662 Z-1.374
N15715 X111.794 Y56.69 Z-1.383
N15720 X111.775 Y56.71 Z-1.392
N15725 X111.748 Y56.717 Z-1.401
N15730 X111.722 Y56.708 Z-1.41
N15735 X111.704 Y56.686 Z-1.419
N15740 X111.701 Y56.659 Z-1.428
N15745 X111.713 Y56.634 Z-1.437
N15750 X111.736 Y56.619 Z-1.446
N15755 X111.764 Z-1.454
N15760 X111.787 Y56.634 Z-1.463
N15765 X111.799 Y56.659 Z-1.472
N15770 X111.796 Y56.686 Z-1.481
N15775 X111.778 Y56.708 Z-1.49
N15780 X111.752 Y56.717 Z-1.499
N15785 X111.725 Y56.71 Z-1.508
N15790 X111.706 Y56.69 Z-1.517
N15795 X111.7 Y56.662 Z-1.526
N15800 X111.71 Y56.636 Z-1.535
N15805 X111.733 Y56.62 Z-1.544
N15810 X111.76 Y56.618 Z-1.553
N15815 X111.785 Y56.631 Z-1.562
N15820 X111.799 Y56.655 Z-1.571
N15825 X111.797 Y56.683 Z-1.58
N15830 X111.781 Y56.706 Z-1.589
N15835 X111.756 Y56.716 Z-1.598
N15840 X111.728 Y56.712 Z-1.607
N15845 X111.708 Y56.693 Z-1.616
N15850 X111.7 Y56.666 Z-1.625
N15855 X111.708 Y56.64 Z-1.634
N15860 X111.729 Y56.621 Z-1.643
N15865 X111.757 Y56.617 Z-1.652
N15870 X111.782 Y56.628 Z-1.661
N15875 X111.798 Y56.651 Z-1.67
N15880 Y56.679 Z-1.679
N15885 X111.784 Y56.703 Z-1.688
N15890 X111.759 Y56.716 Z-1.697
N15895 X111.732 Y56.713 Z-1.706
N15900 X111.71 Y56.696 Z-1.715
N15905 X111.7 Y56.67 Z-1.724
N15910 X111.706 Y56.643 Z-1.733
N15915 X111.726 Y56.623 Z-1.742
N15920 X111.753 Y56.617 Z-1.751
N15925 X111.779 Y56.626 Z-1.76
N15930 X111.796 Y56.648 Z-1.769
N15935 X111.799 Y56.676 Z-1.778
N15940 X111.787 Y56.7 Z-1.787
N15945 X111.763 Y56.715 Z-1.796
N15950 X111.735 Y56.714 Z-1.805
N15955 X111.712 Y56.699 Z-1.814
N15960 X111.7 Y56.674 Z-1.823
N15965 X111.704 Y56.646 Z-1.832
N15970 X111.722 Y56.625 Z-1.841
N15975 X111.749 Y56.617 Z-1.85
N15980 X111.776 Y56.624 Z-1.859
N15985 X111.795 Y56.644 Z-1.868
N15990 X111.8 Y56.672 Z-1.877
N15995 X111.789 Y56.698 Z-1.886
N16000 X111.767 Y56.714 Z-1.895
N16005 X111.739 Y56.715 Z-1.904
N16010 X111.714 Y56.702 Z-1.913
N16015 X111.701 Y56.677 Z-1.922
N16020 X111.703 Y56.65 Z-1.931
N16025 X111.719 Y56.627 Z-1.94
N16030 X111.745 Y56.617 Z-1.949
N16035 X111.773 Y56.622 Z-1.957
N16040 X111.793 Y56.641 Z-1.966
N16045 X111.8 Y56.668 Z-1.975
N16050 X111.791 Y56.695 Z-1.984
N16055 X111.77 Y56.712 Z-1.993
N16060 X111.743 Y56.716 Z-2.002
N16065 X111.717 Y56.704 Z-2.011
N16070 X111.702 Y56.681 Z-2.02
N16075 Y56.653 Z-2.029
N16080 X111.717 Y56.63 Z-2.038
N16085 X111.742 Y56.617 Z-2.047
N16090 X111.769 Y56.621 Z-2.056
N16095 X111.791 Y56.638 Z-2.065
N16100 X111.8 Y56.664 Z-2.074
N16105 X111.793 Y56.691 Z-2.083
N16110 X111.773 Y56.711 Z-2.092
N16115 X111.746 Y56.717 Z-2.101
N16120 X111.72 Y56.707 Z-2.11
N16125 X111.703 Y56.685 Z-2.119
N16130 X111.701 Y56.657 Z-2.128
N16135 X111.714 Y56.632 Z-2.137
N16140 X111.738 Y56.618 Z-2.146
N16145 X111.766 Y56.619 Z-2.155
N16150 X111.789 Y56.635 Z-2.164
N16155 X111.8 Y56.661 Z-2.173
N16160 X111.795 Y56.688 Z-2.182
N16165 X111.777 Y56.709 Z-2.191
N16170 X111.75 Y56.717 Z-2.2
N16175 G3 Y56.617 J-0.05
N16180 Y56.717 J0.05
N16185 G1 X111.732 Y56.709
N16190 X111.725 Y56.692
N16195 X111.75 Y56.667
N16200 G0 Z2.3
N16205 X97.25 Y50
N16210 Z1
N16215 G1 Z-0.7 F50
N16220 X97.225 Y49.975
N16225 X97.232 Y49.957
N16230 X97.25 Y49.95
N16235 X97.277 Y49.958 Z-0.709 F800
N16240 X97.295 Y49.979 Z-0.718
N16245 X97.3 Y50.006 Z-0.727
N16250 X97.289 Y50.032 Z-0.736
N16255 X97.266 Y50.047 Z-0.745
N16260 X97.238 Y50.049 Z-0.754
N16265 X97.214 Y50.035 Z-0.763
N16270 X97.201 Y50.01 Z-0.772
N16275 X97.203 Y49.982 Z-0.781
N16280 X97.22 Y49.96 Z-0.79
N16285 X97.246 Y49.95 Z-0.799
N16290 X97.273 Y49.956 Z-0.808
N16295 X97.293 Y49.975 Z-0.817
N16300 X97.3 Y50.002 Z-0.826
N16305 X97.291 Y50.029 Z-0.835
N16310 X97.269 Y50.046 Z-0.844
N16315 X97.242 Y50.049 Z-0.853
N16320 X97.217 Y50.037 Z-0.862
N16325 X97.202 Y50.013 Z-0.871
N16330 Y49.986 Z-0.88
N16335 X97.217 Y49.962 Z-0.889
N16340 X97.243 Y49.951 Z-0.898
N16345 X97.27 Y49.954 Z-0.907
N16350 X97.291 Y49.972 Z-0.916
N16355 X97.3 Y49.999 Z-0.925
N16360 X97.293 Y50.026 Z-0.934
N16365 X97.273 Y50.045 Z-0.943
N16370 X97.245 Y50.05 Z-0.951
N16375 X97.219 Y50.04 Z-0.96
N16380 X97.203 Y50.017 Z-0.969
N16385 X97.201 Y49.989 Z-0.978
N16390 X97.214 Y49.965 Z-0.987
N16395 X97.239 Y49.951 Z-0.996
N16400 X97.267 Y49.953 Z-1.005
N16405 X97.289 Y49.969 Z-1.014
N16410 X97.3 Y49.995 Z-1.023
N16415 X97.295 Y50.022 Z-1.032
N16420 X97.276 Y50.043 Z-1.041
N16425 X97.249 Y50.05 Z-1.05
N16430 X97.222 Y50.042 Z-1.059
N16435 X97.204 Y50.021 Z-1.068
N16440 X97.2 Y49.993 Z-1.077
N16445 X97.212 Y49.968 Z-1.086
N16450 X97.235 Y49.952 Z-1.095
N16455 X97.263 Z-1.104
N16460 X97.287 Y49.966 Z-1.113
N16465 X97.299 Y49.991 Z-1.122
N16470 X97.296 Y50.019 Z-1.131
N16475 X97.279 Y50.041 Z-1.14
N16480 X97.253 Y50.05 Z-1.149
N16485 X97.226 Y50.044 Z-1.158
N16490 X97.206 Y50.024 Z-1.167
N16495 X97.2 Y49.997 Z-1.176
N16500 X97.21 Y49.971 Z-1.185
N16505 X97.232 Y49.953 Z-1.194
N16510 X97.259 Y49.951 Z-1.203
N16515 X97.284 Y49.964 Z-1.212
N16520 X97.298 Y49.987 Z-1.221
N16525 Y50.015 Z-1.23
N16530 X97.282 Y50.038 Z-1.239
N16535 X97.257 Y50.05 Z-1.248
N16540 X97.229 Y50.045 Z-1.257
N16545 X97.208 Y50.027 Z-1.266
N16550 X97.2 Y50 Z-1.275
N16555 X97.208 Y49.974 Z-1.284
N16560 X97.228 Y49.955 Z-1.293
N16565 X97.256 Y49.95 Z-1.302
N16570 X97.281 Y49.961 Z-1.311
N16575 X97.297 Y49.984 Z-1.32
N16580 X97.299 Y50.012 Z-1.329
N16585 X97.285 Y50.036 Z-1.338
N16590 X97.26 Y50.049 Z-1.347
N16595 X97.233 Y50.047 Z-1.356
N16600 X97.21 Y50.03 Z-1.365
N16605 X97.2 Y50.004 Z-1.374
N16610 X97.206 Y49.977 Z-1.383
N16615 X97.225 Y49.957 Z-1.392
N16620 X97.252 Y49.95 Z-1.401
N16625 X97.278 Y49.959 Z-1.41
N16630 X97.296 Y49.98 Z-1.419
N16635 X97.299 Y50.008 Z-1.428
N16640 X97.287 Y50.033 Z-1.437
N16645 X97.264 Y50.048 Z-1.446
N16650 X97.236 Z-1.454
N16655 X97.213 Y50.033 Z-1.463
N16660 X97.201 Y50.008 Z-1.472
N16665 X97.204 Y49.98 Z-1.481
N16670 X97.222 Y49.959 Z-1.49
N16675 X97.248 Y49.95 Z-1.499
N16680 X97.275 Y49.957 Z-1.508
N16685 X97.294 Y49.977 Z-1.517
N16690 X97.3 Y50.004 Z-1.526
N16695 X97.29 Y50.03 Z-1.535
N16700 X97.267 Y50.047 Z-1.544
N16705 X97.24 Y50.049 Z-1.553
N16710 X97.215 Y50.036 Z-1.562
N16715 X97.201 Y50.012 Z-1.571
N16720 X97.203 Y49.984 Z-1.58
N16725 X97.219 Y49.961 Z-1.589
N16730 X97.244 Y49.95 Z-1.598
N16735 X97.272 Y49.955 Z-1.607
N16740 X97.292 Y49.974 Z-1.616
N16745 X97.3 Y50 Z-1.625
N16750 X97.292 Y50.027 Z-1.634
N16755 X97.271 Y50.045 Z-1.643
N16760 X97.243 Y50.05 Z-1.652
N16765 X97.218 Y50.038 Z-1.661
N16770 X97.202 Y50.015 Z-1.67
N16775 Y49.987 Z-1.679
N16780 X97.216 Y49.964 Z-1.688
N16785 X97.241 Y49.951 Z-1.697
N16790 X97.268 Y49.953 Z-1.706
N16795 X97.29 Y49.971 Z-1.715
N16800 X97.3 Y49.997 Z-1.724
N16805 X97.294 Y50.024 Z-1.733
N16810 X97.274 Y50.044 Z-1.742
N16815 X97.247 Y50.05 Z-1.751
N16820 X97.221 Y50.041 Z-1.76
N16825 X97.204 Y50.019 Z-1.769
N16830 X97.201 Y49.991 Z-1.778
N16835 X97.213 Y49.966 Z-1.787
N16840 X97.237 Y49.952 Z-1.796
N16845 X97.265 Z-1.805
N16850 X97.288 Y49.968 Z-1.814
N16855 X97.3 Y49.993 Z-1.823
N16860 X97.296 Y50.021 Z-1.832
N16865 X97.278 Y50.042 Z-1.841
N16870 X97.251 Y50.05 Z-1.85
N16875 X97.224 Y50.043 Z-1.859
N16880 X97.205 Y50.022 Z-1.868
N16885 X97.2 Y49.995 Z-1.877
N16890 X97.211 Y49.969 Z-1.886
N16895 X97.233 Y49.953 Z-1.895
N16900 X97.261 Y49.951 Z-1.904
N16905 X97.286 Y49.965 Z-1.913
N16910 X97.299 Y49.989 Z-1.922
N16915 X97.297 Y50.017 Z-1.931
N16920 X97.281 Y50.04 Z-1.94
N16925 X97.255 Y50.05 Z-1.949
N16930 X97.227 Y50.045 Z-1.957
N16935 X97.207 Y50.026 Z-1.966
N16940 X97.2 Y49.999 Z-1.975
N16945 X97.209 Y49.972 Z-1.984
N16950 X97.23 Y49.954 Z-1.993
N16955 X97.257 Y49.951 Z-2.002
N16960 X97.283 Y49.962 Z-2.011
N16965 X97.298 Y49.986 Z-2.02
N16970 Y50.013 Z-2.029
N16975 X97.283 Y50.037 Z-2.038
N16980 X97.258 Y50.049 Z-2.047
N16985 X97.231 Y50.046 Z-2.056
N16990 X97.209 Y50.029 Z-2.065
N16995 X97.2 Y50.002 Z-2.074
N17000 X97.207 Y49.975 Z-2.083
N17005 X97.227 Y49.956 Z-2.092
N17010 X97.254 Y49.95 Z-2.101
N17015 X97.28 Y49.96 Z-2.11
N17020 X97.297 Y49.982 Z-2.119
N17025 X97.299 Y50.01 Z-2.128
N17030 X97.286 Y50.035 Z-2.137
N17035 X97.262 Y50.049 Z-2.146
N17040 X97.234 Y50.047 Z-2.155
N17045 X97.211 Y50.032 Z-2.164
N17050 X97.2 Y50.006 Z-2.173
N17055 X97.205 Y49.979 Z-2.182
N17060 X97.223 Y49.958 Z-2.191
N17065 X97.25 Y49.95 Z-2.2
N17070 G3 Y50.05 J0.05
N17075 Y49.95 J-0.05
N17080 G1 X97.268 Y49.957
N17085 X97.275 Y49.975
N17090 X97.25 Y50
N17095 G0 Z2.3
N17100 X79.75
N17105 Z1
N17110 G1 Z-0.7 F50
N17115 X79.725 Y49.975
N17120 X79.732 Y49.957
N17125 X79.75 Y49.95
N17130 X79.777 Y49.958 Z-0.709 F800
N17135 X79.795 Y49.979 Z-0.718
N17140 X79.8 Y50.006 Z-0.727
N17145 X79.789 Y50.032 Z-0.736
N17150 X79.766 Y50.047 Z-0.745
N17155 X79.738 Y50.049 Z-0.754
N17160 X79.714 Y50.035 Z-0.763
N17165 X79.701 Y50.01 Z-0.772
N17170 X79.703 Y49.982 Z-0.781
N17175 X79.72 Y49.96 Z-0.79
N17180 X79.746 Y49.95 Z-0.799
N17185 X79.773 Y49.956 Z-0.808
N17190 X79.793 Y49.975 Z-0.817
N17195 X79.8 Y50.002 Z-0.826
N17200 X79.791 Y50.029 Z-0.835
N17205 X79.769 Y50.046 Z-0.844
N17210 X79.742 Y50.049 Z-0.853
N17215 X79.717 Y50.037 Z-0.862
N17220 X79.702 Y50.013 Z-0.871
N17225 Y49.986 Z-0.88
N17230 X79.717 Y49.962 Z-0.889
N17235 X79.743 Y49.951 Z-0.898
N17240 X79.77 Y49.954 Z-0.907
N17245 X79.791 Y49.972 Z-0.916
N17250 X79.8 Y49.999 Z-0.925
N17255 X79.793 Y50.026 Z-0.934
