%
(1001)
(T3 D=3 CR=0 - ZMIN=-5.2 - flat end mill)
N10 G90 G94
N15 G17
N20 G21
N25 G28

(??2)
N30 T3 M6
N35 S20000 M3
N40 G54
N45 M8
N50 G0 X62.399 Y7.435
N55 G43 Z2.3
N60 G1 Z0.6 F50
N65 X62.394 Y7.429 Z0.533
N70 X62.381 Y7.411 Z0.47
N75 X62.36 Y7.382 Z0.413
N80 X62.332 Y7.343 Z0.365
N85 X62.299 Y7.297 Z0.33
N90 X62.262 Y7.246 Z0.308
N95 X62.222 Y7.192 Z0.3
N100 X62.134 Y7.071
N105 G3 X62.201 Y6.652 I0.243 J-0.176
N110 X63.964 Y9.079 Z0.25 I0.882 J1.214 F800
N115 X62.201 Y6.652 Z0.2 I-0.882 J-1.214
N120 X63.964 Y9.079 Z0.15 I0.882 J1.214
N125 X62.201 Y6.652 Z0.1 I-0.882 J-1.214
N130 X63.964 Y9.079 Z0.05 I0.882 J1.214
N135 X62.201 Y6.652 Z0 I-0.882 J-1.214
N140 X63.964 Y9.079 Z-0.05 I0.882 J1.214
N145 X62.201 Y6.652 Z-0.1 I-0.882 J-1.214
N150 X63.964 Y9.079 Z-0.15 I0.882 J1.214
N155 X62.201 Y6.652 Z-0.2 I-0.882 J-1.214
N160 X63.964 Y9.079 Z-0.25 I0.882 J1.214
N165 X62.201 Y6.652 Z-0.3 I-0.882 J-1.214
N170 X63.964 Y9.079 Z-0.35 I0.882 J1.214
N175 X62.201 Y6.652 Z-0.4 I-0.882 J-1.214
N180 X63.964 Y9.079 Z-0.45 I0.882 J1.214
N185 X62.201 Y6.652 Z-0.5 I-0.882 J-1.214
N190 X63.964 Y9.079 Z-0.55 I0.882 J1.214
N195 X62.201 Y6.652 Z-0.6 I-0.882 J-1.214
N200 X63.964 Y9.079 Z-0.65 I0.882 J1.214
N205 X62.201 Y6.652 Z-0.7 I-0.882 J-1.214
N210 X63.964 Y9.079 Z-0.75 I0.882 J1.214
N215 X62.201 Y6.652 Z-0.8 I-0.882 J-1.214
N220 X63.964 Y9.079 Z-0.85 I0.882 J1.214
N225 X62.201 Y6.652 Z-0.9 I-0.882 J-1.214
N230 X63.964 Y9.079 Z-0.95 I0.882 J1.214
N235 X62.201 Y6.652 Z-1 I-0.882 J-1.214
N240 X63.964 Y9.079 Z-1.05 I0.882 J1.214
N245 X62.201 Y6.652 Z-1.1 I-0.882 J-1.214
N250 X63.964 Y9.079 Z-1.15 I0.882 J1.214
N255 X62.201 Y6.652 Z-1.2 I-0.882 J-1.214
N260 X63.964 Y9.079 Z-1.25 I0.882 J1.214
N265 X62.201 Y6.652 Z-1.3 I-0.882 J-1.214
N270 X63.964 Y9.079 Z-1.35 I0.882 J1.214
N275 X62.201 Y6.652 Z-1.4 I-0.882 J-1.214
N280 X63.964 Y9.079 Z-1.45 I0.882 J1.214
N285 X62.201 Y6.652 Z-1.5 I-0.882 J-1.214
N290 X63.964 Y9.079 Z-1.55 I0.882 J1.214
N295 X62.201 Y6.652 Z-1.6 I-0.882 J-1.214
N300 X63.964 Y9.079 Z-1.65 I0.882 J1.214
N305 X62.201 Y6.652 Z-1.7 I-0.882 J-1.214
N310 X63.964 Y9.079 Z-1.75 I0.882 J1.214
N315 X62.201 Y6.652 Z-1.8 I-0.882 J-1.214
N320 X63.964 Y9.079 Z-1.85 I0.882 J1.214
N325 X62.201 Y6.652 Z-1.9 I-0.882 J-1.214
N330 X63.964 Y9.079 Z-1.95 I0.882 J1.214
N335 X62.201 Y6.652 Z-2 I-0.882 J-1.214
N340 X63.964 Y9.079 Z-2.05 I0.882 J1.214
N345 X62.201 Y6.652 Z-2.1 I-0.882 J-1.214
N350 X63.964 Y9.079 Z-2.15 I0.882 J1.214
N355 X62.201 Y6.652 Z-2.2 I-0.882 J-1.214
N360 X63.964 Y9.079 Z-2.25 I0.882 J1.214
N365 X62.201 Y6.652 Z-2.3 I-0.882 J-1.214
N370 X63.964 Y9.079 Z-2.35 I0.882 J1.214
N375 X62.201 Y6.652 Z-2.4 I-0.882 J-1.214
N380 X63.964 Y9.079 Z-2.45 I0.882 J1.214
N385 X62.201 Y6.652 Z-2.5 I-0.882 J-1.214
N390 X63.964 Y9.079 Z-2.55 I0.882 J1.214
N395 X62.201 Y6.652 Z-2.6 I-0.882 J-1.214
N400 X63.964 Y9.079 Z-2.65 I0.882 J1.214
N405 X62.201 Y6.652 Z-2.7 I-0.882 J-1.214
N410 X63.964 Y9.079 Z-2.75 I0.882 J1.214
N415 X62.201 Y6.652 Z-2.8 I-0.882 J-1.214
N420 X63.964 Y9.079 Z-2.85 I0.882 J1.214
N425 X62.201 Y6.652 Z-2.9 I-0.882 J-1.214
N430 X63.964 Y9.079 Z-2.95 I0.882 J1.214
N435 X62.201 Y6.652 Z-3 I-0.882 J-1.214
N440 X63.964 Y9.079 I0.882 J1.214
N445 X62.201 Y6.652 I-0.882 J-1.214
N450 X62.62 Y6.718 I0.176 J0.243
N455 G1 X62.708 Y6.839
N460 X62.747 Y6.893 Z-2.992
N465 X62.784 Y6.945 Z-2.97
N470 X62.818 Y6.991 Z-2.935
N475 X62.846 Y7.029 Z-2.887
N480 X62.867 Y7.058 Z-2.83
N485 X62.88 Y7.076 Z-2.767
N490 X62.884 Y7.082 Z-2.7
N495 G0 Z2.3

(??3)
N500 X30.915 Y10.079
N505 Z2.3
N510 G1 Z0.6 F50
N515 G18 G2 X31.215 Z0.3 I0.3
N520 G1 X31.365
N525 G17 G3 X31.64 Y10.354 J0.275
N530 X30.54 Z0.25 I-0.55 F800
N535 X31.64 Z0.2 I0.55
N540 X30.54 Z0.15 I-0.55
N545 X31.64 Z0.1 I0.55
N550 X30.54 Z0.05 I-0.55
N555 X31.64 Z0 I0.55
N560 X30.54 Z-0.05 I-0.55
N565 X31.64 Z-0.1 I0.55
N570 X30.54 Z-0.15 I-0.55
N575 X31.64 Z-0.2 I0.55
N580 X30.54 Z-0.25 I-0.55
N585 X31.64 Z-0.3 I0.55
N590 X30.54 Z-0.35 I-0.55
N595 X31.64 Z-0.4 I0.55
N600 X30.54 Z-0.45 I-0.55
N605 X31.64 Z-0.5 I0.55
N610 X30.54 Z-0.55 I-0.55
N615 X31.64 Z-0.6 I0.55
N620 X30.54 Z-0.65 I-0.55
N625 X31.64 Z-0.7 I0.55
N630 X30.54 Z-0.75 I-0.55
N635 X31.64 Z-0.8 I0.55
N640 X30.54 Z-0.85 I-0.55
N645 X31.64 Z-0.9 I0.55
N650 X30.54 Z-0.95 I-0.55
N655 X31.64 Z-1 I0.55
N660 X30.54 Z-1.05 I-0.55
N665 X31.64 Z-1.1 I0.55
N670 X30.54 Z-1.15 I-0.55
N675 X31.64 Z-1.2 I0.55
N680 X30.54 Z-1.25 I-0.55
N685 X31.64 Z-1.3 I0.55
N690 X30.54 Z-1.35 I-0.55
N695 X31.64 Z-1.4 I0.55
N700 X30.54 Z-1.45 I-0.55
N705 X31.64 Z-1.5 I0.55
N710 X30.54 Z-1.55 I-0.55
N715 X31.64 Z-1.6 I0.55
N720 X30.54 Z-1.65 I-0.55
N725 X31.64 Z-1.7 I0.55
N730 X30.54 Z-1.75 I-0.55
N735 X31.64 Z-1.8 I0.55
N740 X30.54 Z-1.85 I-0.55
N745 X31.64 Z-1.9 I0.55
N750 X30.54 Z-1.95 I-0.55
N755 X31.64 Z-2 I0.55
N760 X30.54 Z-2.05 I-0.55
N765 X31.64 Z-2.1 I0.55
N770 X30.54 Z-2.15 I-0.55
N775 X31.64 Z-2.2 I0.55
N780 X30.54 Z-2.25 I-0.55
N785 X31.64 Z-2.3 I0.55
N790 X30.54 Z-2.35 I-0.55
N795 X31.64 Z-2.4 I0.55
N800 X30.54 Z-2.45 I-0.55
N805 X31.64 Z-2.5 I0.55
N810 X30.54 Z-2.55 I-0.55
N815 X31.64 Z-2.6 I0.55
N820 X30.54 Z-2.65 I-0.55
N825 X31.64 Z-2.7 I0.55
N830 X30.54 Z-2.75 I-0.55
N835 X31.64 Z-2.8 I0.55
N840 X30.54 Z-2.85 I-0.55
N845 X31.64 Z-2.9 I0.55
N850 X30.54 Z-2.95 I-0.55
N855 X31.64 Z-3 I0.55
N860 X30.54 Z-3.05 I-0.55
N865 X31.64 Z-3.1 I0.55
N870 X30.54 Z-3.15 I-0.55
N875 X31.64 Z-3.2 I0.55
N880 X30.54 Z-3.25 I-0.55
N885 X31.64 Z-3.3 I0.55
N890 X30.54 Z-3.35 I-0.55
N895 X31.64 Z-3.4 I0.55
N900 X30.54 Z-3.45 I-0.55
N905 X31.64 Z-3.5 I0.55
N910 X30.54 Z-3.55 I-0.55
N915 X31.64 Z-3.6 I0.55
N920 X30.54 Z-3.65 I-0.55
N925 X31.64 Z-3.7 I0.55
N930 X30.54 Z-3.75 I-0.55
N935 X31.64 Z-3.8 I0.55
N940 X30.54 Z-3.85 I-0.55
N945 X31.64 Z-3.9 I0.55
N950 X30.54 Z-3.95 I-0.55
N955 X31.64 Z-4 I0.55
N960 X30.54 Z-4.05 I-0.55
N965 X31.64 Z-4.1 I0.55
N970 X30.54 Z-4.15 I-0.55
N975 X31.64 Z-4.2 I0.55
N980 X30.54 Z-4.25 I-0.55
N985 X31.64 Z-4.3 I0.55
N990 X30.54 Z-4.35 I-0.55
N995 X31.64 Z-4.4 I0.55
N1000 X30.54 Z-4.45 I-0.55
N1005 X31.64 Z-4.5 I0.55
N1010 X30.54 Z-4.55 I-0.55
N1015 X31.64 Z-4.6 I0.55
N1020 X30.54 Z-4.65 I-0.55
N1025 X31.64 Z-4.7 I0.55
N1030 X30.54 Z-4.75 I-0.55
N1035 X31.64 Z-4.8 I0.55
N1040 X30.54 Z-4.85 I-0.55
N1045 X31.64 Z-4.9 I0.55
N1050 X30.54 Z-4.95 I-0.55
N1055 X31.64 Z-5 I0.55
N1060 X30.54 Z-5.05 I-0.55
N1065 X31.64 Z-5.1 I0.55
N1070 X30.54 Z-5.15 I-0.55
N1075 X31.64 Z-5.2 I0.55
N1080 X30.54 I-0.55
N1085 X31.64 I0.55
N1090 X31.365 Y10.629 I-0.275
N1095 G1 X31.215
N1100 G18 G3 X30.915 Z-4.9 K0.3
N1105 G0 Z2.3
N1110 X23.675 Y8.595
N1115 G1 Z0.6 F50
N1120 G3 X23.375 Z0.3 I-0.3
N1125 G1 X23.225
N1130 G17 G3 X22.95 Y8.32 J-0.275
N1135 X24.05 Z0.25 I0.55 F800
N1140 X22.95 Z0.2 I-0.55
N1145 X24.05 Z0.15 I0.55
N1150 X22.95 Z0.1 I-0.55
N1155 X24.05 Z0.05 I0.55
N1160 X22.95 Z0 I-0.55
N1165 X24.05 Z-0.05 I0.55
N1170 X22.95 Z-0.1 I-0.55
N1175 X24.05 Z-0.15 I0.55
N1180 X22.95 Z-0.2 I-0.55
N1185 X24.05 Z-0.25 I0.55
N1190 X22.95 Z-0.3 I-0.55
N1195 X24.05 Z-0.35 I0.55
N1200 X22.95 Z-0.4 I-0.55
N1205 X24.05 Z-0.45 I0.55
N1210 X22.95 Z-0.5 I-0.55
N1215 X24.05 Z-0.55 I0.55
N1220 X22.95 Z-0.6 I-0.55
N1225 X24.05 Z-0.65 I0.55
N1230 X22.95 Z-0.7 I-0.55
N1235 X24.05 Z-0.75 I0.55
N1240 X22.95 Z-0.8 I-0.55
N1245 X24.05 Z-0.85 I0.55
N1250 X22.95 Z-0.9 I-0.55
N1255 X24.05 Z-0.95 I0.55
N1260 X22.95 Z-1 I-0.55
N1265 X24.05 Z-1.05 I0.55
N1270 X22.95 Z-1.1 I-0.55
N1275 X24.05 Z-1.15 I0.55
N1280 X22.95 Z-1.2 I-0.55
N1285 X24.05 Z-1.25 I0.55
N1290 X22.95 Z-1.3 I-0.55
N1295 X24.05 Z-1.35 I0.55
N1300 X22.95 Z-1.4 I-0.55
N1305 X24.05 Z-1.45 I0.55
N1310 X22.95 Z-1.5 I-0.55
N1315 X24.05 Z-1.55 I0.55
N1320 X22.95 Z-1.6 I-0.55
N1325 X24.05 Z-1.65 I0.55
N1330 X22.95 Z-1.7 I-0.55
N1335 X24.05 Z-1.75 I0.55
N1340 X22.95 Z-1.8 I-0.55
N1345 X24.05 Z-1.85 I0.55
N1350 X22.95 Z-1.9 I-0.55
N1355 X24.05 Z-1.95 I0.55
N1360 X22.95 Z-2 I-0.55
N1365 X24.05 Z-2.05 I0.55
N1370 X22.95 Z-2.1 I-0.55
N1375 X24.05 Z-2.15 I0.55
N1380 X22.95 Z-2.2 I-0.55
N1385 X24.05 Z-2.25 I0.55
N1390 X22.95 Z-2.3 I-0.55
N1395 X24.05 Z-2.35 I0.55
N1400 X22.95 Z-2.4 I-0.55
N1405 X24.05 Z-2.45 I0.55
N1410 X22.95 Z-2.5 I-0.55
N1415 X24.05 Z-2.55 I0.55
N1420 X22.95 Z-2.6 I-0.55
N1425 X24.05 Z-2.65 I0.55
N1430 X22.95 Z-2.7 I-0.55
N1435 X24.05 Z-2.75 I0.55
N1440 X22.95 Z-2.8 I-0.55
N1445 X24.05 Z-2.85 I0.55
N1450 X22.95 Z-2.9 I-0.55
N1455 X24.05 Z-2.95 I0.55
N1460 X22.95 Z-3 I-0.55
N1465 X24.05 Z-3.05 I0.55
N1470 X22.95 Z-3.1 I-0.55
N1475 X24.05 Z-3.15 I0.55
N1480 X22.95 Z-3.2 I-0.55
N1485 X24.05 Z-3.25 I0.55
N1490 X22.95 Z-3.3 I-0.55
N1495 X24.05 Z-3.35 I0.55
N1500 X22.95 Z-3.4 I-0.55
N1505 X24.05 Z-3.45 I0.55
N1510 X22.95 Z-3.5 I-0.55
N1515 X24.05 Z-3.55 I0.55
N1520 X22.95 Z-3.6 I-0.55
N1525 X24.05 Z-3.65 I0.55
N1530 X22.95 Z-3.7 I-0.55
N1535 X24.05 Z-3.75 I0.55
N1540 X22.95 Z-3.8 I-0.55
N1545 X24.05 Z-3.85 I0.55
N1550 X22.95 Z-3.9 I-0.55
N1555 X24.05 Z-3.95 I0.55
N1560 X22.95 Z-4 I-0.55
N1565 X24.05 Z-4.05 I0.55
N1570 X22.95 Z-4.1 I-0.55
N1575 X24.05 Z-4.15 I0.55
N1580 X22.95 Z-4.2 I-0.55
N1585 X24.05 Z-4.25 I0.55
N1590 X22.95 Z-4.3 I-0.55
N1595 X24.05 Z-4.35 I0.55
N1600 X22.95 Z-4.4 I-0.55
N1605 X24.05 Z-4.45 I0.55
N1610 X22.95 Z-4.5 I-0.55
N1615 X24.05 Z-4.55 I0.55
N1620 X22.95 Z-4.6 I-0.55
N1625 X24.05 Z-4.65 I0.55
N1630 X22.95 Z-4.7 I-0.55
N1635 X24.05 Z-4.75 I0.55
N1640 X22.95 Z-4.8 I-0.55
N1645 X24.05 Z-4.85 I0.55
N1650 X22.95 Z-4.9 I-0.55
N1655 X24.05 Z-4.95 I0.55
N1660 X22.95 Z-5 I-0.55
N1665 X24.05 Z-5.05 I0.55
N1670 X22.95 Z-5.1 I-0.55
N1675 X24.05 Z-5.15 I0.55
N1680 X22.95 Z-5.2 I-0.55
N1685 X24.05 I0.55
N1690 X22.95 I-0.55
N1695 X23.225 Y8.045 I0.275
N1700 G1 X23.375
N1705 G18 G2 X23.675 Z-4.9 K0.3
N1710 G0 Z2.3
N1715 X15.735 Y10.079
N1720 G1 Z0.6 F50
N1725 G2 X16.035 Z0.3 I0.3
N1730 G1 X16.185
N1735 G17 G3 X16.46 Y10.354 J0.275
N1740 X15.36 Z0.25 I-0.55 F800
N1745 X16.46 Z0.2 I0.55
N1750 X15.36 Z0.15 I-0.55
N1755 X16.46 Z0.1 I0.55
N1760 X15.36 Z0.05 I-0.55
N1765 X16.46 Z0 I0.55
N1770 X15.36 Z-0.05 I-0.55
N1775 X16.46 Z-0.1 I0.55
N1780 X15.36 Z-0.15 I-0.55
N1785 X16.46 Z-0.2 I0.55
N1790 X15.36 Z-0.25 I-0.55
N1795 X16.46 Z-0.3 I0.55
N1800 X15.36 Z-0.35 I-0.55
N1805 X16.46 Z-0.4 I0.55
N1810 X15.36 Z-0.45 I-0.55
N1815 X16.46 Z-0.5 I0.55
N1820 X15.36 Z-0.55 I-0.55
N1825 X16.46 Z-0.6 I0.55
N1830 X15.36 Z-0.65 I-0.55
N1835 X16.46 Z-0.7 I0.55
N1840 X15.36 Z-0.75 I-0.55
N1845 X16.46 Z-0.8 I0.55
N1850 X15.36 Z-0.85 I-0.55
N1855 X16.46 Z-0.9 I0.55
N1860 X15.36 Z-0.95 I-0.55
N1865 X16.46 Z-1 I0.55
N1870 X15.36 Z-1.05 I-0.55
N1875 X16.46 Z-1.1 I0.55
N1880 X15.36 Z-1.15 I-0.55
N1885 X16.46 Z-1.2 I0.55
N1890 X15.36 Z-1.25 I-0.55
N1895 X16.46 Z-1.3 I0.55
N1900 X15.36 Z-1.35 I-0.55
N1905 X16.46 Z-1.4 I0.55
N1910 X15.36 Z-1.45 I-0.55
N1915 X16.46 Z-1.5 I0.55
N1920 X15.36 Z-1.55 I-0.55
N1925 X16.46 Z-1.6 I0.55
N1930 X15.36 Z-1.65 I-0.55
N1935 X16.46 Z-1.7 I0.55
N1940 X15.36 Z-1.75 I-0.55
N1945 X16.46 Z-1.8 I0.55
N1950 X15.36 Z-1.85 I-0.55
N1955 X16.46 Z-1.9 I0.55
N1960 X15.36 Z-1.95 I-0.55
N1965 X16.46 Z-2 I0.55
N1970 X15.36 Z-2.05 I-0.55
N1975 X16.46 Z-2.1 I0.55
N1980 X15.36 Z-2.15 I-0.55
N1985 X16.46 Z-2.2 I0.55
N1990 X15.36 Z-2.25 I-0.55
N1995 X16.46 Z-2.3 I0.55
N2000 X15.36 Z-2.35 I-0.55
N2005 X16.46 Z-2.4 I0.55
N2010 X15.36 Z-2.45 I-0.55
N2015 X16.46 Z-2.5 I0.55
N2020 X15.36 Z-2.55 I-0.55
N2025 X16.46 Z-2.6 I0.55
N2030 X15.36 Z-2.65 I-0.55
N2035 X16.46 Z-2.7 I0.55
N2040 X15.36 Z-2.75 I-0.55
N2045 X16.46 Z-2.8 I0.55
N2050 X15.36 Z-2.85 I-0.55
N2055 X16.46 Z-2.9 I0.55
N2060 X15.36 Z-2.95 I-0.55
N2065 X16.46 Z-3 I0.55
N2070 X15.36 Z-3.05 I-0.55
N2075 X16.46 Z-3.1 I0.55
N2080 X15.36 Z-3.15 I-0.55
N2085 X16.46 Z-3.2 I0.55
N2090 X15.36 Z-3.25 I-0.55
N2095 X16.46 Z-3.3 I0.55
N2100 X15.36 Z-3.35 I-0.55
N2105 X16.46 Z-3.4 I0.55
N2110 X15.36 Z-3.45 I-0.55
N2115 X16.46 Z-3.5 I0.55
N2120 X15.36 Z-3.55 I-0.55
N2125 X16.46 Z-3.6 I0.55
N2130 X15.36 Z-3.65 I-0.55
N2135 X16.46 Z-3.7 I0.55
N2140 X15.36 Z-3.75 I-0.55
N2145 X16.46 Z-3.8 I0.55
N2150 X15.36 Z-3.85 I-0.55
N2155 X16.46 Z-3.9 I0.55
N2160 X15.36 Z-3.95 I-0.55
N2165 X16.46 Z-4 I0.55
N2170 X15.36 Z-4.05 I-0.55
N2175 X16.46 Z-4.1 I0.55
N2180 X15.36 Z-4.15 I-0.55
N2185 X16.46 Z-4.2 I0.55
N2190 X15.36 Z-4.25 I-0.55
N2195 X16.46 Z-4.3 I0.55
N2200 X15.36 Z-4.35 I-0.55
N2205 X16.46 Z-4.4 I0.55
N2210 X15.36 Z-4.45 I-0.55
N2215 X16.46 Z-4.5 I0.55
N2220 X15.36 Z-4.55 I-0.55
N2225 X16.46 Z-4.6 I0.55
N2230 X15.36 Z-4.65 I-0.55
N2235 X16.46 Z-4.7 I0.55
N2240 X15.36 Z-4.75 I-0.55
N2245 X16.46 Z-4.8 I0.55
N2250 X15.36 Z-4.85 I-0.55
N2255 X16.46 Z-4.9 I0.55
N2260 X15.36 Z-4.95 I-0.55
N2265 X16.46 Z-5 I0.55
N2270 X15.36 Z-5.05 I-0.55
N2275 X16.46 Z-5.1 I0.55
N2280 X15.36 Z-5.15 I-0.55
N2285 X16.46 Z-5.2 I0.55
N2290 X15.36 I-0.55
N2295 X16.46 I0.55
N2300 X16.185 Y10.629 I-0.275
N2305 G1 X16.035
N2310 G18 G3 X15.735 Z-4.9 K0.3
N2315 G0 Z2.3
N2320 X8.495 Y23.775
N2325 G1 Z0.6 F50
N2330 G3 X8.195 Z0.3 I-0.3
N2335 G1 X8.045
N2340 G17 G3 X7.77 Y23.5 J-0.275
N2345 X8.87 Z0.25 I0.55 F800
N2350 X7.77 Z0.2 I-0.55
N2355 X8.87 Z0.15 I0.55
N2360 X7.77 Z0.1 I-0.55
N2365 X8.87 Z0.05 I0.55
N2370 X7.77 Z0 I-0.55
N2375 X8.87 Z-0.05 I0.55
N2380 X7.77 Z-0.1 I-0.55
N2385 X8.87 Z-0.15 I0.55
N2390 X7.77 Z-0.2 I-0.55
N2395 X8.87 Z-0.25 I0.55
N2400 X7.77 Z-0.3 I-0.55
N2405 X8.87 Z-0.35 I0.55
N2410 X7.77 Z-0.4 I-0.55
N2415 X8.87 Z-0.45 I0.55
N2420 X7.77 Z-0.5 I-0.55
N2425 X8.87 Z-0.55 I0.55
N2430 X7.77 Z-0.6 I-0.55
N2435 X8.87 Z-0.65 I0.55
N2440 X7.77 Z-0.7 I-0.55
N2445 X8.87 Z-0.75 I0.55
N2450 X7.77 Z-0.8 I-0.55
N2455 X8.87 Z-0.85 I0.55
N2460 X7.77 Z-0.9 I-0.55
N2465 X8.87 Z-0.95 I0.55
N2470 X7.77 Z-1 I-0.55
N2475 X8.87 Z-1.05 I0.55
N2480 X7.77 Z-1.1 I-0.55
N2485 X8.87 Z-1.15 I0.55
N2490 X7.77 Z-1.2 I-0.55
N2495 X8.87 Z-1.25 I0.55
N2500 X7.77 Z-1.3 I-0.55
N2505 X8.87 Z-1.35 I0.55
N2510 X7.77 Z-1.4 I-0.55
N2515 X8.87 Z-1.45 I0.55
N2520 X7.77 Z-1.5 I-0.55
N2525 X8.87 Z-1.55 I0.55
N2530 X7.77 Z-1.6 I-0.55
N2535 X8.87 Z-1.65 I0.55
N2540 X7.77 Z-1.7 I-0.55
N2545 X8.87 Z-1.75 I0.55
N2550 X7.77 Z-1.8 I-0.55
N2555 X8.87 Z-1.85 I0.55
N2560 X7.77 Z-1.9 I-0.55
N2565 X8.87 Z-1.95 I0.55
N2570 X7.77 Z-2 I-0.55
N2575 X8.87 Z-2.05 I0.55
N2580 X7.77 Z-2.1 I-0.55
N2585 X8.87 Z-2.15 I0.55
N2590 X7.77 Z-2.2 I-0.55
N2595 X8.87 Z-2.25 I0.55
N2600 X7.77 Z-2.3 I-0.55
N2605 X8.87 Z-2.35 I0.55
N2610 X7.77 Z-2.4 I-0.55
N2615 X8.87 Z-2.45 I0.55
N2620 X7.77 Z-2.5 I-0.55
N2625 X8.87 Z-2.55 I0.55
N2630 X7.77 Z-2.6 I-0.55
N2635 X8.87 Z-2.65 I0.55
N2640 X7.77 Z-2.7 I-0.55
N2645 X8.87 Z-2.75 I0.55
N2650 X7.77 Z-2.8 I-0.55
N2655 X8.87 Z-2.85 I0.55
N2660 X7.77 Z-2.9 I-0.55
N2665 X8.87 Z-2.95 I0.55
N2670 X7.77 Z-3 I-0.55
N2675 X8.87 Z-3.05 I0.55
N2680 X7.77 Z-3.1 I-0.55
N2685 X8.87 Z-3.15 I0.55
N2690 X7.77 Z-3.2 I-0.55
N2695 X8.87 Z-3.25 I0.55
N2700 X7.77 Z-3.3 I-0.55
N2705 X8.87 Z-3.35 I0.55
N2710 X7.77 Z-3.4 I-0.55
N2715 X8.87 Z-3.45 I0.55
N2720 X7.77 Z-3.5 I-0.55
N2725 X8.87 Z-3.55 I0.55
N2730 X7.77 Z-3.6 I-0.55
N2735 X8.87 Z-3.65 I0.55
N2740 X7.77 Z-3.7 I-0.55
N2745 X8.87 Z-3.75 I0.55
N2750 X7.77 Z-3.8 I-0.55
N2755 X8.87 Z-3.85 I0.55
N2760 X7.77 Z-3.9 I-0.55
N2765 X8.87 Z-3.95 I0.55
N2770 X7.77 Z-4 I-0.55
N2775 X8.87 Z-4.05 I0.55
N2780 X7.77 Z-4.1 I-0.55
N2785 X8.87 Z-4.15 I0.55
N2790 X7.77 Z-4.2 I-0.55
N2795 X8.87 Z-4.25 I0.55
N2800 X7.77 Z-4.3 I-0.55
N2805 X8.87 Z-4.35 I0.55
N2810 X7.77 Z-4.4 I-0.55
N2815 X8.87 Z-4.45 I0.55
N2820 X7.77 Z-4.5 I-0.55
N2825 X8.87 Z-4.55 I0.55
N2830 X7.77 Z-4.6 I-0.55
N2835 X8.87 Z-4.65 I0.55
N2840 X7.77 Z-4.7 I-0.55
N2845 X8.87 Z-4.75 I0.55
N2850 X7.77 Z-4.8 I-0.55
N2855 X8.87 Z-4.85 I0.55
N2860 X7.77 Z-4.9 I-0.55
N2865 X8.87 Z-4.95 I0.55
N2870 X7.77 Z-5 I-0.55
N2875 X8.87 Z-5.05 I0.55
N2880 X7.77 Z-5.1 I-0.55
N2885 X8.87 Z-5.15 I0.55
N2890 X7.77 Z-5.2 I-0.55
N2895 X8.87 I0.55
N2900 X7.77 I-0.55
N2905 X8.045 Y23.225 I0.275
N2910 G1 X8.195
N2915 G18 G2 X8.495 Z-4.9 K0.3
N2920 G0 Z2.3
N2925 X10.179 Y30.815
N2930 G1 Z0.6 F50
N2935 G2 X10.479 Z0.3 I0.3
N2940 G1 X10.629
N2945 G17 G3 X10.904 Y31.09 J0.275
N2950 X9.804 Z0.25 I-0.55 F800
N2955 X10.904 Z0.2 I0.55
N2960 X9.804 Z0.15 I-0.55
N2965 X10.904 Z0.1 I0.55
N2970 X9.804 Z0.05 I-0.55
N2975 X10.904 Z0 I0.55
N2980 X9.804 Z-0.05 I-0.55
N2985 X10.904 Z-0.1 I0.55
N2990 X9.804 Z-0.15 I-0.55
N2995 X10.904 Z-0.2 I0.55
N3000 X9.804 Z-0.25 I-0.55
N3005 X10.904 Z-0.3 I0.55
N3010 X9.804 Z-0.35 I-0.55
N3015 X10.904 Z-0.4 I0.55
N3020 X9.804 Z-0.45 I-0.55
N3025 X10.904 Z-0.5 I0.55
N3030 X9.804 Z-0.55 I-0.55
N3035 X10.904 Z-0.6 I0.55
N3040 X9.804 Z-0.65 I-0.55
N3045 X10.904 Z-0.7 I0.55
N3050 X9.804 Z-0.75 I-0.55
N3055 X10.904 Z-0.8 I0.55
N3060 X9.804 Z-0.85 I-0.55
N3065 X10.904 Z-0.9 I0.55
N3070 X9.804 Z-0.95 I-0.55
N3075 X10.904 Z-1 I0.55
N3080 X9.804 Z-1.05 I-0.55
N3085 X10.904 Z-1.1 I0.55
N3090 X9.804 Z-1.15 I-0.55
N3095 X10.904 Z-1.2 I0.55
N3100 X9.804 Z-1.25 I-0.55
N3105 X10.904 Z-1.3 I0.55
N3110 X9.804 Z-1.35 I-0.55
N3115 X10.904 Z-1.4 I0.55
N3120 X9.804 Z-1.45 I-0.55
N3125 X10.904 Z-1.5 I0.55
N3130 X9.804 Z-1.55 I-0.55
N3135 X10.904 Z-1.6 I0.55
N3140 X9.804 Z-1.65 I-0.55
N3145 X10.904 Z-1.7 I0.55
N3150 X9.804 Z-1.75 I-0.55
N3155 X10.904 Z-1.8 I0.55
N3160 X9.804 Z-1.85 I-0.55
N3165 X10.904 Z-1.9 I0.55
N3170 X9.804 Z-1.95 I-0.55
N3175 X10.904 Z-2 I0.55
N3180 X9.804 Z-2.05 I-0.55
N3185 X10.904 Z-2.1 I0.55
N3190 X9.804 Z-2.15 I-0.55
N3195 X10.904 Z-2.2 I0.55
N3200 X9.804 Z-2.25 I-0.55
N3205 X10.904 Z-2.3 I0.55
N3210 X9.804 Z-2.35 I-0.55
N3215 X10.904 Z-2.4 I0.55
N3220 X9.804 Z-2.45 I-0.55
N3225 X10.904 Z-2.5 I0.55
N3230 X9.804 Z-2.55 I-0.55
N3235 X10.904 Z-2.6 I0.55
N3240 X9.804 Z-2.65 I-0.55
N3245 X10.904 Z-2.7 I0.55
N3250 X9.804 Z-2.75 I-0.55
N3255 X10.904 Z-2.8 I0.55
N3260 X9.804 Z-2.85 I-0.55
N3265 X10.904 Z-2.9 I0.55
N3270 X9.804 Z-2.95 I-0.55
N3275 X10.904 Z-3 I0.55
N3280 X9.804 Z-3.05 I-0.55
N3285 X10.904 Z-3.1 I0.55
N3290 X9.804 Z-3.15 I-0.55
N3295 X10.904 Z-3.2 I0.55
N3300 X9.804 Z-3.25 I-0.55
N3305 X10.904 Z-3.3 I0.55
N3310 X9.804 Z-3.35 I-0.55
N3315 X10.904 Z-3.4 I0.55
N3320 X9.804 Z-3.45 I-0.55
N3325 X10.904 Z-3.5 I0.55
N3330 X9.804 Z-3.55 I-0.55
N3335 X10.904 Z-3.6 I0.55
N3340 X9.804 Z-3.65 I-0.55
N3345 X10.904 Z-3.7 I0.55
N3350 X9.804 Z-3.75 I-0.55
N3355 X10.904 Z-3.8 I0.55
N3360 X9.804 Z-3.85 I-0.55
N3365 X10.904 Z-3.9 I0.55
N3370 X9.804 Z-3.95 I-0.55
N3375 X10.904 Z-4 I0.55
N3380 X9.804 Z-4.05 I-0.55
N3385 X10.904 Z-4.1 I0.55
N3390 X9.804 Z-4.15 I-0.55
N3395 X10.904 Z-4.2 I0.55
N3400 X9.804 Z-4.25 I-0.55
N3405 X10.904 Z-4.3 I0.55
N3410 X9.804 Z-4.35 I-0.55
N3415 X10.904 Z-4.4 I0.55
N3420 X9.804 Z-4.45 I-0.55
N3425 X10.904 Z-4.5 I0.55
N3430 X9.804 Z-4.55 I-0.55
N3435 X10.904 Z-4.6 I0.55
N3440 X9.804 Z-4.65 I-0.55
N3445 X10.904 Z-4.7 I0.55
N3450 X9.804 Z-4.75 I-0.55
N3455 X10.904 Z-4.8 I0.55
N3460 X9.804 Z-4.85 I-0.55
N3465 X10.904 Z-4.9 I0.55
N3470 X9.804 Z-4.95 I-0.55
N3475 X10.904 Z-5 I0.55
N3480 X9.804 Z-5.05 I-0.55
N3485 X10.904 Z-5.1 I0.55
N3490 X9.804 Z-5.15 I-0.55
N3495 X10.904 Z-5.2 I0.55
N3500 X9.804 I-0.55
N3505 X10.904 I0.55
N3510 X10.629 Y31.365 I-0.275
N3515 G1 X10.479
N3520 G18 G3 X10.179 Z-4.9 K0.3
N3525 G0 Z2.3
N3530 X15.735 Y36.371
N3535 G1 Z0.6 F50
N3540 G2 X16.035 Z0.3 I0.3
N3545 G1 X16.185
N3550 G17 G3 X16.46 Y36.646 J0.275
N3555 X15.36 Z0.25 I-0.55 F800
N3560 X16.46 Z0.2 I0.55
N3565 X15.36 Z0.15 I-0.55
N3570 X16.46 Z0.1 I0.55
N3575 X15.36 Z0.05 I-0.55
N3580 X16.46 Z0 I0.55
N3585 X15.36 Z-0.05 I-0.55
N3590 X16.46 Z-0.1 I0.55
N3595 X15.36 Z-0.15 I-0.55
N3600 X16.46 Z-0.2 I0.55
N3605 X15.36 Z-0.25 I-0.55
N3610 X16.46 Z-0.3 I0.55
N3615 X15.36 Z-0.35 I-0.55
N3620 X16.46 Z-0.4 I0.55
N3625 X15.36 Z-0.45 I-0.55
N3630 X16.46 Z-0.5 I0.55
N3635 X15.36 Z-0.55 I-0.55
N3640 X16.46 Z-0.6 I0.55
N3645 X15.36 Z-0.65 I-0.55
N3650 X16.46 Z-0.7 I0.55
N3655 X15.36 Z-0.75 I-0.55
N3660 X16.46 Z-0.8 I0.55
N3665 X15.36 Z-0.85 I-0.55
N3670 X16.46 Z-0.9 I0.55
N3675 X15.36 Z-0.95 I-0.55
N3680 X16.46 Z-1 I0.55
N3685 X15.36 Z-1.05 I-0.55
N3690 X16.46 Z-1.1 I0.55
N3695 X15.36 Z-1.15 I-0.55
N3700 X16.46 Z-1.2 I0.55
N3705 X15.36 Z-1.25 I-0.55
N3710 X16.46 Z-1.3 I0.55
N3715 X15.36 Z-1.35 I-0.55
N3720 X16.46 Z-1.4 I0.55
N3725 X15.36 Z-1.45 I-0.55
N3730 X16.46 Z-1.5 I0.55
N3735 X15.36 Z-1.55 I-0.55
N3740 X16.46 Z-1.6 I0.55
N3745 X15.36 Z-1.65 I-0.55
N3750 X16.46 Z-1.7 I0.55
N3755 X15.36 Z-1.75 I-0.55
N3760 X16.46 Z-1.8 I0.55
N3765 X15.36 Z-1.85 I-0.55
N3770 X16.46 Z-1.9 I0.55
N3775 X15.36 Z-1.95 I-0.55
N3780 X16.46 Z-2 I0.55
N3785 X15.36 Z-2.05 I-0.55
N3790 X16.46 Z-2.1 I0.55
N3795 X15.36 Z-2.15 I-0.55
N3800 X16.46 Z-2.2 I0.55
N3805 X15.36 Z-2.25 I-0.55
N3810 X16.46 Z-2.3 I0.55
N3815 X15.36 Z-2.35 I-0.55
N3820 X16.46 Z-2.4 I0.55
N3825 X15.36 Z-2.45 I-0.55
N3830 X16.46 Z-2.5 I0.55
N3835 X15.36 Z-2.55 I-0.55
N3840 X16.46 Z-2.6 I0.55
N3845 X15.36 Z-2.65 I-0.55
N3850 X16.46 Z-2.7 I0.55
N3855 X15.36 Z-2.75 I-0.55
N3860 X16.46 Z-2.8 I0.55
N3865 X15.36 Z-2.85 I-0.55
N3870 X16.46 Z-2.9 I0.55
N3875 X15.36 Z-2.95 I-0.55
N3880 X16.46 Z-3 I0.55
N3885 X15.36 Z-3.05 I-0.55
N3890 X16.46 Z-3.1 I0.55
N3895 X15.36 Z-3.15 I-0.55
N3900 X16.46 Z-3.2 I0.55
N3905 X15.36 Z-3.25 I-0.55
N3910 X16.46 Z-3.3 I0.55
N3915 X15.36 Z-3.35 I-0.55
N3920 X16.46 Z-3.4 I0.55
N3925 X15.36 Z-3.45 I-0.55
N3930 X16.46 Z-3.5 I0.55
N3935 X15.36 Z-3.55 I-0.55
N3940 X16.46 Z-3.6 I0.55
N3945 X15.36 Z-3.65 I-0.55
N3950 X16.46 Z-3.7 I0.55
N3955 X15.36 Z-3.75 I-0.55
N3960 X16.46 Z-3.8 I0.55
N3965 X15.36 Z-3.85 I-0.55
N3970 X16.46 Z-3.9 I0.55
N3975 X15.36 Z-3.95 I-0.55
N3980 X16.46 Z-4 I0.55
N3985 X15.36 Z-4.05 I-0.55
N3990 X16.46 Z-4.1 I0.55
N3995 X15.36 Z-4.15 I-0.55
N4000 X16.46 Z-4.2 I0.55
N4005 X15.36 Z-4.25 I-0.55
N4010 X16.46 Z-4.3 I0.55
N4015 X15.36 Z-4.35 I-0.55
N4020 X16.46 Z-4.4 I0.55
N4025 X15.36 Z-4.45 I-0.55
N4030 X16.46 Z-4.5 I0.55
N4035 X15.36 Z-4.55 I-0.55
N4040 X16.46 Z-4.6 I0.55
N4045 X15.36 Z-4.65 I-0.55
N4050 X16.46 Z-4.7 I0.55
N4055 X15.36 Z-4.75 I-0.55
N4060 X16.46 Z-4.8 I0.55
N4065 X15.36 Z-4.85 I-0.55
N4070 X16.46 Z-4.9 I0.55
N4075 X15.36 Z-4.95 I-0.55
N4080 X16.46 Z-5 I0.55
N4085 X15.36 Z-5.05 I-0.55
N4090 X16.46 Z-5.1 I0.55
N4095 X15.36 Z-5.15 I-0.55
N4100 X16.46 Z-5.2 I0.55
N4105 X15.36 I-0.55
N4110 X16.46 I0.55
N4115 X16.185 Y36.921 I-0.275
N4120 G1 X16.035
N4125 G18 G3 X15.735 Z-4.9 K0.3
N4130 G0 Z2.3
N4135 X30.915 Y36.371
N4140 G1 Z0.6 F50
N4145 G2 X31.215 Z0.3 I0.3
N4150 G1 X31.365
N4155 G17 G3 X31.64 Y36.646 J0.275
N4160 X30.54 Z0.25 I-0.55 F800
N4165 X31.64 Z0.2 I0.55
N4170 X30.54 Z0.15 I-0.55
N4175 X31.64 Z0.1 I0.55
N4180 X30.54 Z0.05 I-0.55
N4185 X31.64 Z0 I0.55
N4190 X30.54 Z-0.05 I-0.55
N4195 X31.64 Z-0.1 I0.55
N4200 X30.54 Z-0.15 I-0.55
N4205 X31.64 Z-0.2 I0.55
N4210 X30.54 Z-0.25 I-0.55
N4215 X31.64 Z-0.3 I0.55
N4220 X30.54 Z-0.35 I-0.55
N4225 X31.64 Z-0.4 I0.55
N4230 X30.54 Z-0.45 I-0.55
N4235 X31.64 Z-0.5 I0.55
N4240 X30.54 Z-0.55 I-0.55
N4245 X31.64 Z-0.6 I0.55
N4250 X30.54 Z-0.65 I-0.55
N4255 X31.64 Z-0.7 I0.55
N4260 X30.54 Z-0.75 I-0.55
N4265 X31.64 Z-0.8 I0.55
N4270 X30.54 Z-0.85 I-0.55
N4275 X31.64 Z-0.9 I0.55
N4280 X30.54 Z-0.95 I-0.55
N4285 X31.64 Z-1 I0.55
N4290 X30.54 Z-1.05 I-0.55
N4295 X31.64 Z-1.1 I0.55
N4300 X30.54 Z-1.15 I-0.55
N4305 X31.64 Z-1.2 I0.55
N4310 X30.54 Z-1.25 I-0.55
N4315 X31.64 Z-1.3 I0.55
N4320 X30.54 Z-1.35 I-0.55
N4325 X31.64 Z-1.4 I0.55
N4330 X30.54 Z-1.45 I-0.55
N4335 X31.64 Z-1.5 I0.55
N4340 X30.54 Z-1.55 I-0.55
N4345 X31.64 Z-1.6 I0.55
N4350 X30.54 Z-1.65 I-0.55
N4355 X31.64 Z-1.7 I0.55
N4360 X30.54 Z-1.75 I-0.55
N4365 X31.64 Z-1.8 I0.55
N4370 X30.54 Z-1.85 I-0.55
N4375 X31.64 Z-1.9 I0.55
N4380 X30.54 Z-1.95 I-0.55
N4385 X31.64 Z-2 I0.55
N4390 X30.54 Z-2.05 I-0.55
N4395 X31.64 Z-2.1 I0.55
N4400 X30.54 Z-2.15 I-0.55
N4405 X31.64 Z-2.2 I0.55
N4410 X30.54 Z-2.25 I-0.55
N4415 X31.64 Z-2.3 I0.55
N4420 X30.54 Z-2.35 I-0.55
N4425 X31.64 Z-2.4 I0.55
N4430 X30.54 Z-2.45 I-0.55
N4435 X31.64 Z-2.5 I0.55
N4440 X30.54 Z-2.55 I-0.55
N4445 X31.64 Z-2.6 I0.55
N4450 X30.54 Z-2.65 I-0.55
N4455 X31.64 Z-2.7 I0.55
N4460 X30.54 Z-2.75 I-0.55
N4465 X31.64 Z-2.8 I0.55
N4470 X30.54 Z-2.85 I-0.55
N4475 X31.64 Z-2.9 I0.55
N4480 X30.54 Z-2.95 I-0.55
N4485 X31.64 Z-3 I0.55
N4490 X30.54 Z-3.05 I-0.55
N4495 X31.64 Z-3.1 I0.55
N4500 X30.54 Z-3.15 I-0.55
N4505 X31.64 Z-3.2 I0.55
N4510 X30.54 Z-3.25 I-0.55
N4515 X31.64 Z-3.3 I0.55
N4520 X30.54 Z-3.35 I-0.55
N4525 X31.64 Z-3.4 I0.55
N4530 X30.54 Z-3.45 I-0.55
N4535 X31.64 Z-3.5 I0.55
N4540 X30.54 Z-3.55 I-0.55
N4545 X31.64 Z-3.6 I0.55
N4550 X30.54 Z-3.65 I-0.55
N4555 X31.64 Z-3.7 I0.55
N4560 X30.54 Z-3.75 I-0.55
N4565 X31.64 Z-3.8 I0.55
N4570 X30.54 Z-3.85 I-0.55
N4575 X31.64 Z-3.9 I0.55
N4580 X30.54 Z-3.95 I-0.55
N4585 X31.64 Z-4 I0.55
N4590 X30.54 Z-4.05 I-0.55
N4595 X31.64 Z-4.1 I0.55
N4600 X30.54 Z-4.15 I-0.55
N4605 X31.64 Z-4.2 I0.55
N4610 X30.54 Z-4.25 I-0.55
N4615 X31.64 Z-4.3 I0.55
N4620 X30.54 Z-4.35 I-0.55
N4625 X31.64 Z-4.4 I0.55
N4630 X30.54 Z-4.45 I-0.55
N4635 X31.64 Z-4.5 I0.55
N4640 X30.54 Z-4.55 I-0.55
N4645 X31.64 Z-4.6 I0.55
N4650 X30.54 Z-4.65 I-0.55
N4655 X31.64 Z-4.7 I0.55
N4660 X30.54 Z-4.75 I-0.55
N4665 X31.64 Z-4.8 I0.55
N4670 X30.54 Z-4.85 I-0.55
N4675 X31.64 Z-4.9 I0.55
N4680 X30.54 Z-4.95 I-0.55
N4685 X31.64 Z-5 I0.55
N4690 X30.54 Z-5.05 I-0.55
N4695 X31.64 Z-5.1 I0.55
N4700 X30.54 Z-5.15 I-0.55
N4705 X31.64 Z-5.2 I0.55
N4710 X30.54 I-0.55
N4715 X31.64 I0.55
N4720 X31.365 Y36.921 I-0.275
N4725 G1 X31.215
N4730 G18 G3 X30.915 Z-4.9 K0.3
N4735 G0 Z2.3
N4740 X36.821 Y31.365
N4745 G1 Z0.6 F50
N4750 G3 X36.521 Z0.3 I-0.3
N4755 G1 X36.371
N4760 G17 G3 X36.096 Y31.09 J-0.275
N4765 X37.196 Z0.25 I0.55 F800
N4770 X36.096 Z0.2 I-0.55
N4775 X37.196 Z0.15 I0.55
N4780 X36.096 Z0.1 I-0.55
N4785 X37.196 Z0.05 I0.55
N4790 X36.096 Z0 I-0.55
N4795 X37.196 Z-0.05 I0.55
N4800 X36.096 Z-0.1 I-0.55
N4805 X37.196 Z-0.15 I0.55
N4810 X36.096 Z-0.2 I-0.55
N4815 X37.196 Z-0.25 I0.55
N4820 X36.096 Z-0.3 I-0.55
N4825 X37.196 Z-0.35 I0.55
N4830 X36.096 Z-0.4 I-0.55
N4835 X37.196 Z-0.45 I0.55
N4840 X36.096 Z-0.5 I-0.55
N4845 X37.196 Z-0.55 I0.55
N4850 X36.096 Z-0.6 I-0.55
N4855 X37.196 Z-0.65 I0.55
N4860 X36.096 Z-0.7 I-0.55
N4865 X37.196 Z-0.75 I0.55
N4870 X36.096 Z-0.8 I-0.55
N4875 X37.196 Z-0.85 I0.55
N4880 X36.096 Z-0.9 I-0.55
N4885 X37.196 Z-0.95 I0.55
N4890 X36.096 Z-1 I-0.55
N4895 X37.196 Z-1.05 I0.55
N4900 X36.096 Z-1.1 I-0.55
N4905 X37.196 Z-1.15 I0.55
N4910 X36.096 Z-1.2 I-0.55
N4915 X37.196 Z-1.25 I0.55
N4920 X36.096 Z-1.3 I-0.55
N4925 X37.196 Z-1.35 I0.55
N4930 X36.096 Z-1.4 I-0.55
N4935 X37.196 Z-1.45 I0.55
N4940 X36.096 Z-1.5 I-0.55
N4945 X37.196 Z-1.55 I0.55
N4950 X36.096 Z-1.6 I-0.55
N4955 X37.196 Z-1.65 I0.55
N4960 X36.096 Z-1.7 I-0.55
N4965 X37.196 Z-1.75 I0.55
N4970 X36.096 Z-1.8 I-0.55
N4975 X37.196 Z-1.85 I0.55
N4980 X36.096 Z-1.9 I-0.55
N4985 X37.196 Z-1.95 I0.55
N4990 X36.096 Z-2 I-0.55
N4995 X37.196 Z-2.05 I0.55
N5000 X36.096 Z-2.1 I-0.55
N5005 X37.196 Z-2.15 I0.55
N5010 X36.096 Z-2.2 I-0.55
N5015 X37.196 Z-2.25 I0.55
N5020 X36.096 Z-2.3 I-0.55
N5025 X37.196 Z-2.35 I0.55
N5030 X36.096 Z-2.4 I-0.55
N5035 X37.196 Z-2.45 I0.55
N5040 X36.096 Z-2.5 I-0.55
N5045 X37.196 Z-2.55 I0.55
N5050 X36.096 Z-2.6 I-0.55
N5055 X37.196 Z-2.65 I0.55
N5060 X36.096 Z-2.7 I-0.55
N5065 X37.196 Z-2.75 I0.55
N5070 X36.096 Z-2.8 I-0.55
N5075 X37.196 Z-2.85 I0.55
N5080 X36.096 Z-2.9 I-0.55
N5085 X37.196 Z-2.95 I0.55
N5090 X36.096 Z-3 I-0.55
N5095 X37.196 Z-3.05 I0.55
N5100 X36.096 Z-3.1 I-0.55
N5105 X37.196 Z-3.15 I0.55
N5110 X36.096 Z-3.2 I-0.55
N5115 X37.196 Z-3.25 I0.55
N5120 X36.096 Z-3.3 I-0.55
N5125 X37.196 Z-3.35 I0.55
N5130 X36.096 Z-3.4 I-0.55
N5135 X37.196 Z-3.45 I0.55
N5140 X36.096 Z-3.5 I-0.55
N5145 X37.196 Z-3.55 I0.55
N5150 X36.096 Z-3.6 I-0.55
N5155 X37.196 Z-3.65 I0.55
N5160 X36.096 Z-3.7 I-0.55
N5165 X37.196 Z-3.75 I0.55
N5170 X36.096 Z-3.8 I-0.55
N5175 X37.196 Z-3.85 I0.55
N5180 X36.096 Z-3.9 I-0.55
N5185 X37.196 Z-3.95 I0.55
N5190 X36.096 Z-4 I-0.55
N5195 X37.196 Z-4.05 I0.55
N5200 X36.096 Z-4.1 I-0.55
N5205 X37.196 Z-4.15 I0.55
N5210 X36.096 Z-4.2 I-0.55
N5215 X37.196 Z-4.25 I0.55
N5220 X36.096 Z-4.3 I-0.55
N5225 X37.196 Z-4.35 I0.55
N5230 X36.096 Z-4.4 I-0.55
N5235 X37.196 Z-4.45 I0.55
N5240 X36.096 Z-4.5 I-0.55
N5245 X37.196 Z-4.55 I0.55
N5250 X36.096 Z-4.6 I-0.55
N5255 X37.196 Z-4.65 I0.55
N5260 X36.096 Z-4.7 I-0.55
N5265 X37.196 Z-4.75 I0.55
N5270 X36.096 Z-4.8 I-0.55
N5275 X37.196 Z-4.85 I0.55
N5280 X36.096 Z-4.9 I-0.55
N5285 X37.196 Z-4.95 I0.55
N5290 X36.096 Z-5 I-0.55
N5295 X37.196 Z-5.05 I0.55
N5300 X36.096 Z-5.1 I-0.55
N5305 X37.196 Z-5.15 I0.55
N5310 X36.096 Z-5.2 I-0.55
N5315 X37.196 I0.55
N5320 X36.096 I-0.55
N5325 X36.371 Y30.815 I0.275
N5330 G1 X36.521
N5335 G18 G2 X36.821 Z-4.9 K0.3
N5340 G0 Z2.3
N5345 X38.855 Y23.775
N5350 G1 Z0.6 F50
N5355 G3 X38.555 Z0.3 I-0.3
N5360 G1 X38.405
N5365 G17 G3 X38.13 Y23.5 J-0.275
N5370 X39.23 Z0.25 I0.55 F800
N5375 X38.13 Z0.2 I-0.55
N5380 X39.23 Z0.15 I0.55
N5385 X38.13 Z0.1 I-0.55
N5390 X39.23 Z0.05 I0.55
N5395 X38.13 Z0 I-0.55
N5400 X39.23 Z-0.05 I0.55
N5405 X38.13 Z-0.1 I-0.55
N5410 X39.23 Z-0.15 I0.55
N5415 X38.13 Z-0.2 I-0.55
N5420 X39.23 Z-0.25 I0.55
N5425 X38.13 Z-0.3 I-0.55
N5430 X39.23 Z-0.35 I0.55
N5435 X38.13 Z-0.4 I-0.55
N5440 X39.23 Z-0.45 I0.55
N5445 X38.13 Z-0.5 I-0.55
N5450 X39.23 Z-0.55 I0.55
N5455 X38.13 Z-0.6 I-0.55
N5460 X39.23 Z-0.65 I0.55
N5465 X38.13 Z-0.7 I-0.55
N5470 X39.23 Z-0.75 I0.55
N5475 X38.13 Z-0.8 I-0.55
N5480 X39.23 Z-0.85 I0.55
N5485 X38.13 Z-0.9 I-0.55
N5490 X39.23 Z-0.95 I0.55
N5495 X38.13 Z-1 I-0.55
N5500 X39.23 Z-1.05 I0.55
N5505 X38.13 Z-1.1 I-0.55
N5510 X39.23 Z-1.15 I0.55
N5515 X38.13 Z-1.2 I-0.55
N5520 X39.23 Z-1.25 I0.55
N5525 X38.13 Z-1.3 I-0.55
N5530 X39.23 Z-1.35 I0.55
N5535 X38.13 Z-1.4 I-0.55
N5540 X39.23 Z-1.45 I0.55
N5545 X38.13 Z-1.5 I-0.55
N5550 X39.23 Z-1.55 I0.55
N5555 X38.13 Z-1.6 I-0.55
N5560 X39.23 Z-1.65 I0.55
N5565 X38.13 Z-1.7 I-0.55
N5570 X39.23 Z-1.75 I0.55
N5575 X38.13 Z-1.8 I-0.55
N5580 X39.23 Z-1.85 I0.55
N5585 X38.13 Z-1.9 I-0.55
N5590 X39.23 Z-1.95 I0.55
N5595 X38.13 Z-2 I-0.55
N5600 X39.23 Z-2.05 I0.55
N5605 X38.13 Z-2.1 I-0.55
N5610 X39.23 Z-2.15 I0.55
N5615 X38.13 Z-2.2 I-0.55
N5620 X39.23 Z-2.25 I0.55
N5625 X38.13 Z-2.3 I-0.55
N5630 X39.23 Z-2.35 I0.55
N5635 X38.13 Z-2.4 I-0.55
N5640 X39.23 Z-2.45 I0.55
N5645 X38.13 Z-2.5 I-0.55
N5650 X39.23 Z-2.55 I0.55
N5655 X38.13 Z-2.6 I-0.55
N5660 X39.23 Z-2.65 I0.55
N5665 X38.13 Z-2.7 I-0.55
N5670 X39.23 Z-2.75 I0.55
N5675 X38.13 Z-2.8 I-0.55
N5680 X39.23 Z-2.85 I0.55
N5685 X38.13 Z-2.9 I-0.55
N5690 X39.23 Z-2.95 I0.55
N5695 X38.13 Z-3 I-0.55
N5700 X39.23 Z-3.05 I0.55
N5705 X38.13 Z-3.1 I-0.55
N5710 X39.23 Z-3.15 I0.55
N5715 X38.13 Z-3.2 I-0.55
N5720 X39.23 Z-3.25 I0.55
N5725 X38.13 Z-3.3 I-0.55
N5730 X39.23 Z-3.35 I0.55
N5735 X38.13 Z-3.4 I-0.55
N5740 X39.23 Z-3.45 I0.55
N5745 X38.13 Z-3.5 I-0.55
N5750 X39.23 Z-3.55 I0.55
N5755 X38.13 Z-3.6 I-0.55
N5760 X39.23 Z-3.65 I0.55
N5765 X38.13 Z-3.7 I-0.55
N5770 X39.23 Z-3.75 I0.55
N5775 X38.13 Z-3.8 I-0.55
N5780 X39.23 Z-3.85 I0.55
N5785 X38.13 Z-3.9 I-0.55
N5790 X39.23 Z-3.95 I0.55
N5795 X38.13 Z-4 I-0.55
N5800 X39.23 Z-4.05 I0.55
N5805 X38.13 Z-4.1 I-0.55
N5810 X39.23 Z-4.15 I0.55
N5815 X38.13 Z-4.2 I-0.55
N5820 X39.23 Z-4.25 I0.55
N5825 X38.13 Z-4.3 I-0.55
N5830 X39.23 Z-4.35 I0.55
N5835 X38.13 Z-4.4 I-0.55
N5840 X39.23 Z-4.45 I0.55
N5845 X38.13 Z-4.5 I-0.55
N5850 X39.23 Z-4.55 I0.55
N5855 X38.13 Z-4.6 I-0.55
N5860 X39.23 Z-4.65 I0.55
N5865 X38.13 Z-4.7 I-0.55
N5870 X39.23 Z-4.75 I0.55
N5875 X38.13 Z-4.8 I-0.55
N5880 X39.23 Z-4.85 I0.55
N5885 X38.13 Z-4.9 I-0.55
N5890 X39.23 Z-4.95 I0.55
N5895 X38.13 Z-5 I-0.55
N5900 X39.23 Z-5.05 I0.55
N5905 X38.13 Z-5.1 I-0.55
N5910 X39.23 Z-5.15 I0.55
N5915 X38.13 Z-5.2 I-0.55
N5920 X39.23 I0.55
N5925 X38.13 I-0.55
N5930 X38.405 Y23.225 I0.275
N5935 G1 X38.555
N5940 G18 G2 X38.855 Z-4.9 K0.3
N5945 G0 Z2.3
N5950 X100.015 Y19.865
N5955 Z-1
N5960 G1 Z-2.7 F50
N5965 X99.965 Y19.915
N5970 X99.94 Y19.909
N5975 X99.921 Y19.89
N5980 X99.915 Y19.865
N5985 X99.922 Y19.826 Z-2.706 F800
N5990 X99.945 Y19.794 Z-2.713
N5995 X99.978 Y19.772 Z-2.719
N6000 X100.017 Y19.765 Z-2.725
N6005 X100.056 Y19.774 Z-2.732
N6010 X100.088 Y19.798 Z-2.738
N6015 X100.109 Y19.832 Z-2.745
N6020 X100.114 Y19.871 Z-2.751
N6025 X100.104 Y19.909 Z-2.757
N6030 X100.08 Y19.941 Z-2.764
N6035 X100.046 Y19.96 Z-2.77
N6040 X100.006 Y19.965 Z-2.776
N6045 X99.968 Y19.954 Z-2.783
N6050 X99.937 Y19.929 Z-2.789
N6055 X99.919 Y19.894 Z-2.795
N6060 X99.915 Y19.854 Z-2.802
N6065 X99.927 Y19.816 Z-2.808
N6070 X99.953 Y19.786 Z-2.815
N6075 X99.989 Y19.769 Z-2.821
N6080 X100.028 Y19.766 Z-2.827
N6085 X100.066 Y19.779 Z-2.834
N6090 X100.095 Y19.806 Z-2.84
N6095 X100.112 Y19.842 Z-2.846
N6100 X100.113 Y19.882 Z-2.853
N6105 X100.099 Y19.919 Z-2.859
N6110 X100.071 Y19.948 Z-2.865
N6115 X100.035 Y19.963 Z-2.872
N6120 X99.995 Z-2.878
N6125 X99.958 Y19.948 Z-2.884
N6130 X99.931 Y19.92 Z-2.891
N6135 X99.916 Y19.883 Z-2.897
N6140 X99.917 Y19.843 Z-2.904
N6145 X99.933 Y19.807 Z-2.91
N6150 X99.962 Y19.78 Z-2.916
N6155 X100 Y19.766 Z-2.923
N6160 X100.039 Y19.768 Z-2.929
N6165 X100.075 Y19.786 Z-2.935
N6170 X100.101 Y19.816 Z-2.942
N6175 X100.114 Y19.853 Z-2.948
N6180 X100.111 Y19.893 Z-2.954
N6185 X100.092 Y19.928 Z-2.961
N6190 X100.062 Y19.953 Z-2.967
N6195 X100.024 Y19.965 Z-2.974
N6200 X99.984 Y19.961 Z-2.98
N6205 X99.95 Y19.941 Z-2.986
N6210 X99.925 Y19.91 Z-2.993
N6215 X99.915 Y19.872 Z-2.999
N6220 X99.92 Y19.832 Z-3.005
N6225 X99.94 Y19.798 Z-3.012
N6230 X99.972 Y19.775 Z-3.018
N6235 X100.011 Y19.765 Z-3.024
N6240 X100.05 Y19.772 Z-3.031
N6245 X100.084 Y19.793 Z-3.037
N6250 X100.106 Y19.826 Z-3.044
N6255 X100.115 Y19.864 Z-3.05
N6260 X100.107 Y19.903 Z-3.056
N6265 X100.085 Y19.936 Z-3.063
N6270 X100.052 Y19.958 Z-3.069
N6275 X100.013 Y19.965 Z-3.075
N6280 X99.974 Y19.957 Z-3.082
N6285 X99.941 Y19.934 Z-3.088
N6290 X99.921 Y19.9 Z-3.094
N6295 X99.915 Y19.86 Z-3.101
N6300 X99.924 Y19.822 Z-3.107
N6305 X99.948 Y19.79 Z-3.113
N6310 X99.983 Y19.77 Z-3.12
N6315 X100.022 Y19.766 Z-3.126
N6320 X100.06 Y19.776 Z-3.133
N6325 X100.091 Y19.801 Z-3.139
N6330 X100.11 Y19.836 Z-3.145
N6335 X100.114 Y19.876 Z-3.152
N6340 X100.102 Y19.914 Z-3.158
N6345 X100.076 Y19.944 Z-3.164
N6350 X100.041 Y19.962 Z-3.171
N6355 X100.001 Y19.964 Z-3.177
N6360 X99.964 Y19.951 Z-3.183
N6365 X99.934 Y19.925 Z-3.19
N6370 X99.917 Y19.889 Z-3.196
N6375 X99.916 Y19.849 Z-3.203
N6380 X99.93 Y19.812 Z-3.209
N6385 X99.957 Y19.783 Z-3.215
N6390 X99.993 Y19.767 Z-3.222
N6395 X100.033 Z-3.228
N6400 X100.07 Y19.782 Z-3.234
N6405 X100.098 Y19.81 Z-3.241
N6410 X100.113 Y19.847 Z-3.247
N6415 X100.112 Y19.887 Z-3.253
N6420 X100.096 Y19.923 Z-3.26
N6425 X100.067 Y19.95 Z-3.266
N6430 X100.03 Y19.964 Z-3.273
N6435 X99.99 Y19.962 Z-3.279
N6440 X99.955 Y19.945 Z-3.285
N6445 X99.928 Y19.916 Z-3.292
N6450 X99.915 Y19.878 Z-3.298
N6455 X99.918 Y19.838 Z-3.304
N6460 X99.936 Y19.803 Z-3.311
N6465 X99.967 Y19.777 Z-3.317
N6470 X100.005 Y19.766 Z-3.323
N6475 X100.044 Y19.77 Z-3.33
N6480 X100.079 Y19.789 Z-3.336
N6485 X100.104 Y19.82 Z-3.342
N6490 X100.114 Y19.858 Z-3.349
N6495 X100.109 Y19.897 Z-3.355
N6500 X100.089 Y19.932 Z-3.362
N6505 X100.057 Y19.956 Z-3.368
N6510 X100.019 Y19.965 Z-3.374
N6515 X99.98 Y19.959 Z-3.381
N6520 X99.946 Y19.938 Z-3.387
N6525 X99.923 Y19.906 Z-3.393
N6530 X99.915 Y19.867 Z-3.4
N6535 X99.922 Y19.828 Z-3.406
N6540 X99.944 Y19.795 Z-3.412
N6545 X99.977 Y19.773 Z-3.419
N6550 X100.016 Y19.765 Z-3.425
N6555 X100.055 Y19.774 Z-3.432
N6560 X100.087 Y19.796 Z-3.438
N6565 X100.108 Y19.83 Z-3.444
N6570 X100.114 Y19.869 Z-3.451
N6575 X100.105 Y19.908 Z-3.457
N6580 X100.081 Y19.94 Z-3.463
N6585 X100.047 Y19.96 Z-3.47
N6590 X100.008 Y19.965 Z-3.476
N6595 X99.969 Y19.955 Z-3.482
N6600 X99.938 Y19.93 Z-3.489
N6605 X99.919 Y19.895 Z-3.495
N6610 X99.915 Y19.856 Z-3.502
N6615 X99.927 Y19.818 Z-3.508
N6620 X99.952 Y19.787 Z-3.514
N6625 X99.987 Y19.769 Z-3.521
N6630 X100.027 Y19.766 Z-3.527
N6635 X100.065 Y19.779 Z-3.533
N6640 X100.094 Y19.805 Z-3.54
N6645 X100.111 Y19.841 Z-3.546
N6650 X100.113 Y19.88 Z-3.552
N6655 X100.1 Y19.918 Z-3.559
N6660 X100.073 Y19.947 Z-3.565
N6665 X100.036 Y19.963 Z-3.572
N6670 X99.997 Y19.964 Z-3.578
N6675 X99.96 Y19.949 Z-3.584
N6680 X99.932 Y19.921 Z-3.591
N6685 X99.916 Y19.884 Z-3.597
N6690 X99.917 Y19.845 Z-3.603
N6695 X99.932 Y19.808 Z-3.61
N6700 X99.961 Y19.781 Z-3.616
N6705 X99.998 Y19.767 Z-3.622
N6710 X100.038 Y19.768 Z-3.629
N6715 X100.074 Y19.785 Z-3.635
N6720 X100.101 Y19.814 Z-3.641
N6725 X100.114 Y19.852 Z-3.648
N6730 X100.111 Y19.891 Z-3.654
N6735 X100.093 Y19.927 Z-3.661
N6740 X100.063 Y19.953 Z-3.667
N6745 X100.025 Y19.965 Z-3.673
N6750 X99.986 Y19.961 Z-3.68
N6755 X99.951 Y19.942 Z-3.686
N6760 X99.926 Y19.911 Z-3.692
N6765 X99.915 Y19.873 Z-3.699
N6770 X99.92 Y19.834 Z-3.705
N6775 X99.939 Y19.799 Z-3.711
N6780 X99.971 Y19.775 Z-3.718
N6785 X100.009 Y19.765 Z-3.724
N6790 X100.049 Y19.771 Z-3.731
N6795 X100.082 Y19.792 Z-3.737
N6800 X100.106 Y19.824 Z-3.743
N6805 X100.114 Y19.863 Z-3.75
N6810 X100.108 Y19.902 Z-3.756
N6815 X100.086 Y19.935 Z-3.762
N6820 X100.053 Y19.958 Z-3.769
N6825 X100.014 Y19.965 Z-3.775
N6830 X99.975 Y19.957 Z-3.781
N6835 X99.943 Y19.935 Z-3.788
N6840 X99.921 Y19.901 Z-3.794
N6845 X99.915 Y19.862 Z-3.801
N6850 X99.924 Y19.823 Z-3.807
N6855 X99.947 Y19.791 Z-3.813
N6860 X99.981 Y19.771 Z-3.82
N6865 X100.021 Y19.765 Z-3.826
N6870 X100.059 Y19.776 Z-3.832
N6875 X100.09 Y19.8 Z-3.839
N6880 X100.11 Y19.835 Z-3.845
N6885 X100.114 Y19.874 Z-3.851
N6890 X100.103 Y19.912 Z-3.858
N6895 X100.078 Y19.943 Z-3.864
N6900 X100.043 Y19.961 Z-3.87
N6905 X100.003 Y19.965 Z-3.877
N6910 X99.965 Y19.952 Z-3.883
N6915 X99.935 Y19.926 Z-3.89
N6920 X99.918 Y19.891 Z-3.896
N6925 X99.916 Y19.851 Z-3.902
N6930 X99.929 Y19.814 Z-3.909
N6935 X99.956 Y19.784 Z-3.915
N6940 X99.992 Y19.768 Z-3.921
N6945 X100.032 Y19.767 Z-3.928
N6950 X100.069 Y19.781 Z-3.934
N6955 X100.097 Y19.809 Z-3.94
N6960 X100.113 Y19.845 Z-3.947
N6965 Y19.885 Z-3.953
N6970 X100.097 Y19.922 Z-3.96
N6975 X100.069 Y19.949 Z-3.966
N6980 X100.032 Y19.964 Z-3.972
N6985 X99.992 Y19.963 Z-3.979
N6990 X99.956 Y19.946 Z-3.985
N6995 X99.929 Y19.917 Z-3.991
N7000 X99.916 Y19.88 Z-3.998
N7005 X99.918 Y19.84 Z-4.004
N7010 X99.935 Y19.804 Z-4.01
N7015 X99.965 Y19.778 Z-4.017
N7020 X100.003 Y19.766 Z-4.023
N7025 X100.043 Y19.769 Z-4.03
N7030 X100.078 Y19.788 Z-4.036
N7035 X100.103 Y19.818 Z-4.042
N7040 X100.114 Y19.856 Z-4.049
N7045 X100.11 Y19.896 Z-4.055
N7050 X100.09 Y19.931 Z-4.061
N7055 X100.059 Y19.955 Z-4.068
N7060 X100.021 Y19.965 Z-4.074
N7065 X99.981 Y19.96 Z-4.08
N7070 X99.947 Y19.939 Z-4.087
N7075 X99.924 Y19.907 Z-4.093
N7080 X99.915 Y19.868 Z-4.099
N7085 X99.921 Y19.829 Z-4.106
N7090 X99.943 Y19.796 Z-4.112
N7095 X99.975 Y19.773 Z-4.119
N7100 X100.014 Y19.765 Z-4.125
N7105 X100.053 Y19.773 Z-4.131
N7110 X100.086 Y19.795 Z-4.138
N7115 X100.108 Y19.829 Z-4.144
N7120 X100.114 Y19.868 Z-4.15
N7125 X100.106 Y19.906 Z-4.157
N7130 X100.082 Y19.939 Z-4.163
N7135 X100.049 Y19.959 Z-4.169
N7140 X100.009 Y19.965 Z-4.176
N7145 X99.971 Y19.955 Z-4.182
N7150 X99.939 Y19.931 Z-4.189
N7155 X99.92 Y19.897 Z-4.195
N7160 X99.915 Y19.857 Z-4.201
N7165 X99.926 Y19.819 Z-4.208
N7170 X99.951 Y19.788 Z-4.214
N7175 X99.986 Y19.769 Z-4.22
N7180 X100.025 Y19.766 Z-4.227
N7185 X100.063 Y19.778 Z-4.233
N7190 X100.093 Y19.804 Z-4.239
N7195 X100.111 Y19.839 Z-4.246
N7200 X100.114 Y19.879 Z-4.252
N7205 X100.101 Y19.916 Z-4.259
N7210 X100.074 Y19.946 Z-4.265
N7215 X100.038 Y19.962 Z-4.271
N7220 X99.998 Y19.964 Z-4.278
N7225 X99.961 Y19.95 Z-4.284
N7230 X99.932 Y19.922 Z-4.29
N7235 X99.917 Y19.886 Z-4.297
N7240 X99.916 Y19.846 Z-4.303
N7245 X99.932 Y19.809 Z-4.309
N7250 X99.96 Y19.782 Z-4.316
N7255 X99.997 Y19.767 Z-4.322
N7260 X100.036 Y19.768 Z-4.328
N7265 X100.073 Y19.784 Z-4.335
N7270 X100.1 Y19.813 Z-4.341
N7275 X100.113 Y19.85 Z-4.348
N7280 X100.111 Y19.89 Z-4.354
N7285 X100.094 Y19.926 Z-4.36
N7290 X100.065 Y19.952 Z-4.367
N7295 X100.027 Y19.964 Z-4.373
N7300 X99.987 Y19.961 Z-4.379
N7305 X99.952 Y19.943 Z-4.386
N7310 X99.927 Y19.913 Z-4.392
N7315 X99.915 Y19.875 Z-4.398
N7320 X99.919 Y19.835 Z-4.405
N7325 X99.938 Y19.801 Z-4.411
N7330 X99.969 Y19.776 Z-4.418
N7335 X100.008 Y19.765 Z-4.424
N7340 X100.047 Y19.771 Z-4.43
N7345 X100.081 Y19.791 Z-4.437
N7350 X100.105 Y19.823 Z-4.443
N7355 X100.114 Y19.861 Z-4.449
N7360 X100.108 Y19.9 Z-4.456
N7365 X100.087 Y19.934 Z-4.462
N7370 X100.055 Y19.957 Z-4.468
N7375 X100.016 Y19.965 Z-4.475
N7380 X99.977 Y19.958 Z-4.481
N7385 X99.944 Y19.936 Z-4.488
N7390 X99.922 Y19.903 Z-4.494
N7395 X99.915 Y19.864 Z-4.5
N7400 X99.923 Y19.825 Z-4.507
N7405 X99.946 Y19.792 Z-4.513
N7410 X99.98 Y19.772 Z-4.519
N7415 X100.019 Y19.765 Z-4.526
N7420 X100.057 Y19.775 Z-4.532
N7425 X100.089 Y19.799 Z-4.538
N7430 X100.109 Y19.833 Z-4.545
N7435 X100.114 Y19.872 Z-4.551
N7440 X100.104 Y19.911 Z-4.558
N7445 X100.079 Y19.942 Z-4.564
N7450 X100.044 Y19.961 Z-4.57
N7455 X100.005 Y19.965 Z-4.577
N7460 X99.967 Y19.953 Z-4.583
N7465 X99.936 Y19.927 Z-4.589
N7470 X99.918 Y19.892 Z-4.596
N7475 X99.915 Y19.853 Z-4.602
N7480 X99.928 Y19.815 Z-4.608
N7485 X99.955 Y19.785 Z-4.615
N7490 X99.99 Y19.768 Z-4.621
N7495 X100.03 Y19.766 Z-4.627
N7500 X100.067 Y19.78 Z-4.634
N7505 X100.096 Y19.808 Z-4.64
N7510 X100.112 Y19.844 Z-4.647
N7515 X100.113 Y19.884 Z-4.653
N7520 X100.098 Y19.92 Z-4.659
N7525 X100.07 Y19.948 Z-4.666
N7530 X100.033 Y19.964 Z-4.672
N7535 X99.993 Y19.963 Z-4.678
N7540 X99.957 Y19.947 Z-4.685
N7545 X99.93 Y19.918 Z-4.691
N7550 X99.916 Y19.881 Z-4.697
N7555 X99.917 Y19.842 Z-4.704
N7560 X99.934 Y19.806 Z-4.71
N7565 X99.964 Y19.779 Z-4.717
N7570 X100.001 Y19.766 Z-4.723
N7575 X100.041 Y19.769 Z-4.729
N7580 X100.076 Y19.787 Z-4.736
N7585 X100.102 Y19.817 Z-4.742
N7590 X100.114 Y19.855 Z-4.748
N7595 X100.11 Y19.894 Z-4.755
N7600 X100.091 Y19.929 Z-4.761
N7605 X100.06 Y19.954 Z-4.767
N7610 X100.022 Y19.965 Z-4.774
N7615 X99.983 Y19.96 Z-4.78
N7620 X99.948 Y19.94 Z-4.787
N7625 X99.924 Y19.909 Z-4.793
N7630 X99.915 Y19.87 Z-4.799
N7635 X99.921 Y19.831 Z-4.806
N7640 X99.941 Y19.797 Z-4.812
N7645 X99.974 Y19.774 Z-4.818
N7650 X100.013 Y19.765 Z-4.825
N7655 X100.052 Y19.772 Z-4.831
N7660 X100.085 Y19.794 Z-4.837
N7665 X100.107 Y19.827 Z-4.844
N7670 X100.115 Y19.866 Z-4.85
N7675 X100.106 Y19.905 Z-4.856
N7680 X100.084 Y19.938 Z-4.863
N7685 X100.05 Y19.959 Z-4.869
N7690 X100.011 Y19.965 Z-4.876
N7695 X99.972 Y19.956 Z-4.882
N7700 X99.94 Y19.932 Z-4.888
N7705 X99.92 Y19.898 Z-4.895
N7710 X99.915 Y19.859 Z-4.901
N7715 X99.925 Y19.821 Z-4.907
N7720 X99.95 Y19.789 Z-4.914
N7725 X99.984 Y19.77 Z-4.92
N7730 X100.024 Y19.766 Z-4.926
N7735 X100.062 Y19.777 Z-4.933
N7740 X100.092 Y19.802 Z-4.939
N7745 X100.111 Y19.838 Z-4.946
N7750 X100.114 Y19.877 Z-4.952
N7755 X100.101 Y19.915 Z-4.958
N7760 X100.075 Y19.945 Z-4.965
N7765 X100.039 Y19.962 Z-4.971
N7770 X100 Y19.964 Z-4.977
N7775 X99.962 Y19.951 Z-4.984
N7780 X99.933 Y19.924 Z-4.99
N7785 X99.917 Y19.887 Z-4.996
N7790 X99.916 Y19.848 Z-5.003
N7795 X99.931 Y19.811 Z-5.009
N7800 X99.958 Y19.782 Z-5.016
N7805 X99.995 Y19.767 Z-5.022
N7810 X100.035 Z-5.028
N7815 X100.071 Y19.783 Z-5.035
N7820 X100.099 Y19.812 Z-5.041
N7825 X100.113 Y19.849 Z-5.047
N7830 X100.112 Y19.888 Z-5.054
N7835 X100.095 Y19.924 Z-5.06
N7840 X100.066 Y19.951 Z-5.066
N7845 X100.028 Y19.964 Z-5.073
N7850 X99.989 Y19.962 Z-5.079
N7855 X99.953 Y19.944 Z-5.085
N7860 X99.927 Y19.914 Z-5.092
N7865 X99.915 Y19.876 Z-5.098
N7870 X99.919 Y19.837 Z-5.105
N7875 X99.937 Y19.802 Z-5.111
N7880 X99.968 Y19.777 Z-5.117
N7885 X100.006 Y19.766 Z-5.124
N7890 X100.046 Y19.77 Z-5.13
N7895 X100.08 Y19.79 Z-5.136
N7900 X100.104 Y19.821 Z-5.143
N7905 X100.114 Y19.86 Z-5.149
N7910 X100.109 Y19.899 Z-5.155
N7915 X100.088 Y19.933 Z-5.162
N7920 X100.056 Y19.956 Z-5.168
N7925 X100.017 Y19.965 Z-5.175
N7930 X99.978 Y19.958 Z-5.181
N7935 X99.945 Y19.937 Z-5.187
N7940 X99.922 Y19.904 Z-5.194
N7945 X99.915 Y19.865 Z-5.2
N7950 G17 G3 X100.115 I0.1
N7955 X99.915 I-0.1
N7960 G1 X99.921 Y19.84
N7965 X99.94 Y19.822
N7970 X99.965 Y19.815
N7975 X100.015 Y19.865
N7980 G0 Z2.3
N7985 X91.296 Y7.865
N7990 Z-1
N7995 G1 Z-2.7 F50
N8000 X91.246 Y7.915
N8005 X91.221 Y7.909
N8010 X91.203 Y7.89
N8015 X91.196 Y7.865
N8020 X91.204 Y7.826 Z-2.706 F800
N8025 X91.226 Y7.794 Z-2.713
N8030 X91.26 Y7.772 Z-2.719
N8035 X91.299 Y7.765 Z-2.725
N8040 X91.337 Y7.774 Z-2.732
N8045 X91.37 Y7.798 Z-2.738
N8050 X91.39 Y7.832 Z-2.745
N8055 X91.396 Y7.871 Z-2.751
N8060 X91.386 Y7.909 Z-2.757
N8065 X91.362 Y7.941 Z-2.764
N8070 X91.327 Y7.96 Z-2.77
N8075 X91.288 Y7.965 Z-2.776
N8080 X91.25 Y7.954 Z-2.783
N8085 X91.219 Y7.929 Z-2.789
N8090 X91.2 Y7.894 Z-2.795
N8095 X91.197 Y7.854 Z-2.802
N8100 X91.209 Y7.816 Z-2.808
N8105 X91.235 Y7.786 Z-2.815
N8110 X91.27 Y7.769 Z-2.821
N8115 X91.31 Y7.766 Z-2.827
N8120 X91.347 Y7.779 Z-2.834
N8125 X91.377 Y7.806 Z-2.84
N8130 X91.393 Y7.842 Z-2.846
N8135 X91.395 Y7.882 Z-2.853
N8140 X91.38 Y7.919 Z-2.859
N8145 X91.353 Y7.948 Z-2.865
N8150 X91.316 Y7.963 Z-2.872
N8155 X91.277 Z-2.878
N8160 X91.24 Y7.948 Z-2.884
N8165 X91.212 Y7.92 Z-2.891
N8170 X91.198 Y7.883 Z-2.897
N8175 X91.199 Y7.843 Z-2.904
N8180 X91.215 Y7.807 Z-2.91
N8185 X91.244 Y7.78 Z-2.916
N8190 X91.281 Y7.766 Z-2.923
N8195 X91.321 Y7.768 Z-2.929
N8200 X91.357 Y7.786 Z-2.935
N8205 X91.383 Y7.816 Z-2.942
N8210 X91.395 Y7.853 Z-2.948
N8215 X91.392 Y7.893 Z-2.954
N8220 X91.374 Y7.928 Z-2.961
N8225 X91.343 Y7.953 Z-2.967
N8230 X91.305 Y7.965 Z-2.974
N8235 X91.266 Y7.961 Z-2.98
N8240 X91.231 Y7.941 Z-2.986
N8245 X91.207 Y7.91 Z-2.993
N8250 X91.196 Y7.872 Z-2.999
N8255 X91.202 Y7.832 Z-3.005
N8260 X91.222 Y7.798 Z-3.012
N8265 X91.254 Y7.775 Z-3.018
N8270 X91.292 Y7.765 Z-3.024
N8275 X91.332 Y7.772 Z-3.031
N8280 X91.365 Y7.793 Z-3.037
N8285 X91.388 Y7.826 Z-3.044
N8290 X91.396 Y7.864 Z-3.05
N8295 X91.388 Y7.903 Z-3.056
N8300 X91.366 Y7.936 Z-3.063
N8305 X91.333 Y7.958 Z-3.069
N8310 X91.294 Y7.965 Z-3.075
N8315 X91.255 Y7.957 Z-3.082
N8320 X91.223 Y7.934 Z-3.088
N8325 X91.202 Y7.9 Z-3.094
N8330 X91.196 Y7.86 Z-3.101
N8335 X91.206 Y7.822 Z-3.107
N8340 X91.23 Y7.79 Z-3.113
N8345 X91.264 Y7.77 Z-3.12
N8350 X91.304 Y7.766 Z-3.126
N8355 X91.342 Y7.776 Z-3.133
N8360 X91.373 Y7.801 Z-3.139
N8365 X91.392 Y7.836 Z-3.145
N8370 X91.395 Y7.876 Z-3.152
N8375 X91.384 Y7.914 Z-3.158
N8380 X91.358 Y7.944 Z-3.164
N8385 X91.322 Y7.962 Z-3.171
N8390 X91.283 Y7.964 Z-3.177
N8395 X91.245 Y7.951 Z-3.183
N8400 X91.216 Y7.925 Z-3.19
N8405 X91.199 Y7.889 Z-3.196
N8410 X91.197 Y7.849 Z-3.203
N8415 X91.211 Y7.812 Z-3.209
N8420 X91.239 Y7.783 Z-3.215
N8425 X91.275 Y7.767 Z-3.222
N8430 X91.315 Z-3.228
N8435 X91.351 Y7.782 Z-3.234
N8440 X91.379 Y7.81 Z-3.241
N8445 X91.394 Y7.847 Z-3.247
N8450 Y7.887 Z-3.253
N8455 X91.378 Y7.923 Z-3.26
N8460 X91.349 Y7.95 Z-3.266
N8465 X91.312 Y7.964 Z-3.273
N8470 X91.272 Y7.962 Z-3.279
N8475 X91.236 Y7.945 Z-3.285
N8480 X91.21 Y7.916 Z-3.292
N8485 X91.197 Y7.878 Z-3.298
N8490 X91.2 Y7.838 Z-3.304
N8495 X91.218 Y7.803 Z-3.311
N8500 X91.248 Y7.777 Z-3.317
N8505 X91.286 Y7.766 Z-3.323
N8510 X91.326 Y7.77 Z-3.33
N8515 X91.36 Y7.789 Z-3.336
N8520 X91.385 Y7.82 Z-3.342
N8525 X91.396 Y7.858 Z-3.349
N8530 X91.391 Y7.897 Z-3.355
N8535 X91.371 Y7.932 Z-3.362
N8540 X91.339 Y7.956 Z-3.368
N8545 X91.3 Y7.965 Z-3.374
N8550 X91.261 Y7.959 Z-3.381
N8555 X91.227 Y7.938 Z-3.387
N8560 X91.205 Y7.906 Z-3.393
N8565 X91.196 Y7.867 Z-3.4
N8570 X91.203 Y7.828 Z-3.406
N8575 X91.225 Y7.795 Z-3.412
N8580 X91.258 Y7.773 Z-3.419
N8585 X91.297 Y7.765 Z-3.425
N8590 X91.336 Y7.774 Z-3.432
N8595 X91.369 Y7.796 Z-3.438
N8600 X91.39 Y7.83 Z-3.444
N8605 X91.396 Y7.869 Z-3.451
N8610 X91.386 Y7.908 Z-3.457
N8615 X91.363 Y7.94 Z-3.463
N8620 X91.329 Y7.96 Z-3.47
N8625 X91.289 Y7.965 Z-3.476
N8630 X91.251 Y7.955 Z-3.482
N8635 X91.22 Y7.93 Z-3.489
N8640 X91.201 Y7.895 Z-3.495
N8645 X91.196 Y7.856 Z-3.502
N8650 X91.208 Y7.818 Z-3.508
N8655 X91.233 Y7.787 Z-3.514
N8660 X91.269 Y7.769 Z-3.521
N8665 X91.308 Y7.766 Z-3.527
N8670 X91.346 Y7.779 Z-3.533
N8675 X91.376 Y7.805 Z-3.54
N8680 X91.393 Y7.841 Z-3.546
N8685 X91.395 Y7.88 Z-3.552
N8690 X91.381 Y7.918 Z-3.559
N8695 X91.354 Y7.947 Z-3.565
N8700 X91.318 Y7.963 Z-3.572
N8705 X91.278 Y7.964 Z-3.578
N8710 X91.241 Y7.949 Z-3.584
N8715 X91.213 Y7.921 Z-3.591
N8720 X91.198 Y7.884 Z-3.597
N8725 Y7.845 Z-3.603
N8730 X91.214 Y7.808 Z-3.61
N8735 X91.243 Y7.781 Z-3.616
N8740 X91.28 Y7.767 Z-3.622
N8745 X91.319 Y7.768 Z-3.629
N8750 X91.355 Y7.785 Z-3.635
N8755 X91.382 Y7.814 Z-3.641
N8760 X91.395 Y7.852 Z-3.648
N8765 X91.393 Y7.891 Z-3.654
N8770 X91.375 Y7.927 Z-3.661
N8775 X91.345 Y7.953 Z-3.667
N8780 X91.307 Y7.965 Z-3.673
N8785 X91.267 Y7.961 Z-3.68
N8790 X91.232 Y7.942 Z-3.686
N8795 X91.207 Y7.911 Z-3.692
N8800 X91.196 Y7.873 Z-3.699
N8805 X91.201 Y7.834 Z-3.705
N8810 X91.221 Y7.799 Z-3.711
N8815 X91.252 Y7.775 Z-3.718
N8820 X91.291 Y7.765 Z-3.724
N8825 X91.33 Y7.771 Z-3.731
N8830 X91.364 Y7.792 Z-3.737
N8835 X91.387 Y7.824 Z-3.743
N8840 X91.396 Y7.863 Z-3.75
N8845 X91.389 Y7.902 Z-3.756
N8850 X91.367 Y7.935 Z-3.762
N8855 X91.335 Y7.958 Z-3.769
N8860 X91.296 Y7.965 Z-3.775
N8865 X91.257 Y7.957 Z-3.781
N8870 X91.224 Y7.935 Z-3.788
N8875 X91.203 Y7.901 Z-3.794
N8880 X91.196 Y7.862 Z-3.801
N8885 X91.205 Y7.823 Z-3.807
N8890 X91.229 Y7.791 Z-3.813
N8895 X91.263 Y7.771 Z-3.82
N8900 X91.302 Y7.765 Z-3.826
N8905 X91.34 Y7.776 Z-3.832
N8910 X91.372 Y7.8 Z-3.839
N8915 X91.391 Y7.835 Z-3.845
N8920 X91.396 Y7.874 Z-3.851
N8925 X91.384 Y7.912 Z-3.858
N8930 X91.359 Y7.943 Z-3.864
N8935 X91.324 Y7.961 Z-3.87
N8940 X91.284 Y7.965 Z-3.877
N8945 X91.247 Y7.952 Z-3.883
N8950 X91.217 Y7.926 Z-3.89
N8955 X91.199 Y7.891 Z-3.896
N8960 X91.197 Y7.851 Z-3.902
N8965 X91.21 Y7.814 Z-3.909
N8970 X91.237 Y7.784 Z-3.915
N8975 X91.273 Y7.768 Z-3.921
N8980 X91.313 Y7.767 Z-3.928
N8985 X91.35 Y7.781 Z-3.934
N8990 X91.379 Y7.809 Z-3.94
N8995 X91.394 Y7.845 Z-3.947
N9000 Y7.885 Z-3.953
N9005 X91.379 Y7.922 Z-3.96
N9010 X91.35 Y7.949 Z-3.966
N9015 X91.313 Y7.964 Z-3.972
N9020 X91.273 Y7.963 Z-3.979
N9025 X91.237 Y7.946 Z-3.985
N9030 X91.21 Y7.917 Z-3.991
N9035 X91.197 Y7.88 Z-3.998
N9040 X91.199 Y7.84 Z-4.004
N9045 X91.217 Y7.804 Z-4.01
N9050 X91.247 Y7.778 Z-4.017
N9055 X91.284 Y7.766 Z-4.023
N9060 X91.324 Y7.769 Z-4.03
N9065 X91.359 Y7.788 Z-4.036
N9070 X91.384 Y7.818 Z-4.042
N9075 X91.396 Y7.856 Z-4.049
N9080 X91.391 Y7.896 Z-4.055
N9085 X91.372 Y7.931 Z-4.061
N9090 X91.34 Y7.955 Z-4.068
N9095 X91.302 Y7.965 Z-4.074
N9100 X91.263 Y7.96 Z-4.08
N9105 X91.229 Y7.939 Z-4.087
N9110 X91.205 Y7.907 Z-4.093
N9115 X91.196 Y7.868 Z-4.099
N9120 X91.203 Y7.829 Z-4.106
N9125 X91.224 Y7.796 Z-4.112
N9130 X91.257 Y7.773 Z-4.119
N9135 X91.296 Y7.765 Z-4.125
N9140 X91.335 Y7.773 Z-4.131
N9145 X91.367 Y7.795 Z-4.138
N9150 X91.389 Y7.829 Z-4.144
N9155 X91.396 Y7.868 Z-4.15
N9160 X91.387 Y7.906 Z-4.157
N9165 X91.364 Y7.939 Z-4.163
N9170 X91.33 Y7.959 Z-4.169
N9175 X91.291 Y7.965 Z-4.176
N9180 X91.252 Y7.955 Z-4.182
N9185 X91.221 Y7.931 Z-4.189
N9190 X91.201 Y7.897 Z-4.195
N9195 X91.196 Y7.857 Z-4.201
N9200 X91.207 Y7.819 Z-4.208
N9205 X91.232 Y7.788 Z-4.214
N9210 X91.267 Y7.769 Z-4.22
N9215 X91.307 Y7.766 Z-4.227
N9220 X91.345 Y7.778 Z-4.233
N9225 X91.375 Y7.804 Z-4.239
N9230 X91.393 Y7.839 Z-4.246
N9235 X91.395 Y7.879 Z-4.252
N9240 X91.382 Y7.916 Z-4.259
N9245 X91.355 Y7.946 Z-4.265
N9250 X91.319 Y7.962 Z-4.271
N9255 X91.28 Y7.964 Z-4.278
N9260 X91.243 Y7.95 Z-4.284
N9265 X91.214 Y7.922 Z-4.29
N9270 X91.198 Y7.886 Z-4.297
N9275 Y7.846 Z-4.303
N9280 X91.213 Y7.809 Z-4.309
N9285 X91.241 Y7.782 Z-4.316
N9290 X91.278 Y7.767 Z-4.322
N9295 X91.318 Y7.768 Z-4.328
N9300 X91.354 Y7.784 Z-4.335
N9305 X91.381 Y7.813 Z-4.341
N9310 X91.395 Y7.85 Z-4.348
N9315 X91.393 Y7.89 Z-4.354
N9320 X91.376 Y7.926 Z-4.36
N9325 X91.346 Y7.952 Z-4.367
N9330 X91.308 Y7.964 Z-4.373
N9335 X91.269 Y7.961 Z-4.379
N9340 X91.233 Y7.943 Z-4.386
N9345 X91.208 Y7.913 Z-4.392
N9350 X91.196 Y7.875 Z-4.398
N9355 X91.201 Y7.835 Z-4.405
N9360 X91.22 Y7.801 Z-4.411
N9365 X91.251 Y7.776 Z-4.418
N9370 X91.289 Y7.765 Z-4.424
N9375 X91.329 Y7.771 Z-4.43
N9380 X91.363 Y7.791 Z-4.437
N9385 X91.386 Y7.823 Z-4.443
N9390 X91.396 Y7.861 Z-4.449
N9395 X91.39 Y7.9 Z-4.456
N9400 X91.369 Y7.934 Z-4.462
N9405 X91.336 Y7.957 Z-4.468
N9410 X91.297 Y7.965 Z-4.475
N9415 X91.258 Y7.958 Z-4.481
N9420 X91.225 Y7.936 Z-4.488
N9425 X91.203 Y7.903 Z-4.494
N9430 X91.196 Y7.864 Z-4.5
N9435 X91.205 Y7.825 Z-4.507
N9440 X91.227 Y7.792 Z-4.513
N9445 X91.261 Y7.772 Z-4.519
N9450 X91.3 Y7.765 Z-4.526
N9455 X91.339 Y7.775 Z-4.532
N9460 X91.371 Y7.799 Z-4.538
N9465 X91.391 Y7.833 Z-4.545
N9470 X91.396 Y7.872 Z-4.551
N9475 X91.385 Y7.911 Z-4.558
N9480 X91.36 Y7.942 Z-4.564
N9485 X91.326 Y7.961 Z-4.57
N9490 X91.286 Y7.965 Z-4.577
N9495 X91.248 Y7.953 Z-4.583
N9500 X91.218 Y7.927 Z-4.589
N9505 X91.2 Y7.892 Z-4.596
N9510 X91.197 Y7.853 Z-4.602
N9515 X91.21 Y7.815 Z-4.608
N9520 X91.236 Y7.785 Z-4.615
N9525 X91.272 Y7.768 Z-4.621
N9530 X91.312 Y7.766 Z-4.627
N9535 X91.349 Y7.78 Z-4.634
N9540 X91.378 Y7.808 Z-4.64
N9545 X91.394 Y7.844 Z-4.647
N9550 Y7.884 Z-4.653
N9555 X91.379 Y7.92 Z-4.659
N9560 X91.351 Y7.948 Z-4.666
N9565 X91.315 Y7.963 Z-4.672
N9570 X91.275 Z-4.678
N9575 X91.239 Y7.947 Z-4.685
N9580 X91.211 Y7.918 Z-4.691
N9585 X91.197 Y7.881 Z-4.697
N9590 X91.199 Y7.842 Z-4.704
N9595 X91.216 Y7.806 Z-4.71
N9600 X91.245 Y7.779 Z-4.717
N9605 X91.283 Y7.766 Z-4.723
N9610 X91.322 Y7.769 Z-4.729
N9615 X91.358 Y7.787 Z-4.736
N9620 X91.384 Y7.817 Z-4.742
N9625 X91.395 Y7.855 Z-4.748
N9630 X91.392 Y7.894 Z-4.755
N9635 X91.373 Y7.929 Z-4.761
N9640 X91.342 Y7.954 Z-4.767
N9645 X91.304 Y7.965 Z-4.774
N9650 X91.264 Y7.96 Z-4.78
N9655 X91.23 Y7.94 Z-4.787
N9660 X91.206 Y7.909 Z-4.793
N9665 X91.196 Y7.87 Z-4.799
N9670 X91.202 Y7.831 Z-4.806
N9675 X91.223 Y7.797 Z-4.812
N9680 X91.255 Y7.774 Z-4.818
N9685 X91.294 Y7.765 Z-4.825
N9690 X91.333 Y7.772 Z-4.831
N9695 X91.366 Y7.794 Z-4.837
N9700 X91.388 Y7.827 Z-4.844
N9705 X91.396 Y7.866 Z-4.85
N9710 X91.388 Y7.905 Z-4.856
N9715 X91.365 Y7.938 Z-4.863
N9720 X91.332 Y7.959 Z-4.869
N9725 X91.292 Y7.965 Z-4.876
N9730 X91.254 Y7.956 Z-4.882
N9735 X91.222 Y7.932 Z-4.888
N9740 X91.202 Y7.898 Z-4.895
N9745 X91.196 Y7.859 Z-4.901
N9750 X91.207 Y7.821 Z-4.907
N9755 X91.231 Y7.789 Z-4.914
N9760 X91.266 Y7.77 Z-4.92
N9765 X91.305 Y7.766 Z-4.926
N9770 X91.343 Y7.777 Z-4.933
N9775 X91.374 Y7.802 Z-4.939
N9780 X91.392 Y7.838 Z-4.946
N9785 X91.395 Y7.877 Z-4.952
N9790 X91.383 Y7.915 Z-4.958
N9795 X91.357 Y7.945 Z-4.965
N9800 X91.321 Y7.962 Z-4.971
N9805 X91.281 Y7.964 Z-4.977
N9810 X91.244 Y7.951 Z-4.984
N9815 X91.215 Y7.924 Z-4.99
N9820 X91.199 Y7.887 Z-4.996
N9825 X91.198 Y7.848 Z-5.003
N9830 X91.212 Y7.811 Z-5.009
N9835 X91.24 Y7.782 Z-5.016
N9840 X91.277 Y7.767 Z-5.022
N9845 X91.316 Z-5.028
N9850 X91.353 Y7.783 Z-5.035
N9855 X91.38 Y7.812 Z-5.041
N9860 X91.395 Y7.849 Z-5.047
N9865 X91.393 Y7.888 Z-5.054
N9870 X91.377 Y7.924 Z-5.06
N9875 X91.347 Y7.951 Z-5.066
N9880 X91.31 Y7.964 Z-5.073
N9885 X91.27 Y7.962 Z-5.079
N9890 X91.235 Y7.944 Z-5.085
N9895 X91.209 Y7.914 Z-5.092
N9900 X91.197 Y7.876 Z-5.098
N9905 X91.2 Y7.837 Z-5.105
N9910 X91.219 Y7.802 Z-5.111
N9915 X91.25 Y7.777 Z-5.117
N9920 X91.288 Y7.766 Z-5.124
N9925 X91.327 Y7.77 Z-5.13
N9930 X91.362 Y7.79 Z-5.136
N9935 X91.386 Y7.821 Z-5.143
N9940 X91.396 Y7.86 Z-5.149
N9945 X91.39 Y7.899 Z-5.155
N9950 X91.37 Y7.933 Z-5.162
N9955 X91.337 Y7.956 Z-5.168
N9960 X91.299 Y7.965 Z-5.175
N9965 X91.26 Y7.958 Z-5.181
N9970 X91.226 Y7.937 Z-5.187
N9975 X91.204 Y7.904 Z-5.194
N9980 X91.196 Y7.865 Z-5.2
N9985 G3 X91.396 I0.1
N9990 X91.196 I-0.1
N9995 G1 X91.203 Y7.84
N10000 X91.221 Y7.822
N10005 X91.246 Y7.815
N10010 X91.296 Y7.865
N10015 G0 Z2.3
N10020 X77.189 Y3.282
N10025 Z-1
N10030 G1 Z-2.7 F50
N10035 X77.139 Y3.332
N10040 X77.114 Y3.325
N10045 X77.096 Y3.307
N10050 X77.089 Y3.282
N10055 X77.097 Y3.243 Z-2.706 F800
N10060 X77.119 Y3.21 Z-2.713
N10065 X77.153 Y3.188 Z-2.719
N10070 X77.192 Y3.182 Z-2.725
N10075 X77.231 Y3.191 Z-2.732
N10080 X77.263 Y3.214 Z-2.738
N10085 X77.283 Y3.248 Z-2.745
N10090 X77.289 Y3.287 Z-2.751
N10095 X77.279 Y3.326 Z-2.757
N10100 X77.255 Y3.357 Z-2.764
N10105 X77.22 Y3.377 Z-2.77
N10110 X77.181 Y3.381 Z-2.776
N10115 X77.143 Y3.37 Z-2.783
N10120 X77.112 Y3.345 Z-2.789
N10125 X77.093 Y3.31 Z-2.795
N10130 X77.09 Y3.271 Z-2.802
N10135 X77.102 Y3.233 Z-2.808
N10140 X77.128 Y3.203 Z-2.815
N10145 X77.163 Y3.185 Z-2.821
N10150 X77.203 Y3.183 Z-2.827
N10155 X77.241 Y3.196 Z-2.834
N10160 X77.27 Y3.223 Z-2.84
N10165 X77.286 Y3.259 Z-2.846
N10170 X77.288 Y3.298 Z-2.853
N10175 X77.273 Y3.335 Z-2.859
N10180 X77.246 Y3.364 Z-2.865
N10185 X77.209 Y3.38 Z-2.872
N10190 X77.17 Z-2.878
N10195 X77.133 Y3.364 Z-2.884
N10200 X77.105 Y3.336 Z-2.891
N10205 X77.091 Y3.299 Z-2.897
N10210 X77.092 Y3.259 Z-2.904
N10215 X77.108 Y3.223 Z-2.91
N10220 X77.137 Y3.196 Z-2.916
N10225 X77.174 Y3.183 Z-2.923
N10230 X77.214 Y3.185 Z-2.929
N10235 X77.25 Y3.202 Z-2.935
N10240 X77.276 Y3.232 Z-2.942
N10245 X77.288 Y3.27 Z-2.948
N10250 X77.285 Y3.309 Z-2.954
N10255 X77.267 Y3.345 Z-2.961
N10260 X77.236 Y3.37 Z-2.967
N10265 X77.198 Y3.381 Z-2.974
N10270 X77.159 Y3.377 Z-2.98
N10275 X77.124 Y3.358 Z-2.986
N10280 X77.1 Y3.326 Z-2.993
N10285 X77.089 Y3.288 Z-2.999
N10290 X77.095 Y3.249 Z-3.005
N10295 X77.115 Y3.215 Z-3.012
N10300 X77.147 Y3.191 Z-3.018
N10305 X77.186 Y3.182 Z-3.024
N10310 X77.225 Y3.188 Z-3.031
N10315 X77.258 Y3.209 Z-3.037
N10320 X77.281 Y3.242 Z-3.044
N10325 X77.289 Y3.281 Z-3.05
N10330 X77.282 Y3.32 Z-3.056
N10335 X77.259 Y3.353 Z-3.063
N10340 X77.226 Y3.375 Z-3.069
N10345 X77.187 Y3.382 Z-3.075
N10350 X77.148 Y3.373 Z-3.082
N10355 X77.116 Y3.35 Z-3.088
N10360 X77.095 Y3.316 Z-3.094
N10365 X77.089 Y3.277 Z-3.101
N10370 X77.099 Y3.238 Z-3.107
N10375 X77.123 Y3.207 Z-3.113
N10380 X77.157 Y3.187 Z-3.12
N10385 X77.197 Y3.182 Z-3.126
N10390 X77.235 Y3.193 Z-3.133
N10395 X77.266 Y3.218 Z-3.139
N10400 X77.285 Y3.253 Z-3.145
N10405 X77.289 Y3.292 Z-3.152
N10410 X77.277 Y3.33 Z-3.158
N10415 X77.251 Y3.36 Z-3.164
N10420 X77.216 Y3.378 Z-3.171
N10425 X77.176 Y3.381 Z-3.177
N10430 X77.138 Y3.368 Z-3.183
N10435 X77.109 Y3.341 Z-3.19
N10440 X77.092 Y3.305 Z-3.196
N10445 X77.09 Y3.266 Z-3.203
N10450 X77.104 Y3.229 Z-3.209
N10455 X77.132 Y3.2 Z-3.215
N10460 X77.168 Y3.184 Z-3.222
N10465 X77.208 Y3.183 Z-3.228
N10470 X77.245 Y3.198 Z-3.234
N10475 X77.273 Y3.227 Z-3.241
N10480 X77.287 Y3.263 Z-3.247
N10485 Y3.303 Z-3.253
N10490 X77.271 Y3.339 Z-3.26
N10495 X77.242 Y3.367 Z-3.266
N10500 X77.205 Y3.38 Z-3.273
N10505 X77.165 Y3.379 Z-3.279
N10510 X77.129 Y3.362 Z-3.285
N10515 X77.103 Y3.332 Z-3.292
N10520 X77.09 Y3.294 Z-3.298
N10525 X77.093 Y3.255 Z-3.304
N10530 X77.111 Y3.219 Z-3.311
N10535 X77.141 Y3.194 Z-3.317
N10540 X77.179 Y3.182 Z-3.323
N10545 X77.219 Y3.186 Z-3.33
N10550 X77.254 Y3.205 Z-3.336
N10555 X77.278 Y3.236 Z-3.342
N10560 X77.289 Y3.274 Z-3.349
N10565 X77.284 Y3.314 Z-3.355
N10570 X77.264 Y3.348 Z-3.362
N10575 X77.232 Y3.372 Z-3.368
N10580 X77.194 Y3.382 Z-3.374
N10585 X77.154 Y3.375 Z-3.381
N10590 X77.121 Y3.354 Z-3.387
N10595 X77.098 Y3.322 Z-3.393
N10600 X77.089 Y3.283 Z-3.4
N10605 X77.096 Y3.244 Z-3.406
N10610 X77.118 Y3.211 Z-3.412
N10615 X77.151 Y3.189 Z-3.419
N10620 X77.19 Y3.182 Z-3.425
N10625 X77.229 Y3.19 Z-3.432
N10630 X77.262 Y3.213 Z-3.438
N10635 X77.283 Y3.246 Z-3.444
N10640 X77.289 Y3.286 Z-3.451
N10645 X77.28 Y3.324 Z-3.457
N10650 X77.256 Y3.356 Z-3.463
N10655 X77.222 Y3.376 Z-3.47
N10660 X77.182 Y3.381 Z-3.476
N10665 X77.144 Y3.371 Z-3.482
N10670 X77.113 Y3.346 Z-3.489
N10675 X77.094 Y3.312 Z-3.495
N10680 X77.09 Y3.272 Z-3.502
N10685 X77.101 Y3.234 Z-3.508
N10690 X77.127 Y3.204 Z-3.514
N10695 X77.162 Y3.185 Z-3.521
N10700 X77.202 Y3.182 Z-3.527
N10705 X77.239 Y3.195 Z-3.533
N10710 X77.269 Y3.221 Z-3.54
N10715 X77.286 Y3.257 Z-3.546
N10720 X77.288 Y3.297 Z-3.552
N10725 X77.274 Y3.334 Z-3.559
N10730 X77.247 Y3.363 Z-3.565
N10735 X77.211 Y3.379 Z-3.572
N10740 X77.171 Y3.38 Z-3.578
N10745 X77.134 Y3.365 Z-3.584
N10750 X77.106 Y3.337 Z-3.591
N10755 X77.091 Y3.301 Z-3.597
N10760 Y3.261 Z-3.603
N10765 X77.107 Y3.225 Z-3.61
N10770 X77.136 Y3.197 Z-3.616
N10775 X77.173 Y3.183 Z-3.622
N10780 X77.213 Y3.184 Z-3.629
N10785 X77.249 Y3.201 Z-3.635
N10790 X77.275 Y3.231 Z-3.641
N10795 X77.288 Y3.268 Z-3.648
N10800 X77.286 Y3.308 Z-3.654
N10805 X77.268 Y3.343 Z-3.661
N10810 X77.238 Y3.369 Z-3.667
N10815 X77.2 Y3.381 Z-3.673
N10820 X77.16 Y3.377 Z-3.68
N10825 X77.125 Y3.359 Z-3.686
N10830 X77.1 Y3.328 Z-3.692
N10835 X77.089 Y3.29 Z-3.699
N10840 X77.094 Y3.25 Z-3.705
N10845 X77.114 Y3.216 Z-3.711
N10850 X77.146 Y3.192 Z-3.718
N10855 X77.184 Y3.182 Z-3.724
N10860 X77.223 Y3.188 Z-3.731
N10865 X77.257 Y3.208 Z-3.737
N10870 X77.28 Y3.241 Z-3.743
N10875 X77.289 Y3.279 Z-3.75
N10880 X77.282 Y3.318 Z-3.756
N10885 X77.261 Y3.352 Z-3.762
N10890 X77.228 Y3.374 Z-3.769
N10895 X77.189 Y3.382 Z-3.775
N10900 X77.15 Y3.374 Z-3.781
N10905 X77.117 Y3.351 Z-3.788
N10910 X77.096 Y3.318 Z-3.794
N10915 X77.089 Y3.278 Z-3.801
N10920 X77.098 Y3.24 Z-3.807
N10925 X77.122 Y3.208 Z-3.813
N10930 X77.156 Y3.187 Z-3.82
N10935 X77.195 Y3.182 Z-3.826
N10940 X77.234 Y3.192 Z-3.832
N10945 X77.265 Y3.216 Z-3.839
N10950 X77.284 Y3.251 Z-3.845
N10955 X77.289 Y3.29 Z-3.851
N10960 X77.278 Y3.329 Z-3.858
N10965 X77.252 Y3.359 Z-3.864
N10970 X77.217 Y3.378 Z-3.87
N10975 X77.178 Y3.381 Z-3.877
N10980 X77.14 Y3.369 Z-3.883
N10985 X77.11 Y3.343 Z-3.89
N10990 X77.092 Y3.307 Z-3.896
N10995 X77.09 Y3.267 Z-3.902
N11000 X77.104 Y3.23 Z-3.909
N11005 X77.13 Y3.201 Z-3.915
N11010 X77.167 Y3.184 Z-3.921
N11015 X77.206 Y3.183 Z-3.928
N11020 X77.243 Y3.198 Z-3.934
N11025 X77.272 Y3.225 Z-3.94
N11030 X77.287 Y3.262 Z-3.947
N11035 Y3.302 Z-3.953
N11040 X77.272 Y3.338 Z-3.96
N11045 X77.243 Y3.366 Z-3.966
N11050 X77.206 Y3.38 Z-3.972
N11055 X77.167 Y3.379 Z-3.979
N11060 X77.13 Y3.363 Z-3.985
N11065 X77.104 Y3.333 Z-3.991
N11070 X77.09 Y3.296 Z-3.998
N11075 X77.092 Y3.256 Z-4.004
N11080 X77.11 Y3.221 Z-4.01
N11085 X77.14 Y3.195 Z-4.017
N11090 X77.178 Y3.182 Z-4.023
N11095 X77.217 Y3.186 Z-4.03
N11100 X77.252 Y3.204 Z-4.036
N11105 X77.278 Y3.235 Z-4.042
N11110 X77.289 Y3.273 Z-4.049
N11115 X77.284 Y3.312 Z-4.055
N11120 X77.265 Y3.347 Z-4.061
N11125 X77.234 Y3.371 Z-4.068
N11130 X77.195 Y3.381 Z-4.074
N11135 X77.156 Y3.376 Z-4.08
N11140 X77.122 Y3.356 Z-4.087
N11145 X77.098 Y3.324 Z-4.093
N11150 X77.089 Y3.285 Z-4.099
N11155 X77.096 Y3.246 Z-4.106
N11160 X77.117 Y3.212 Z-4.112
N11165 X77.15 Y3.19 Z-4.119
N11170 X77.189 Y3.182 Z-4.125
N11175 X77.228 Y3.189 Z-4.131
N11180 X77.261 Y3.212 Z-4.138
N11185 X77.282 Y3.245 Z-4.144
N11190 X77.289 Y3.284 Z-4.15
N11195 X77.28 Y3.323 Z-4.157
N11200 X77.257 Y3.355 Z-4.163
N11205 X77.223 Y3.376 Z-4.169
N11210 X77.184 Y3.382 Z-4.176
N11215 X77.146 Y3.372 Z-4.182
N11220 X77.114 Y3.348 Z-4.189
N11225 X77.094 Y3.313 Z-4.195
N11230 X77.089 Y3.274 Z-4.201
N11235 X77.1 Y3.236 Z-4.208
N11240 X77.125 Y3.205 Z-4.214
N11245 X77.16 Y3.186 Z-4.22
N11250 X77.2 Y3.182 Z-4.227
N11255 X77.238 Y3.194 Z-4.233
N11260 X77.268 Y3.22 Z-4.239
N11265 X77.286 Y3.256 Z-4.246
N11270 X77.288 Y3.295 Z-4.252
N11275 X77.275 Y3.333 Z-4.259
N11280 X77.249 Y3.362 Z-4.265
N11285 X77.213 Y3.379 Z-4.271
N11290 X77.173 Y3.38 Z-4.278
N11295 X77.136 Y3.366 Z-4.284
N11300 X77.107 Y3.339 Z-4.29
N11305 X77.091 Y3.302 Z-4.297
N11310 Y3.263 Z-4.303
N11315 X77.106 Y3.226 Z-4.309
N11320 X77.134 Y3.198 Z-4.316
N11325 X77.171 Y3.183 Z-4.322
N11330 X77.211 Y3.184 Z-4.328
N11335 X77.247 Y3.2 Z-4.335
N11340 X77.274 Y3.229 Z-4.341
N11345 X77.288 Y3.267 Z-4.348
N11350 X77.286 Y3.306 Z-4.354
N11355 X77.269 Y3.342 Z-4.36
N11360 X77.239 Y3.368 Z-4.367
N11365 X77.202 Y3.381 Z-4.373
N11370 X77.162 Y3.378 Z-4.379
N11375 X77.127 Y3.36 Z-4.386
N11380 X77.101 Y3.329 Z-4.392
N11385 X77.09 Y3.291 Z-4.398
N11390 X77.094 Y3.252 Z-4.405
N11395 X77.113 Y3.217 Z-4.411
N11400 X77.144 Y3.192 Z-4.418
N11405 X77.182 Y3.182 Z-4.424
N11410 X77.222 Y3.187 Z-4.43
N11415 X77.256 Y3.207 Z-4.437
N11420 X77.28 Y3.239 Z-4.443
N11425 X77.289 Y3.278 Z-4.449
N11430 X77.283 Y3.317 Z-4.456
N11435 X77.262 Y3.351 Z-4.462
N11440 X77.229 Y3.373 Z-4.468
N11445 X77.19 Y3.382 Z-4.475
N11450 X77.151 Y3.374 Z-4.481
N11455 X77.118 Y3.352 Z-4.488
N11460 X77.096 Y3.319 Z-4.494
N11465 X77.089 Y3.28 Z-4.5
N11470 X77.098 Y3.241 Z-4.507
N11475 X77.121 Y3.209 Z-4.513
N11480 X77.154 Y3.188 Z-4.519
N11485 X77.194 Y3.182 Z-4.526
N11490 X77.232 Y3.191 Z-4.532
N11495 X77.264 Y3.215 Z-4.538
N11500 X77.284 Y3.249 Z-4.545
N11505 X77.289 Y3.289 Z-4.551
N11510 X77.278 Y3.327 Z-4.558
N11515 X77.254 Y3.358 Z-4.564
N11520 X77.219 Y3.377 Z-4.57
N11525 X77.179 Y3.381 Z-4.577
N11530 X77.141 Y3.369 Z-4.583
N11535 X77.111 Y3.344 Z-4.589
N11540 X77.093 Y3.309 Z-4.596
N11545 X77.09 Y3.269 Z-4.602
N11550 X77.103 Y3.231 Z-4.608
N11555 X77.129 Y3.202 Z-4.615
N11560 X77.165 Y3.185 Z-4.621
N11565 X77.205 Y3.183 Z-4.627
N11570 X77.242 Y3.197 Z-4.634
N11575 X77.271 Y3.224 Z-4.64
N11580 X77.287 Y3.26 Z-4.647
N11585 Y3.3 Z-4.653
N11590 X77.273 Y3.337 Z-4.659
N11595 X77.245 Y3.365 Z-4.666
N11600 X77.208 Y3.38 Z-4.672
N11605 X77.168 Y3.379 Z-4.678
N11610 X77.132 Y3.364 Z-4.685
N11615 X77.104 Y3.335 Z-4.691
N11620 X77.09 Y3.298 Z-4.697
N11625 X77.092 Y3.258 Z-4.704
N11630 X77.109 Y3.222 Z-4.71
N11635 X77.138 Y3.195 Z-4.717
N11640 X77.176 Y3.183 Z-4.723
N11645 X77.216 Y3.185 Z-4.729
N11650 X77.251 Y3.203 Z-4.736
N11655 X77.277 Y3.233 Z-4.742
N11660 X77.289 Y3.271 Z-4.748
N11665 X77.285 Y3.311 Z-4.755
N11670 X77.266 Y3.346 Z-4.761
N11675 X77.235 Y3.371 Z-4.767
N11680 X77.197 Y3.381 Z-4.774
N11685 X77.157 Y3.376 Z-4.78
N11690 X77.123 Y3.357 Z-4.787
N11695 X77.099 Y3.325 Z-4.793
N11700 X77.089 Y3.286 Z-4.799
N11705 X77.095 Y3.247 Z-4.806
N11710 X77.116 Y3.213 Z-4.812
N11715 X77.148 Y3.19 Z-4.818
N11720 X77.187 Y3.182 Z-4.825
N11725 X77.226 Y3.189 Z-4.831
N11730 X77.259 Y3.211 Z-4.837
N11735 X77.282 Y3.243 Z-4.844
N11740 X77.289 Y3.282 Z-4.85
N11745 X77.281 Y3.321 Z-4.856
N11750 X77.258 Y3.354 Z-4.863
N11755 X77.225 Y3.375 Z-4.869
N11760 X77.186 Y3.382 Z-4.876
N11765 X77.147 Y3.372 Z-4.882
N11770 X77.115 Y3.349 Z-4.888
N11775 X77.095 Y3.315 Z-4.895
N11780 X77.089 Y3.275 Z-4.901
N11785 X77.1 Y3.237 Z-4.907
N11790 X77.124 Y3.206 Z-4.914
N11795 X77.159 Y3.186 Z-4.92
N11800 X77.198 Y3.182 Z-4.926
N11805 X77.236 Y3.194 Z-4.933
N11810 X77.267 Y3.219 Z-4.939
N11815 X77.285 Y3.254 Z-4.946
N11820 X77.288 Y3.294 Z-4.952
N11825 X77.276 Y3.331 Z-4.958
N11830 X77.25 Y3.361 Z-4.965
N11835 X77.214 Y3.379 Z-4.971
N11840 X77.174 Y3.381 Z-4.977
N11845 X77.137 Y3.367 Z-4.984
N11850 X77.108 Y3.34 Z-4.99
N11855 X77.092 Y3.304 Z-4.996
N11860 X77.091 Y3.264 Z-5.003
N11865 X77.105 Y3.227 Z-5.009
N11870 X77.133 Y3.199 Z-5.016
N11875 X77.17 Y3.184 Z-5.022
N11880 X77.209 Z-5.028
N11885 X77.246 Y3.199 Z-5.035
N11890 X77.273 Y3.228 Z-5.041
N11895 X77.288 Y3.265 Z-5.047
N11900 X77.286 Y3.305 Z-5.054
N11905 X77.27 Y3.341 Z-5.06
N11910 X77.241 Y3.367 Z-5.066
N11915 X77.203 Y3.381 Z-5.073
N11920 X77.163 Y3.378 Z-5.079
N11925 X77.128 Y3.361 Z-5.085
N11930 X77.102 Y3.331 Z-5.092
N11935 X77.09 Y3.293 Z-5.098
N11940 X77.093 Y3.253 Z-5.105
N11945 X77.112 Y3.218 Z-5.111
N11950 X77.143 Y3.193 Z-5.117
N11955 X77.181 Y3.182 Z-5.124
N11960 X77.22 Y3.187 Z-5.13
N11965 X77.255 Y3.206 Z-5.136
N11970 X77.279 Y3.238 Z-5.143
N11975 X77.289 Y3.276 Z-5.149
N11980 X77.283 Y3.315 Z-5.155
N11985 X77.263 Y3.349 Z-5.162
N11990 X77.231 Y3.373 Z-5.168
N11995 X77.192 Y3.382 Z-5.175
N12000 X77.153 Y3.375 Z-5.181
N12005 X77.119 Y3.353 Z-5.187
N12010 X77.097 Y3.321 Z-5.194
N12015 X77.089 Y3.282 Z-5.2
N12020 G3 X77.289 I0.1
N12025 X77.089 I-0.1
N12030 G1 X77.096 Y3.257
N12035 X77.114 Y3.238
N12040 X77.139 Y3.232
N12045 X77.189 Y3.282
N12050 G0 Z2.3
N12055 X63.082 Y7.865
N12060 Z-1
N12065 G1 Z-2.7 F50
N12070 X63.032 Y7.915
N12075 X63.007 Y7.909
N12080 X62.989 Y7.89
N12085 X62.982 Y7.865
N12090 X62.99 Y7.826 Z-2.706 F800
N12095 X63.013 Y7.794 Z-2.713
N12100 X63.046 Y7.772 Z-2.719
N12105 X63.085 Y7.765 Z-2.725
N12110 X63.124 Y7.774 Z-2.732
N12115 X63.156 Y7.798 Z-2.738
N12120 X63.176 Y7.832 Z-2.745
N12125 X63.182 Y7.871 Z-2.751
N12130 X63.172 Y7.909 Z-2.757
N12135 X63.148 Y7.941 Z-2.764
N12140 X63.113 Y7.96 Z-2.77
N12145 X63.074 Y7.965 Z-2.776
N12150 X63.036 Y7.954 Z-2.783
N12155 X63.005 Y7.929 Z-2.789
N12160 X62.986 Y7.894 Z-2.795
N12165 X62.983 Y7.854 Z-2.802
N12170 X62.995 Y7.816 Z-2.808
N12175 X63.021 Y7.786 Z-2.815
N12180 X63.057 Y7.769 Z-2.821
N12185 X63.096 Y7.766 Z-2.827
N12190 X63.134 Y7.779 Z-2.834
N12195 X63.163 Y7.806 Z-2.84
N12200 X63.18 Y7.842 Z-2.846
N12205 X63.181 Y7.882 Z-2.853
N12210 X63.167 Y7.919 Z-2.859
N12215 X63.139 Y7.948 Z-2.865
N12220 X63.103 Y7.963 Z-2.872
N12225 X63.063 Z-2.878
N12230 X63.026 Y7.948 Z-2.884
N12235 X62.998 Y7.92 Z-2.891
N12240 X62.984 Y7.883 Z-2.897
N12245 X62.985 Y7.843 Z-2.904
N12250 X63.001 Y7.807 Z-2.91
N12255 X63.03 Y7.78 Z-2.916
N12260 X63.068 Y7.766 Z-2.923
N12265 X63.107 Y7.768 Z-2.929
N12270 X63.143 Y7.786 Z-2.935
N12275 X63.169 Y7.816 Z-2.942
N12280 X63.182 Y7.853 Z-2.948
N12285 X63.178 Y7.893 Z-2.954
N12290 X63.16 Y7.928 Z-2.961
N12295 X63.13 Y7.953 Z-2.967
N12300 X63.091 Y7.965 Z-2.974
N12305 X63.052 Y7.961 Z-2.98
N12310 X63.017 Y7.941 Z-2.986
N12315 X62.993 Y7.91 Z-2.993
N12320 X62.983 Y7.872 Z-2.999
N12325 X62.988 Y7.832 Z-3.005
N12330 X63.008 Y7.798 Z-3.012
N12335 X63.04 Y7.775 Z-3.018
N12340 X63.079 Y7.765 Z-3.024
N12345 X63.118 Y7.772 Z-3.031
N12350 X63.151 Y7.793 Z-3.037
N12355 X63.174 Y7.826 Z-3.044
N12360 X63.182 Y7.864 Z-3.05
N12365 X63.175 Y7.903 Z-3.056
N12370 X63.153 Y7.936 Z-3.063
N12375 X63.119 Y7.958 Z-3.069
N12380 X63.08 Y7.965 Z-3.075
N12385 X63.042 Y7.957 Z-3.082
N12390 X63.009 Y7.934 Z-3.088
N12395 X62.988 Y7.9 Z-3.094
N12400 X62.982 Y7.86 Z-3.101
N12405 X62.992 Y7.822 Z-3.107
N12410 X63.016 Y7.79 Z-3.113
N12415 X63.051 Y7.77 Z-3.12
N12420 X63.09 Y7.766 Z-3.126
N12425 X63.128 Y7.776 Z-3.133
N12430 X63.159 Y7.801 Z-3.139
N12435 X63.178 Y7.836 Z-3.145
N12440 X63.182 Y7.876 Z-3.152
N12445 X63.17 Y7.914 Z-3.158
N12450 X63.144 Y7.944 Z-3.164
N12455 X63.109 Y7.962 Z-3.171
N12460 X63.069 Y7.964 Z-3.177
N12465 X63.032 Y7.951 Z-3.183
N12470 X63.002 Y7.925 Z-3.19
N12475 X62.985 Y7.889 Z-3.196
N12480 X62.984 Y7.849 Z-3.203
N12485 X62.998 Y7.812 Z-3.209
N12490 X63.025 Y7.783 Z-3.215
N12495 X63.061 Y7.767 Z-3.222
N12500 X63.101 Z-3.228
N12505 X63.138 Y7.782 Z-3.234
N12510 X63.166 Y7.81 Z-3.241
N12515 X63.181 Y7.847 Z-3.247
N12520 X63.18 Y7.887 Z-3.253
N12525 X63.164 Y7.923 Z-3.26
N12530 X63.135 Y7.95 Z-3.266
N12535 X63.098 Y7.964 Z-3.273
N12540 X63.058 Y7.962 Z-3.279
N12545 X63.022 Y7.945 Z-3.285
N12550 X62.996 Y7.916 Z-3.292
N12555 X62.983 Y7.878 Z-3.298
N12560 X62.986 Y7.838 Z-3.304
N12565 X63.004 Y7.803 Z-3.311
N12570 X63.034 Y7.777 Z-3.317
N12575 X63.072 Y7.766 Z-3.323
N12580 X63.112 Y7.77 Z-3.33
N12585 X63.147 Y7.789 Z-3.336
N12590 X63.171 Y7.82 Z-3.342
N12595 X63.182 Y7.858 Z-3.349
N12600 X63.177 Y7.897 Z-3.355
N12605 X63.157 Y7.932 Z-3.362
N12610 X63.125 Y7.956 Z-3.368
N12615 X63.087 Y7.965 Z-3.374
N12620 X63.047 Y7.959 Z-3.381
N12625 X63.014 Y7.938 Z-3.387
N12630 X62.991 Y7.906 Z-3.393
N12635 X62.982 Y7.867 Z-3.4
N12640 X62.99 Y7.828 Z-3.406
N12645 X63.011 Y7.795 Z-3.412
N12650 X63.045 Y7.773 Z-3.419
N12655 X63.084 Y7.765 Z-3.425
N12660 X63.122 Y7.774 Z-3.432
N12665 X63.155 Y7.796 Z-3.438
N12670 X63.176 Y7.83 Z-3.444
N12675 X63.182 Y7.869 Z-3.451
N12680 X63.173 Y7.908 Z-3.457
N12685 X63.149 Y7.94 Z-3.463
N12690 X63.115 Y7.96 Z-3.47
N12695 X63.076 Y7.965 Z-3.476
N12700 X63.037 Y7.955 Z-3.482
N12705 X63.006 Y7.93 Z-3.489
N12710 X62.987 Y7.895 Z-3.495
N12715 X62.983 Y7.856 Z-3.502
N12720 X62.994 Y7.818 Z-3.508
N12725 X63.02 Y7.787 Z-3.514
N12730 X63.055 Y7.769 Z-3.521
N12735 X63.095 Y7.766 Z-3.527
N12740 X63.132 Y7.779 Z-3.533
N12745 X63.162 Y7.805 Z-3.54
N12750 X63.179 Y7.841 Z-3.546
N12755 X63.181 Y7.88 Z-3.552
N12760 X63.167 Y7.918 Z-3.559
N12765 X63.14 Y7.947 Z-3.565
N12770 X63.104 Y7.963 Z-3.572
N12775 X63.064 Y7.964 Z-3.578
N12780 X63.028 Y7.949 Z-3.584
N12785 X62.999 Y7.921 Z-3.591
N12790 X62.984 Y7.884 Z-3.597
N12795 Y7.845 Z-3.603
N12800 X63 Y7.808 Z-3.61
N12805 X63.029 Y7.781 Z-3.616
N12810 X63.066 Y7.767 Z-3.622
N12815 X63.106 Y7.768 Z-3.629
N12820 X63.142 Y7.785 Z-3.635
N12825 X63.168 Y7.814 Z-3.641
N12830 X63.181 Y7.852 Z-3.648
N12835 X63.179 Y7.891 Z-3.654
N12840 X63.161 Y7.927 Z-3.661
N12845 X63.131 Y7.953 Z-3.667
N12850 X63.093 Y7.965 Z-3.673
N12855 X63.054 Y7.961 Z-3.68
N12860 X63.019 Y7.942 Z-3.686
N12865 X62.994 Y7.911 Z-3.692
N12870 X62.983 Y7.873 Z-3.699
N12875 X62.987 Y7.834 Z-3.705
N12880 X63.007 Y7.799 Z-3.711
N12885 X63.039 Y7.775 Z-3.718
N12890 X63.077 Y7.765 Z-3.724
N12895 X63.116 Y7.771 Z-3.731
N12900 X63.15 Y7.792 Z-3.737
N12905 X63.173 Y7.824 Z-3.743
N12910 X63.182 Y7.863 Z-3.75
N12915 X63.175 Y7.902 Z-3.756
N12920 X63.154 Y7.935 Z-3.762
N12925 X63.121 Y7.958 Z-3.769
N12930 X63.082 Y7.965 Z-3.775
N12935 X63.043 Y7.957 Z-3.781
N12940 X63.01 Y7.935 Z-3.788
N12945 X62.989 Y7.901 Z-3.794
N12950 X62.982 Y7.862 Z-3.801
N12955 X62.991 Y7.823 Z-3.807
N12960 X63.015 Y7.791 Z-3.813
N12965 X63.049 Y7.771 Z-3.82
N12970 X63.088 Y7.765 Z-3.826
N12975 X63.127 Y7.776 Z-3.832
N12980 X63.158 Y7.8 Z-3.839
N12985 X63.177 Y7.835 Z-3.845
N12990 X63.182 Y7.874 Z-3.851
N12995 X63.171 Y7.912 Z-3.858
N13000 X63.145 Y7.943 Z-3.864
N13005 X63.11 Y7.961 Z-3.87
N13010 X63.071 Y7.965 Z-3.877
N13015 X63.033 Y7.952 Z-3.883
N13020 X63.003 Y7.926 Z-3.89
N13025 X62.986 Y7.891 Z-3.896
N13030 X62.983 Y7.851 Z-3.902
N13035 X62.997 Y7.814 Z-3.909
N13040 X63.024 Y7.784 Z-3.915
N13045 X63.06 Y7.768 Z-3.921
N13050 X63.099 Y7.767 Z-3.928
N13055 X63.136 Y7.781 Z-3.934
N13060 X63.165 Y7.809 Z-3.94
N13065 X63.18 Y7.845 Z-3.947
N13070 Y7.885 Z-3.953
N13075 X63.165 Y7.922 Z-3.96
N13080 X63.136 Y7.949 Z-3.966
N13085 X63.099 Y7.964 Z-3.972
N13090 X63.06 Y7.963 Z-3.979
N13095 X63.024 Y7.946 Z-3.985
N13100 X62.997 Y7.917 Z-3.991
N13105 X62.983 Y7.88 Z-3.998
N13110 X62.986 Y7.84 Z-4.004
N13115 X63.003 Y7.804 Z-4.01
N13120 X63.033 Y7.778 Z-4.017
N13125 X63.071 Y7.766 Z-4.023
N13130 X63.11 Y7.769 Z-4.03
N13135 X63.145 Y7.788 Z-4.036
N13140 X63.171 Y7.818 Z-4.042
N13145 X63.182 Y7.856 Z-4.049
N13150 X63.177 Y7.896 Z-4.055
N13155 X63.158 Y7.931 Z-4.061
N13160 X63.127 Y7.955 Z-4.068
N13165 X63.088 Y7.965 Z-4.074
N13170 X63.049 Y7.96 Z-4.08
N13175 X63.015 Y7.939 Z-4.087
N13180 X62.991 Y7.907 Z-4.093
N13185 X62.982 Y7.868 Z-4.099
N13190 X62.989 Y7.829 Z-4.106
N13195 X63.01 Y7.796 Z-4.112
N13200 X63.043 Y7.773 Z-4.119
N13205 X63.082 Y7.765 Z-4.125
N13210 X63.121 Y7.773 Z-4.131
N13215 X63.154 Y7.795 Z-4.138
N13220 X63.175 Y7.829 Z-4.144
N13225 X63.182 Y7.868 Z-4.15
N13230 X63.173 Y7.906 Z-4.157
N13235 X63.15 Y7.939 Z-4.163
N13240 X63.116 Y7.959 Z-4.169
N13245 X63.077 Y7.965 Z-4.176
N13250 X63.039 Y7.955 Z-4.182
N13255 X63.007 Y7.931 Z-4.189
N13260 X62.987 Y7.897 Z-4.195
N13265 X62.983 Y7.857 Z-4.201
N13270 X62.994 Y7.819 Z-4.208
N13275 X63.019 Y7.788 Z-4.214
N13280 X63.054 Y7.769 Z-4.22
N13285 X63.093 Y7.766 Z-4.227
N13290 X63.131 Y7.778 Z-4.233
N13295 X63.161 Y7.804 Z-4.239
N13300 X63.179 Y7.839 Z-4.246
N13305 X63.181 Y7.879 Z-4.252
N13310 X63.168 Y7.916 Z-4.259
N13315 X63.142 Y7.946 Z-4.265
N13320 X63.106 Y7.962 Z-4.271
N13325 X63.066 Y7.964 Z-4.278
N13330 X63.029 Y7.95 Z-4.284
N13335 X63 Y7.922 Z-4.29
N13340 X62.984 Y7.886 Z-4.297
N13345 Y7.846 Z-4.303
N13350 X62.999 Y7.809 Z-4.309
N13355 X63.028 Y7.782 Z-4.316
N13360 X63.064 Y7.767 Z-4.322
N13365 X63.104 Y7.768 Z-4.328
N13370 X63.14 Y7.784 Z-4.335
N13375 X63.167 Y7.813 Z-4.341
N13380 X63.181 Y7.85 Z-4.348
N13385 X63.179 Y7.89 Z-4.354
N13390 X63.162 Y7.926 Z-4.36
N13395 X63.132 Y7.952 Z-4.367
N13400 X63.095 Y7.964 Z-4.373
N13405 X63.055 Y7.961 Z-4.379
N13410 X63.02 Y7.943 Z-4.386
N13415 X62.994 Y7.913 Z-4.392
N13420 X62.983 Y7.875 Z-4.398
N13425 X62.987 Y7.835 Z-4.405
N13430 X63.006 Y7.801 Z-4.411
N13435 X63.037 Y7.776 Z-4.418
N13440 X63.076 Y7.765 Z-4.424
N13445 X63.115 Y7.771 Z-4.43
N13450 X63.149 Y7.791 Z-4.437
N13455 X63.173 Y7.823 Z-4.443
N13460 X63.182 Y7.861 Z-4.449
N13465 X63.176 Y7.9 Z-4.456
N13470 X63.155 Y7.934 Z-4.462
N13475 X63.122 Y7.957 Z-4.468
N13480 X63.084 Y7.965 Z-4.475
N13485 X63.045 Y7.958 Z-4.481
N13490 X63.011 Y7.936 Z-4.488
N13495 X62.99 Y7.903 Z-4.494
N13500 X62.982 Y7.864 Z-4.5
N13505 X62.991 Y7.825 Z-4.507
N13510 X63.014 Y7.792 Z-4.513
N13515 X63.047 Y7.772 Z-4.519
N13520 X63.087 Y7.765 Z-4.526
N13525 X63.125 Y7.775 Z-4.532
N13530 X63.157 Y7.799 Z-4.538
N13535 X63.177 Y7.833 Z-4.545
N13540 X63.182 Y7.872 Z-4.551
N13545 X63.171 Y7.911 Z-4.558
N13550 X63.147 Y7.942 Z-4.564
N13555 X63.112 Y7.961 Z-4.57
N13560 X63.072 Y7.965 Z-4.577
N13565 X63.034 Y7.953 Z-4.583
N13570 X63.004 Y7.927 Z-4.589
N13575 X62.986 Y7.892 Z-4.596
N13580 X62.983 Y7.853 Z-4.602
N13585 X62.996 Y7.815 Z-4.608
N13590 X63.022 Y7.785 Z-4.615
N13595 X63.058 Y7.768 Z-4.621
N13600 X63.098 Y7.766 Z-4.627
N13605 X63.135 Y7.78 Z-4.634
N13610 X63.164 Y7.808 Z-4.64
N13615 X63.18 Y7.844 Z-4.647
N13620 X63.181 Y7.884 Z-4.653
N13625 X63.166 Y7.92 Z-4.659
N13630 X63.138 Y7.948 Z-4.666
N13635 X63.101 Y7.964 Z-4.672
N13640 X63.061 Y7.963 Z-4.678
N13645 X63.025 Y7.947 Z-4.685
N13650 X62.998 Y7.918 Z-4.691
N13655 X62.984 Y7.881 Z-4.697
N13660 X62.985 Y7.842 Z-4.704
N13665 X63.002 Y7.806 Z-4.71
N13670 X63.032 Y7.779 Z-4.717
N13675 X63.069 Y7.766 Z-4.723
N13680 X63.109 Y7.769 Z-4.729
N13685 X63.144 Y7.787 Z-4.736
N13690 X63.17 Y7.817 Z-4.742
N13695 X63.182 Y7.855 Z-4.748
N13700 X63.178 Y7.894 Z-4.755
N13705 X63.159 Y7.929 Z-4.761
N13710 X63.128 Y7.954 Z-4.767
N13715 X63.09 Y7.965 Z-4.774
N13720 X63.051 Y7.96 Z-4.78
N13725 X63.016 Y7.94 Z-4.787
N13730 X62.992 Y7.909 Z-4.793
N13735 X62.982 Y7.87 Z-4.799
N13740 X62.988 Y7.831 Z-4.806
N13745 X63.009 Y7.797 Z-4.812
N13750 X63.042 Y7.774 Z-4.818
N13755 X63.08 Y7.765 Z-4.825
N13760 X63.119 Y7.772 Z-4.831
N13765 X63.153 Y7.794 Z-4.837
N13770 X63.175 Y7.827 Z-4.844
N13775 X63.182 Y7.866 Z-4.85
N13780 X63.174 Y7.905 Z-4.856
N13785 X63.151 Y7.938 Z-4.863
N13790 X63.118 Y7.959 Z-4.869
N13795 X63.079 Y7.965 Z-4.876
N13800 X63.04 Y7.956 Z-4.882
N13805 X63.008 Y7.932 Z-4.888
N13810 X62.988 Y7.898 Z-4.895
N13815 X62.983 Y7.859 Z-4.901
N13820 X62.993 Y7.821 Z-4.907
N13825 X63.017 Y7.789 Z-4.914
N13830 X63.052 Y7.77 Z-4.92
N13835 X63.091 Y7.766 Z-4.926
N13840 X63.13 Y7.777 Z-4.933
N13845 X63.16 Y7.802 Z-4.939
N13850 X63.178 Y7.838 Z-4.946
N13855 X63.182 Y7.877 Z-4.952
N13860 X63.169 Y7.915 Z-4.958
N13865 X63.143 Y7.945 Z-4.965
N13870 X63.107 Y7.962 Z-4.971
N13875 X63.068 Y7.964 Z-4.977
N13880 X63.03 Y7.951 Z-4.984
N13885 X63.001 Y7.924 Z-4.99
N13890 X62.985 Y7.887 Z-4.996
N13895 X62.984 Y7.848 Z-5.003
N13900 X62.998 Y7.811 Z-5.009
N13905 X63.026 Y7.782 Z-5.016
N13910 X63.063 Y7.767 Z-5.022
N13915 X63.103 Z-5.028
N13920 X63.139 Y7.783 Z-5.035
N13925 X63.167 Y7.812 Z-5.041
N13930 X63.181 Y7.849 Z-5.047
N13935 X63.18 Y7.888 Z-5.054
N13940 X63.163 Y7.924 Z-5.06
N13945 X63.134 Y7.951 Z-5.066
N13950 X63.096 Y7.964 Z-5.073
N13955 X63.057 Y7.962 Z-5.079
N13960 X63.021 Y7.944 Z-5.085
N13965 X62.995 Y7.914 Z-5.092
N13970 X62.983 Y7.876 Z-5.098
N13975 X62.986 Y7.837 Z-5.105
N13980 X63.005 Y7.802 Z-5.111
N13985 X63.036 Y7.777 Z-5.117
N13990 X63.074 Y7.766 Z-5.124
N13995 X63.113 Y7.77 Z-5.13
N14000 X63.148 Y7.79 Z-5.136
N14005 X63.172 Y7.821 Z-5.143
N14010 X63.182 Y7.86 Z-5.149
N14015 X63.176 Y7.899 Z-5.155
N14020 X63.156 Y7.933 Z-5.162
N14025 X63.124 Y7.956 Z-5.168
N14030 X63.085 Y7.965 Z-5.175
N14035 X63.046 Y7.958 Z-5.181
N14040 X63.013 Y7.937 Z-5.187
N14045 X62.99 Y7.904 Z-5.194
N14050 X62.982 Y7.865 Z-5.2
N14055 G3 X63.182 I0.1
N14060 X62.982 I-0.1
N14065 G1 X62.989 Y7.84
N14070 X63.007 Y7.822
N14075 X63.032 Y7.815
N14080 X63.082 Y7.865
N14085 G0 Z2.3
N14090 X54.364 Y19.865
N14095 Z-1
N14100 G1 Z-2.7 F50
N14105 X54.314 Y19.915
N14110 X54.289 Y19.909
N14115 X54.271 Y19.89
N14120 X54.264 Y19.865
N14125 X54.272 Y19.826 Z-2.706 F800
N14130 X54.294 Y19.794 Z-2.713
N14135 X54.327 Y19.772 Z-2.719
N14140 X54.367 Y19.765 Z-2.725
N14145 X54.405 Y19.774 Z-2.732
N14150 X54.437 Y19.798 Z-2.738
N14155 X54.458 Y19.832 Z-2.745
N14160 X54.464 Y19.871 Z-2.751
N14165 X54.454 Y19.909 Z-2.757
N14170 X54.429 Y19.941 Z-2.764
N14175 X54.395 Y19.96 Z-2.77
N14180 X54.355 Y19.965 Z-2.776
N14185 X54.317 Y19.954 Z-2.783
N14190 X54.287 Y19.929 Z-2.789
N14195 X54.268 Y19.894 Z-2.795
N14200 X54.264 Y19.854 Z-2.802
N14205 X54.277 Y19.816 Z-2.808
N14210 X54.303 Y19.786 Z-2.815
N14215 X54.338 Y19.769 Z-2.821
N14220 X54.378 Y19.766 Z-2.827
N14225 X54.415 Y19.779 Z-2.834
N14230 X54.445 Y19.806 Z-2.84
N14235 X54.461 Y19.842 Z-2.846
N14240 X54.462 Y19.882 Z-2.853
N14245 X54.448 Y19.919 Z-2.859
N14250 X54.421 Y19.948 Z-2.865
N14255 X54.384 Y19.963 Z-2.872
N14260 X54.344 Z-2.878
N14265 X54.308 Y19.948 Z-2.884
N14270 X54.28 Y19.92 Z-2.891
N14275 X54.265 Y19.883 Z-2.897
N14280 X54.266 Y19.843 Z-2.904
N14285 X54.283 Y19.807 Z-2.91
N14290 X54.312 Y19.78 Z-2.916
N14295 X54.349 Y19.766 Z-2.923
N14300 X54.389 Y19.768 Z-2.929
N14305 X54.424 Y19.786 Z-2.935
N14310 X54.451 Y19.816 Z-2.942
N14315 X54.463 Y19.853 Z-2.948
N14320 X54.46 Y19.893 Z-2.954
N14325 X54.442 Y19.928 Z-2.961
N14330 X54.411 Y19.953 Z-2.967
N14335 X54.373 Y19.965 Z-2.974
N14340 X54.334 Y19.961 Z-2.98
N14345 X54.299 Y19.941 Z-2.986
N14350 X54.274 Y19.91 Z-2.993
N14355 X54.264 Y19.872 Z-2.999
N14360 X54.269 Y19.832 Z-3.005
N14365 X54.29 Y19.798 Z-3.012
N14370 X54.322 Y19.775 Z-3.018
N14375 X54.36 Y19.765 Z-3.024
N14380 X54.399 Y19.772 Z-3.031
N14385 X54.433 Y19.793 Z-3.037
N14390 X54.456 Y19.826 Z-3.044
N14395 X54.464 Y19.864 Z-3.05
N14400 X54.456 Y19.903 Z-3.056
N14405 X54.434 Y19.936 Z-3.063
N14410 X54.401 Y19.958 Z-3.069
N14415 X54.362 Y19.965 Z-3.075
N14420 X54.323 Y19.957 Z-3.082
N14425 X54.291 Y19.934 Z-3.088
N14430 X54.27 Y19.9 Z-3.094
N14435 X54.264 Y19.86 Z-3.101
N14440 X54.274 Y19.822 Z-3.107
N14445 X54.298 Y19.79 Z-3.113
N14450 X54.332 Y19.77 Z-3.12
N14455 X54.371 Y19.766 Z-3.126
N14460 X54.41 Y19.776 Z-3.133
N14465 X54.441 Y19.801 Z-3.139
N14470 X54.459 Y19.836 Z-3.145
N14475 X54.463 Y19.876 Z-3.152
N14480 X54.451 Y19.914 Z-3.158
N14485 X54.426 Y19.944 Z-3.164
N14490 X54.39 Y19.962 Z-3.171
N14495 X54.351 Y19.964 Z-3.177
N14500 X54.313 Y19.951 Z-3.183
N14505 X54.284 Y19.925 Z-3.19
N14510 X54.267 Y19.889 Z-3.196
N14515 X54.265 Y19.849 Z-3.203
N14520 X54.279 Y19.812 Z-3.209
N14525 X54.306 Y19.783 Z-3.215
N14530 X54.343 Y19.767 Z-3.222
N14535 X54.382 Z-3.228
N14540 X54.419 Y19.782 Z-3.234
N14545 X54.447 Y19.81 Z-3.241
N14550 X54.462 Y19.847 Z-3.247
N14555 X54.461 Y19.887 Z-3.253
N14560 X54.445 Y19.923 Z-3.26
N14565 X54.417 Y19.95 Z-3.266
N14570 X54.379 Y19.964 Z-3.273
N14575 X54.34 Y19.962 Z-3.279
N14580 X54.304 Y19.945 Z-3.285
N14585 X54.277 Y19.916 Z-3.292
N14590 X54.265 Y19.878 Z-3.298
N14595 X54.267 Y19.838 Z-3.304
N14600 X54.286 Y19.803 Z-3.311
N14605 X54.316 Y19.777 Z-3.317
N14610 X54.354 Y19.766 Z-3.323
N14615 X54.393 Y19.77 Z-3.33
N14620 X54.428 Y19.789 Z-3.336
N14625 X54.453 Y19.82 Z-3.342
N14630 X54.464 Y19.858 Z-3.349
N14635 X54.458 Y19.897 Z-3.355
N14640 X54.438 Y19.932 Z-3.362
N14645 X54.407 Y19.956 Z-3.368
N14650 X54.368 Y19.965 Z-3.374
N14655 X54.329 Y19.959 Z-3.381
N14660 X54.295 Y19.938 Z-3.387
N14665 X54.272 Y19.906 Z-3.393
N14670 X54.264 Y19.867 Z-3.4
N14675 X54.271 Y19.828 Z-3.406
N14680 X54.293 Y19.795 Z-3.412
N14685 X54.326 Y19.773 Z-3.419
N14690 X54.365 Y19.765 Z-3.425
N14695 X54.404 Y19.774 Z-3.432
N14700 X54.436 Y19.796 Z-3.438
N14705 X54.457 Y19.83 Z-3.444
N14710 X54.464 Y19.869 Z-3.451
N14715 X54.454 Y19.908 Z-3.457
N14720 X54.431 Y19.94 Z-3.463
N14725 X54.396 Y19.96 Z-3.47
N14730 X54.357 Y19.965 Z-3.476
N14735 X54.319 Y19.955 Z-3.482
N14740 X54.288 Y19.93 Z-3.489
N14745 X54.268 Y19.895 Z-3.495
N14750 X54.264 Y19.856 Z-3.502
N14755 X54.276 Y19.818 Z-3.508
N14760 X54.301 Y19.787 Z-3.514
N14765 X54.337 Y19.769 Z-3.521
N14770 X54.376 Y19.766 Z-3.527
N14775 X54.414 Y19.779 Z-3.533
N14780 X54.444 Y19.805 Z-3.54
N14785 X54.461 Y19.841 Z-3.546
N14790 X54.463 Y19.88 Z-3.552
N14795 X54.449 Y19.918 Z-3.559
N14800 X54.422 Y19.947 Z-3.565
N14805 X54.386 Y19.963 Z-3.572
N14810 X54.346 Y19.964 Z-3.578
N14815 X54.309 Y19.949 Z-3.584
N14820 X54.281 Y19.921 Z-3.591
N14825 X54.266 Y19.884 Z-3.597
N14830 Y19.845 Z-3.603
N14835 X54.282 Y19.808 Z-3.61
N14840 X54.31 Y19.781 Z-3.616
N14845 X54.347 Y19.767 Z-3.622
N14850 X54.387 Y19.768 Z-3.629
N14855 X54.423 Y19.785 Z-3.635
N14860 X54.45 Y19.814 Z-3.641
N14865 X54.463 Y19.852 Z-3.648
N14870 X54.46 Y19.891 Z-3.654
N14875 X54.443 Y19.927 Z-3.661
N14880 X54.412 Y19.953 Z-3.667
N14885 X54.375 Y19.965 Z-3.673
N14890 X54.335 Y19.961 Z-3.68
N14895 X54.3 Y19.942 Z-3.686
N14900 X54.275 Y19.911 Z-3.692
N14905 X54.264 Y19.873 Z-3.699
N14910 X54.269 Y19.834 Z-3.705
N14915 X54.289 Y19.799 Z-3.711
N14920 X54.32 Y19.775 Z-3.718
N14925 X54.359 Y19.765 Z-3.724
N14930 X54.398 Y19.771 Z-3.731
N14935 X54.432 Y19.792 Z-3.737
N14940 X54.455 Y19.824 Z-3.743
N14945 X54.464 Y19.863 Z-3.75
N14950 X54.457 Y19.902 Z-3.756
N14955 X54.435 Y19.935 Z-3.762
N14960 X54.402 Y19.958 Z-3.769
N14965 X54.363 Y19.965 Z-3.775
N14970 X54.325 Y19.957 Z-3.781
N14975 X54.292 Y19.935 Z-3.788
N14980 X54.27 Y19.901 Z-3.794
N14985 X54.264 Y19.862 Z-3.801
N14990 X54.273 Y19.823 Z-3.807
N14995 X54.296 Y19.791 Z-3.813
N15000 X54.33 Y19.771 Z-3.82
N15005 X54.37 Y19.765 Z-3.826
N15010 X54.408 Y19.776 Z-3.832
N15015 X54.44 Y19.8 Z-3.839
N15020 X54.459 Y19.835 Z-3.845
N15025 X54.463 Y19.874 Z-3.851
N15030 X54.452 Y19.912 Z-3.858
N15035 X54.427 Y19.943 Z-3.864
N15040 X54.392 Y19.961 Z-3.87
N15045 X54.352 Y19.965 Z-3.877
N15050 X54.314 Y19.952 Z-3.883
N15055 X54.285 Y19.926 Z-3.89
N15060 X54.267 Y19.891 Z-3.896
N15065 X54.265 Y19.851 Z-3.902
N15070 X54.278 Y19.814 Z-3.909
N15075 X54.305 Y19.784 Z-3.915
N15080 X54.341 Y19.768 Z-3.921
N15085 X54.381 Y19.767 Z-3.928
N15090 X54.418 Y19.781 Z-3.934
N15095 X54.446 Y19.809 Z-3.94
N15100 X54.462 Y19.845 Z-3.947
N15105 Y19.885 Z-3.953
N15110 X54.446 Y19.922 Z-3.96
N15115 X54.418 Y19.949 Z-3.966
N15120 X54.381 Y19.964 Z-3.972
N15125 X54.341 Y19.963 Z-3.979
N15130 X54.305 Y19.946 Z-3.985
N15135 X54.278 Y19.917 Z-3.991
N15140 X54.265 Y19.88 Z-3.998
N15145 X54.267 Y19.84 Z-4.004
N15150 X54.285 Y19.804 Z-4.01
N15155 X54.314 Y19.778 Z-4.017
N15160 X54.352 Y19.766 Z-4.023
N15165 X54.392 Y19.769 Z-4.03
N15170 X54.427 Y19.788 Z-4.036
N15175 X54.452 Y19.818 Z-4.042
N15180 X54.463 Y19.856 Z-4.049
N15185 X54.459 Y19.896 Z-4.055
N15190 X54.44 Y19.931 Z-4.061
N15195 X54.408 Y19.955 Z-4.068
N15200 X54.37 Y19.965 Z-4.074
N15205 X54.33 Y19.96 Z-4.08
N15210 X54.296 Y19.939 Z-4.087
N15215 X54.273 Y19.907 Z-4.093
N15220 X54.264 Y19.868 Z-4.099
N15225 X54.27 Y19.829 Z-4.106
N15230 X54.292 Y19.796 Z-4.112
N15235 X54.325 Y19.773 Z-4.119
N15240 X54.363 Y19.765 Z-4.125
N15245 X54.402 Y19.773 Z-4.131
N15250 X54.435 Y19.795 Z-4.138
N15255 X54.457 Y19.829 Z-4.144
N15260 X54.464 Y19.868 Z-4.15
N15265 X54.455 Y19.906 Z-4.157
N15270 X54.432 Y19.939 Z-4.163
N15275 X54.398 Y19.959 Z-4.169
N15280 X54.359 Y19.965 Z-4.176
N15285 X54.32 Y19.955 Z-4.182
N15290 X54.289 Y19.931 Z-4.189
N15295 X54.269 Y19.897 Z-4.195
N15300 X54.264 Y19.857 Z-4.201
N15305 X54.275 Y19.819 Z-4.208
N15310 X54.3 Y19.788 Z-4.214
N15315 X54.335 Y19.769 Z-4.22
N15320 X54.375 Y19.766 Z-4.227
N15325 X54.412 Y19.778 Z-4.233
N15330 X54.443 Y19.804 Z-4.239
N15335 X54.46 Y19.839 Z-4.246
N15340 X54.463 Y19.879 Z-4.252
N15345 X54.45 Y19.916 Z-4.259
N15350 X54.423 Y19.946 Z-4.265
N15355 X54.387 Y19.962 Z-4.271
N15360 X54.347 Y19.964 Z-4.278
N15365 X54.31 Y19.95 Z-4.284
N15370 X54.282 Y19.922 Z-4.29
N15375 X54.266 Y19.886 Z-4.297
N15380 Y19.846 Z-4.303
N15385 X54.281 Y19.809 Z-4.309
N15390 X54.309 Y19.782 Z-4.316
N15395 X54.346 Y19.767 Z-4.322
N15400 X54.386 Y19.768 Z-4.328
N15405 X54.422 Y19.784 Z-4.335
N15410 X54.449 Y19.813 Z-4.341
N15415 X54.463 Y19.85 Z-4.348
N15420 X54.461 Y19.89 Z-4.354
N15425 X54.444 Y19.926 Z-4.36
N15430 X54.414 Y19.952 Z-4.367
N15435 X54.376 Y19.964 Z-4.373
N15440 X54.337 Y19.961 Z-4.379
N15445 X54.301 Y19.943 Z-4.386
N15450 X54.276 Y19.913 Z-4.392
N15455 X54.264 Y19.875 Z-4.398
N15460 X54.268 Y19.835 Z-4.405
N15465 X54.288 Y19.801 Z-4.411
N15470 X54.319 Y19.776 Z-4.418
N15475 X54.357 Y19.765 Z-4.424
N15480 X54.396 Y19.771 Z-4.43
N15485 X54.431 Y19.791 Z-4.437
N15490 X54.454 Y19.823 Z-4.443
N15495 X54.464 Y19.861 Z-4.449
N15500 X54.457 Y19.9 Z-4.456
N15505 X54.436 Y19.934 Z-4.462
N15510 X54.404 Y19.957 Z-4.468
N15515 X54.365 Y19.965 Z-4.475
N15520 X54.326 Y19.958 Z-4.481
N15525 X54.293 Y19.936 Z-4.488
N15530 X54.271 Y19.903 Z-4.494
N15535 X54.264 Y19.864 Z-4.5
N15540 X54.272 Y19.825 Z-4.507
N15545 X54.295 Y19.792 Z-4.513
N15550 X54.329 Y19.772 Z-4.519
N15555 X54.368 Y19.765 Z-4.526
N15560 X54.407 Y19.775 Z-4.532
N15565 X54.438 Y19.799 Z-4.538
N15570 X54.458 Y19.833 Z-4.545
N15575 X54.464 Y19.872 Z-4.551
N15580 X54.453 Y19.911 Z-4.558
N15585 X54.428 Y19.942 Z-4.564
N15590 X54.393 Y19.961 Z-4.57
N15595 X54.354 Y19.965 Z-4.577
N15600 X54.316 Y19.953 Z-4.583
N15605 X54.286 Y19.927 Z-4.589
N15610 X54.267 Y19.892 Z-4.596
N15615 X54.265 Y19.853 Z-4.602
N15620 X54.277 Y19.815 Z-4.608
N15625 X54.304 Y19.785 Z-4.615
N15630 X54.34 Y19.768 Z-4.621
N15635 X54.379 Y19.766 Z-4.627
N15640 X54.417 Y19.78 Z-4.634
N15645 X54.445 Y19.808 Z-4.64
N15650 X54.461 Y19.844 Z-4.647
N15655 X54.462 Y19.884 Z-4.653
N15660 X54.447 Y19.92 Z-4.659
N15665 X54.419 Y19.948 Z-4.666
N15670 X54.382 Y19.964 Z-4.672
N15675 X54.343 Y19.963 Z-4.678
N15680 X54.306 Y19.947 Z-4.685
N15685 X54.279 Y19.918 Z-4.691
N15690 X54.265 Y19.881 Z-4.697
N15695 X54.267 Y19.842 Z-4.704
N15700 X54.284 Y19.806 Z-4.71
N15705 X54.313 Y19.779 Z-4.717
N15710 X54.351 Y19.766 Z-4.723
N15715 X54.39 Y19.769 Z-4.729
N15720 X54.426 Y19.787 Z-4.736
N15725 X54.451 Y19.817 Z-4.742
N15730 X54.463 Y19.855 Z-4.748
N15735 X54.459 Y19.894 Z-4.755
N15740 X54.441 Y19.929 Z-4.761
N15745 X54.41 Y19.954 Z-4.767
N15750 X54.371 Y19.965 Z-4.774
N15755 X54.332 Y19.96 Z-4.78
N15760 X54.298 Y19.94 Z-4.787
N15765 X54.274 Y19.909 Z-4.793
N15770 X54.264 Y19.87 Z-4.799
N15775 X54.27 Y19.831 Z-4.806
N15780 X54.291 Y19.797 Z-4.812
N15785 X54.323 Y19.774 Z-4.818
N15790 X54.362 Y19.765 Z-4.825
N15795 X54.401 Y19.772 Z-4.831
N15800 X54.434 Y19.794 Z-4.837
N15805 X54.456 Y19.827 Z-4.844
N15810 X54.464 Y19.866 Z-4.85
N15815 X54.456 Y19.905 Z-4.856
N15820 X54.433 Y19.938 Z-4.863
N15825 X54.399 Y19.959 Z-4.869
N15830 X54.36 Y19.965 Z-4.876
N15835 X54.322 Y19.956 Z-4.882
N15840 X54.29 Y19.932 Z-4.888
N15845 X54.269 Y19.898 Z-4.895
N15850 X54.264 Y19.859 Z-4.901
N15855 X54.274 Y19.821 Z-4.907
N15860 X54.299 Y19.789 Z-4.914
N15865 X54.334 Y19.77 Z-4.92
N15870 X54.373 Y19.766 Z-4.926
N15875 X54.411 Y19.777 Z-4.933
N15880 X54.442 Y19.802 Z-4.939
N15885 X54.46 Y19.838 Z-4.946
N15890 X54.463 Y19.877 Z-4.952
N15895 X54.451 Y19.915 Z-4.958
N15900 X54.424 Y19.945 Z-4.965
N15905 X54.389 Y19.962 Z-4.971
N15910 X54.349 Y19.964 Z-4.977
N15915 X54.312 Y19.951 Z-4.984
N15920 X54.283 Y19.924 Z-4.99
N15925 X54.266 Y19.887 Z-4.996
N15930 X54.265 Y19.848 Z-5.003
N15935 X54.28 Y19.811 Z-5.009
N15940 X54.308 Y19.782 Z-5.016
N15945 X54.344 Y19.767 Z-5.022
N15950 X54.384 Z-5.028
N15955 X54.421 Y19.783 Z-5.035
N15960 X54.448 Y19.812 Z-5.041
N15965 X54.462 Y19.849 Z-5.047
N15970 X54.461 Y19.888 Z-5.054
N15975 X54.445 Y19.924 Z-5.06
N15980 X54.415 Y19.951 Z-5.066
N15985 X54.378 Y19.964 Z-5.073
N15990 X54.338 Y19.962 Z-5.079
N15995 X54.303 Y19.944 Z-5.085
N16000 X54.277 Y19.914 Z-5.092
N16005 X54.264 Y19.876 Z-5.098
N16010 X54.268 Y19.837 Z-5.105
N16015 X54.287 Y19.802 Z-5.111
N16020 X54.317 Y19.777 Z-5.117
N16025 X54.355 Y19.766 Z-5.124
N16030 X54.395 Y19.77 Z-5.13
N16035 X54.429 Y19.79 Z-5.136
N16040 X54.454 Y19.821 Z-5.143
N16045 X54.464 Y19.86 Z-5.149
N16050 X54.458 Y19.899 Z-5.155
N16055 X54.437 Y19.933 Z-5.162
N16060 X54.405 Y19.956 Z-5.168
N16065 X54.367 Y19.965 Z-5.175
N16070 X54.327 Y19.958 Z-5.181
N16075 X54.294 Y19.937 Z-5.187
N16080 X54.272 Y19.904 Z-5.194
N16085 X54.264 Y19.865 Z-5.2
N16090 G3 X54.464 I0.1
N16095 X54.264 I-0.1
N16100 G1 X54.271 Y19.84
N16105 X54.289 Y19.822
N16110 X54.314 Y19.815
N16115 X54.364 Y19.865
N16120 G0 Z2.3
N16125 X64.959 Y27.282
N16130 Z2
N16135 G1 Z0.3 F50
N16140 X64.909 Y27.332
N16145 X64.884 Y27.325
N16150 X64.866 Y27.307
N16155 X64.859 Y27.282
N16160 X64.867 Y27.243 Z0.294 F800
N16165 X64.89 Y27.21 Z0.287
N16170 X64.923 Y27.188 Z0.281
N16175 X64.962 Y27.182 Z0.275
N16180 X65.001 Y27.191 Z0.268
N16185 X65.033 Y27.214 Z0.262
N16190 X65.053 Y27.248 Z0.255
N16195 X65.059 Y27.288 Z0.249
N16200 X65.049 Y27.326 Z0.243
N16205 X65.024 Y27.358 Z0.236
N16210 X64.989 Y27.377 Z0.23
N16215 X64.95 Y27.381 Z0.224
N16220 X64.912 Y27.37 Z0.217
N16225 X64.881 Y27.344 Z0.211
N16230 X64.863 Y27.309 Z0.204
N16235 X64.86 Y27.269 Z0.198
N16240 X64.873 Y27.232 Z0.192
N16245 X64.899 Y27.202 Z0.185
N16250 X64.935 Y27.185 Z0.179
N16255 X64.975 Y27.183 Z0.173
N16260 X65.012 Y27.197 Z0.166
N16265 X65.041 Y27.224 Z0.16
N16270 X65.057 Y27.26 Z0.153
N16275 Y27.3 Z0.147
N16280 X65.042 Y27.337 Z0.141
N16285 X65.014 Y27.365 Z0.134
N16290 X64.977 Y27.38 Z0.128
N16295 X64.938 Y27.379 Z0.122
N16300 X64.901 Y27.363 Z0.115
N16305 X64.874 Y27.334 Z0.109
N16310 X64.86 Y27.297 Z0.102
N16315 X64.862 Y27.257 Z0.096
N16320 X64.879 Y27.221 Z0.09
N16325 X64.909 Y27.195 Z0.083
N16330 X64.947 Y27.182 Z0.077
N16335 X64.987 Y27.186 Z0.071
N16340 X65.022 Y27.204 Z0.064
N16345 X65.047 Y27.234 Z0.058
N16350 X65.059 Y27.273 Z0.051
N16355 X65.054 Y27.312 Z0.045
N16360 X65.035 Y27.347 Z0.039
N16365 X65.004 Y27.371 Z0.032
N16370 X64.965 Y27.381 Z0.026
N16375 X64.926 Y27.376 Z0.02
N16380 X64.892 Y27.355 Z0.013
N16385 X64.868 Y27.323 Z0.007
N16390 X64.859 Y27.285 Z0
N16395 X64.866 Y27.245 Z-0.006
N16400 X64.887 Y27.212 Z-0.012
N16405 X64.92 Y27.19 Z-0.019
N16410 X64.959 Y27.182 Z-0.025
N16415 X64.998 Y27.19 Z-0.031
N16420 X65.031 Y27.212 Z-0.038
N16425 X65.052 Y27.246 Z-0.044
N16430 X65.059 Y27.285 Z-0.051
N16435 X65.05 Y27.324 Z-0.057
N16440 X65.026 Y27.356 Z-0.063
N16445 X64.992 Y27.376 Z-0.07
N16450 X64.953 Y27.381 Z-0.076
N16455 X64.914 Y27.371 Z-0.082
N16460 X64.883 Y27.347 Z-0.089
N16465 X64.864 Y27.312 Z-0.095
N16470 X64.86 Y27.272 Z-0.102
N16475 X64.871 Y27.234 Z-0.108
N16480 X64.897 Y27.204 Z-0.114
N16485 X64.932 Y27.185 Z-0.121
N16490 X64.972 Y27.182 Z-0.127
N16495 X65.009 Y27.195 Z-0.133
N16500 X65.039 Y27.222 Z-0.14
N16505 X65.056 Y27.258 Z-0.146
N16510 X65.058 Y27.297 Z-0.152
N16515 X65.044 Y27.335 Z-0.159
N16520 X65.017 Y27.363 Z-0.165
N16525 X64.98 Y27.379 Z-0.172
N16530 X64.941 Y27.38 Z-0.178
N16535 X64.904 Y27.365 Z-0.184
N16540 X64.876 Y27.337 Z-0.191
N16545 X64.861 Y27.3 Z-0.197
N16550 X64.862 Y27.26 Z-0.203
N16555 X64.878 Y27.224 Z-0.21
N16560 X64.907 Y27.196 Z-0.216
N16565 X64.944 Y27.183 Z-0.223
N16570 X64.984 Y27.185 Z-0.229
N16575 X65.02 Y27.202 Z-0.235
N16580 X65.046 Y27.232 Z-0.242
N16585 X65.058 Y27.27 Z-0.248
N16590 X65.055 Y27.309 Z-0.254
N16595 X65.037 Y27.345 Z-0.261
N16600 X65.006 Y27.37 Z-0.267
N16605 X64.968 Y27.381 Z-0.274
N16610 X64.929 Y27.377 Z-0.28
N16615 X64.894 Y27.357 Z-0.286
N16620 X64.869 Y27.326 Z-0.293
N16625 X64.859 Y27.287 Z-0.299
N16630 X64.865 Y27.248 Z-0.305
N16635 X64.885 Y27.214 Z-0.312
N16640 X64.918 Y27.191 Z-0.318
N16645 X64.956 Y27.182 Z-0.325
N16650 X64.996 Y27.189 Z-0.331
N16655 X65.029 Y27.21 Z-0.337
N16660 X65.051 Y27.243 Z-0.344
N16665 X65.059 Y27.282 Z-0.35
N16670 X65.051 Y27.321 Z-0.356
N16675 X65.029 Y27.354 Z-0.363
N16680 X64.995 Y27.375 Z-0.369
N16685 X64.956 Y27.382 Z-0.376
N16690 X64.917 Y27.372 Z-0.382
N16695 X64.885 Y27.349 Z-0.388
N16700 X64.865 Y27.315 Z-0.395
N16705 X64.859 Y27.275 Z-0.401
N16710 X64.87 Y27.237 Z-0.407
N16715 X64.894 Y27.205 Z-0.414
N16720 X64.929 Y27.186 Z-0.42
N16725 X64.969 Y27.182 Z-0.427
N16730 X65.007 Y27.194 Z-0.433
N16735 X65.037 Y27.219 Z-0.439
N16740 X65.055 Y27.255 Z-0.446
N16745 X65.058 Y27.294 Z-0.452
N16750 X65.046 Y27.332 Z-0.458
N16755 X65.019 Y27.362 Z-0.465
N16760 X64.983 Y27.379 Z-0.471
N16765 X64.943 Y27.38 Z-0.478
N16770 X64.906 Y27.366 Z-0.484
N16775 X64.877 Y27.339 Z-0.49
N16780 X64.861 Y27.303 Z-0.497
N16785 Y27.263 Z-0.503
N16790 X64.876 Y27.226 Z-0.509
N16795 X64.904 Y27.198 Z-0.516
N16800 X64.941 Y27.183 Z-0.522
N16805 X64.981 Y27.184 Z-0.529
N16810 X65.017 Y27.2 Z-0.535
N16815 X65.044 Y27.229 Z-0.541
N16820 X65.058 Y27.267 Z-0.548
N16825 X65.056 Y27.307 Z-0.554
N16830 X65.039 Y27.342 Z-0.56
N16835 X65.009 Y27.369 Z-0.567
N16840 X64.971 Y27.381 Z-0.573
N16845 X64.931 Y27.378 Z-0.579
N16850 X64.896 Y27.359 Z-0.586
N16855 X64.871 Y27.329 Z-0.592
N16860 X64.86 Y27.29 Z-0.599
N16865 X64.864 Y27.251 Z-0.605
N16870 X64.884 Y27.216 Z-0.611
N16875 X64.915 Y27.192 Z-0.618
N16880 X64.954 Y27.182 Z-0.624
N16885 X64.993 Y27.188 Z-0.63
N16890 X65.027 Y27.208 Z-0.637
N16895 X65.05 Y27.24 Z-0.643
N16900 X65.059 Y27.279 Z-0.65
N16905 X65.052 Y27.318 Z-0.656
N16910 X65.031 Y27.352 Z-0.662
N16915 X64.998 Y27.374 Z-0.669
N16920 X64.959 Y27.382 Z-0.675
N16925 X64.92 Y27.374 Z-0.681
N16930 X64.887 Y27.351 Z-0.688
N16935 X64.866 Y27.317 Z-0.694
N16940 X64.859 Y27.278 Z-0.701
N16945 X64.869 Y27.239 Z-0.707
N16950 X64.892 Y27.207 Z-0.713
N16955 X64.926 Y27.187 Z-0.72
N16960 X64.966 Y27.182 Z-0.726
N16965 X65.004 Y27.192 Z-0.732
N16970 X65.035 Y27.217 Z-0.739
N16975 X65.055 Y27.252 Z-0.745
N16980 X65.059 Y27.291 Z-0.752
N16985 X65.047 Y27.329 Z-0.758
N16990 X65.021 Y27.36 Z-0.764
N16995 X64.986 Y27.378 Z-0.771
N17000 X64.946 Y27.381 Z-0.777
N17005 X64.909 Y27.368 Z-0.783
N17010 X64.879 Y27.341 Z-0.79
N17015 X64.862 Y27.305 Z-0.796
N17020 X64.86 Y27.266 Z-0.803
N17025 X64.874 Y27.228 Z-0.809
N17030 X64.902 Y27.2 Z-0.815
N17035 X64.938 Y27.184 Z-0.822
N17040 X64.978 Y27.183 Z-0.828
N17045 X65.015 Y27.199 Z-0.834
N17050 X65.043 Y27.227 Z-0.841
N17055 X65.058 Y27.264 Z-0.847
N17060 X65.057 Y27.304 Z-0.854
N17065 X65.04 Y27.34 Z-0.86
N17070 X65.011 Y27.367 Z-0.866
N17075 X64.974 Y27.381 Z-0.873
N17080 X64.934 Y27.378 Z-0.879
N17085 X64.898 Y27.361 Z-0.885
N17090 X64.872 Y27.331 Z-0.892
N17095 X64.86 Y27.293 Z-0.898
N17100 X64.863 Y27.254 Z-0.905
N17105 X64.882 Y27.218 Z-0.911
N17110 X64.912 Y27.193 Z-0.917
N17115 X64.951 Y27.182 Z-0.924
N17120 X64.99 Y27.187 Z-0.93
N17125 X65.025 Y27.206 Z-0.936
N17130 X65.049 Y27.238 Z-0.943
N17135 X65.059 Y27.276 Z-0.949
N17140 X65.053 Y27.316 Z-0.956
N17145 X65.033 Y27.35 Z-0.962
N17150 X65 Y27.373 Z-0.968
N17155 X64.962 Y27.382 Z-0.975
N17160 X64.922 Y27.375 Z-0.981
N17165 X64.889 Y27.353 Z-0.987
N17170 X64.867 Y27.32 Z-0.994
N17175 X64.859 Y27.281 Z-1
N17180 X64.867 Y27.242 Z-1.006
N17185 X64.89 Y27.209 Z-1.013
N17190 X64.924 Y27.188 Z-1.019
N17195 X64.963 Y27.182 Z-1.026
N17200 X65.002 Y27.191 Z-1.032
N17205 X65.034 Y27.215 Z-1.038
N17210 X65.054 Y27.249 Z-1.045
N17215 X65.059 Y27.289 Z-1.051
N17220 X65.048 Y27.327 Z-1.057
N17225 X65.024 Y27.358 Z-1.064
N17230 X64.989 Y27.377 Z-1.07
N17235 X64.949 Y27.381 Z-1.077
N17240 X64.911 Y27.369 Z-1.083
N17245 X64.881 Y27.344 Z-1.089
N17250 X64.863 Y27.308 Z-1.096
N17255 X64.86 Y27.269 Z-1.102
N17260 X64.873 Y27.231 Z-1.108
N17265 X64.9 Y27.201 Z-1.115
N17270 X64.936 Y27.184 Z-1.121
N17275 X64.975 Y27.183 Z-1.128
N17280 X65.012 Y27.197 Z-1.134
N17285 X65.041 Y27.225 Z-1.14
N17290 X65.057 Y27.261 Z-1.147
N17295 Y27.301 Z-1.153
N17300 X65.042 Y27.338 Z-1.159
N17305 X65.014 Y27.365 Z-1.166
N17310 X64.977 Y27.38 Z-1.172
N17315 X64.937 Y27.379 Z-1.179
N17320 X64.901 Y27.363 Z-1.185
N17325 X64.874 Y27.334 Z-1.191
N17330 X64.86 Y27.296 Z-1.198
N17335 X64.862 Y27.256 Z-1.204
N17340 X64.88 Y27.221 Z-1.21
N17345 X64.91 Y27.195 Z-1.217
N17350 X64.948 Y27.182 Z-1.223
N17355 X64.987 Y27.186 Z-1.23
N17360 X65.023 Y27.204 Z-1.236
N17365 X65.048 Y27.235 Z-1.242
N17370 X65.059 Y27.273 Z-1.249
N17375 X65.054 Y27.313 Z-1.255
N17380 X65.035 Y27.347 Z-1.261
N17385 X65.003 Y27.372 Z-1.268
N17390 X64.964 Y27.382 Z-1.274
N17395 X64.925 Y27.376 Z-1.281
N17400 X64.891 Y27.355 Z-1.287
N17405 X64.868 Y27.323 Z-1.293
N17410 X64.859 Y27.284 Z-1.3
N17415 X64.866 Y27.245 Z-1.306
N17420 X64.888 Y27.211 Z-1.312
N17425 X64.921 Y27.189 Z-1.319
N17430 X64.96 Y27.182 Z-1.325
N17435 X64.999 Y27.19 Z-1.332
N17440 X65.032 Y27.213 Z-1.338
N17445 X65.053 Y27.246 Z-1.344
N17450 X65.059 Y27.286 Z-1.351
N17455 X65.05 Y27.324 Z-1.357
N17460 X65.026 Y27.356 Z-1.363
N17465 X64.992 Y27.376 Z-1.37
N17470 X64.952 Y27.381 Z-1.376
N17475 X64.914 Y27.371 Z-1.383
N17480 X64.883 Y27.346 Z-1.389
N17485 X64.864 Y27.311 Z-1.395
N17490 X64.86 Y27.271 Z-1.402
N17495 X64.872 Y27.234 Z-1.408
N17500 X64.897 Y27.203 Z-1.414
N17505 X64.933 Y27.185 Z-1.421
N17510 X64.972 Y27.183 Z-1.427
N17515 X65.01 Y27.196 Z-1.433
N17520 X65.04 Y27.222 Z-1.44
N17525 X65.056 Y27.258 Z-1.446
N17530 X65.058 Y27.298 Z-1.453
N17535 X65.044 Y27.335 Z-1.459
N17540 X65.016 Y27.364 Z-1.465
N17545 X64.98 Y27.38 Z-1.472
N17550 X64.94 Z-1.478
N17555 X64.903 Y27.364 Z-1.484
N17560 X64.875 Y27.336 Z-1.491
N17565 X64.861 Y27.299 Z-1.497
N17570 X64.862 Y27.259 Z-1.504
N17575 X64.878 Y27.223 Z-1.51
N17580 X64.907 Y27.196 Z-1.516
N17585 X64.945 Y27.183 Z-1.523
N17590 X64.985 Y27.185 Z-1.529
