%
(1001)
(T3 D=3 CR=0 - ZMIN=-5.2 - flat end mill)
N10 G90 G94
N15 G17
N20 G21
N25 G28

(??1)
N30 T3 M6
N35 S20000 M3
N40 G54
N45 M8
N50 G0 X11.976 Y75.391
N55 G43 Z2.3
N60 Z2
N65 G1 Z0.3 F50
N70 X11.951 Y75.416
N75 X11.933 Y75.409
N80 X11.926 Y75.391
N85 X11.934 Y75.364 Z0.291 F800
N90 X11.955 Y75.346 Z0.282
N95 X11.983 Y75.341 Z0.273
N100 X12.008 Y75.353 Z0.264
N105 X12.024 Y75.376 Z0.255
N110 Y75.404 Z0.246
N115 X12.01 Y75.428 Z0.237
N120 X11.985 Y75.44 Z0.228
N125 X11.957 Y75.437 Z0.219
N130 X11.935 Y75.42 Z0.21
N135 X11.926 Y75.393 Z0.201
N140 X11.933 Y75.366 Z0.192
N145 X11.953 Y75.347 Z0.183
N150 X11.98 Y75.341 Z0.174
N155 X12.007 Y75.351 Z0.165
N160 X12.023 Y75.374 Z0.156
N165 X12.025 Y75.402 Z0.146
N170 X12.011 Y75.427 Z0.137
N175 X11.987 Y75.44 Z0.128
N180 X11.959 Y75.438 Z0.119
N185 X11.936 Y75.421 Z0.11
N190 X11.926 Y75.395 Z0.101
N195 X11.932 Y75.368 Z0.092
N200 X11.951 Y75.348 Z0.083
N205 X11.978 Y75.341 Z0.074
N210 X12.005 Y75.35 Z0.065
N215 X12.022 Y75.372 Z0.056
N220 X12.025 Y75.4 Z0.047
N225 X12.013 Y75.425 Z0.038
N230 X11.989 Y75.439 Z0.029
N235 X11.961 Z0.02
N240 X11.937 Y75.423 Z0.011
N245 X11.926 Y75.397 Z0.002
N250 X11.931 Y75.37 Z-0.007
N255 X11.949 Y75.349 Z-0.016
N260 X11.976 Y75.341 Z-0.025
N265 X12.003 Y75.349 Z-0.034
N270 X12.021 Y75.37 Z-0.043
N275 X12.025 Y75.398 Z-0.052
N280 X12.014 Y75.423 Z-0.061
N285 X11.991 Y75.439 Z-0.07
N290 X11.963 Z-0.079
N295 X11.939 Y75.424 Z-0.088
N300 X11.927 Y75.399 Z-0.097
N305 X11.93 Y75.371 Z-0.106
N310 X11.948 Y75.35 Z-0.115
N315 X11.974 Y75.341 Z-0.124
N320 X12.001 Y75.348 Z-0.133
N325 X12.021 Y75.368 Z-0.143
N330 X12.026 Y75.396 Z-0.152
N335 X12.015 Y75.422 Z-0.161
N340 X11.993 Y75.438 Z-0.17
N345 X11.965 Y75.44 Z-0.179
N350 X11.94 Y75.426 Z-0.188
N355 X11.927 Y75.401 Z-0.197
N360 X11.929 Y75.373 Z-0.206
N365 X11.946 Y75.351 Z-0.215
N370 X11.972 Y75.341 Z-0.224
N375 X12 Y75.347 Z-0.233
N380 X12.02 Y75.367 Z-0.242
N385 X12.026 Y75.394 Z-0.251
N390 X12.017 Y75.42 Z-0.26
N395 X11.994 Y75.437 Z-0.269
N400 X11.967 Y75.44 Z-0.278
N405 X11.942 Y75.427 Z-0.287
N410 X11.927 Y75.403 Z-0.296
N415 X11.928 Y75.375 Z-0.305
N420 X11.944 Y75.352 Z-0.314
N425 X11.97 Y75.341 Z-0.323
N430 X11.998 Y75.346 Z-0.332
N435 X12.019 Y75.365 Z-0.341
N440 X12.026 Y75.392 Z-0.35
N445 X12.018 Y75.419 Z-0.359
N450 X11.996 Y75.437 Z-0.368
N455 X11.969 Y75.44 Z-0.377
N460 X11.943 Y75.429 Z-0.386
N465 X11.928 Y75.405 Z-0.395
N470 Y75.377 Z-0.404
N475 X11.943 Y75.354 Z-0.413
N480 X11.968 Y75.342 Z-0.422
N485 X11.996 Y75.345 Z-0.432
N490 X12.017 Y75.363 Z-0.441
N495 X12.026 Y75.39 Z-0.45
N500 X12.019 Y75.417 Z-0.459
N505 X11.998 Y75.436 Z-0.468
N510 X11.971 Y75.441 Z-0.477
N515 X11.945 Y75.43 Z-0.486
N520 X11.929 Y75.407 Z-0.495
N525 X11.927 Y75.379 Z-0.504
N530 X11.941 Y75.355 Z-0.513
N535 X11.966 Y75.342 Z-0.522
N540 X11.994 Y75.344 Z-0.531
N545 X12.016 Y75.361 Z-0.54
N550 X12.026 Y75.388 Z-0.549
N555 X12.02 Y75.415 Z-0.558
N560 X12 Y75.435 Z-0.567
N565 X11.973 Y75.441 Z-0.576
N570 X11.946 Y75.431 Z-0.585
N575 X11.929 Y75.409 Z-0.594
N580 X11.927 Y75.381 Z-0.603
N585 X11.94 Y75.356 Z-0.612
N590 X11.964 Y75.342 Z-0.621
N595 X11.992 Y75.344 Z-0.63
N600 X12.015 Y75.36 Z-0.639
N605 X12.026 Y75.386 Z-0.648
N610 X12.021 Y75.413 Z-0.657
N615 X12.002 Y75.434 Z-0.666
N620 X11.975 Y75.441 Z-0.675
N625 X11.948 Y75.433 Z-0.684
N630 X11.93 Y75.411 Z-0.693
N635 X11.927 Y75.383 Z-0.702
N640 X11.938 Y75.358 Z-0.711
N645 X11.962 Y75.343 Z-0.721
N650 X11.99 Z-0.73
N655 X12.014 Y75.358 Z-0.739
N660 X12.025 Y75.384 Z-0.748
N665 X12.022 Y75.411 Z-0.757
N670 X12.004 Y75.433 Z-0.766
N675 X11.977 Y75.441 Z-0.775
N680 X11.95 Y75.434 Z-0.784
N685 X11.931 Y75.413 Z-0.793
N690 X11.926 Y75.385 Z-0.802
N695 X11.937 Y75.36 Z-0.811
N700 X11.96 Y75.344 Z-0.82
N705 X11.988 Y75.343 Z-0.829
N710 X12.012 Y75.357 Z-0.838
N715 X12.025 Y75.382 Z-0.847
N720 X12.022 Y75.409 Z-0.856
N725 X12.005 Y75.432 Z-0.865
N730 X11.979 Y75.441 Z-0.874
N735 X11.952 Y75.435 Z-0.883
N740 X11.932 Y75.415 Z-0.892
N745 X11.926 Y75.387 Z-0.901
N750 X11.936 Y75.361 Z-0.91
N755 X11.958 Y75.344 Z-0.919
N760 X11.986 Y75.342 Z-0.928
N765 X12.011 Y75.355 Z-0.937
N770 X12.025 Y75.38 Z-0.946
N775 X12.023 Y75.407 Z-0.955
N780 X12.007 Y75.43 Z-0.964
N785 X11.981 Y75.441 Z-0.973
N790 X11.953 Y75.436 Z-0.982
N795 X11.933 Y75.417 Z-0.991
N800 X11.926 Y75.389 Z-1
N805 X11.935 Y75.363 Z-1.01
N810 X11.956 Y75.345 Z-1.019
N815 X11.984 Y75.342 Z-1.028
N820 X12.009 Y75.354 Z-1.037
N825 X12.024 Y75.378 Z-1.046
N830 Y75.406 Z-1.055
N835 X12.009 Y75.429 Z-1.064
N840 X11.983 Y75.441 Z-1.073
N845 X11.955 Y75.437 Z-1.082
N850 X11.934 Y75.418 Z-1.091
N855 X11.926 Y75.392 Z-1.1
N860 X11.934 Y75.365 Z-1.109
N865 X11.954 Y75.346 Z-1.118
N870 X11.982 Y75.341 Z-1.127
N875 X12.008 Y75.352 Z-1.136
N880 X12.023 Y75.376 Z-1.145
N885 X12.024 Y75.404 Z-1.154
N890 X12.01 Y75.428 Z-1.163
N895 X11.985 Y75.44 Z-1.172
N900 X11.957 Y75.437 Z-1.181
N905 X11.935 Y75.42 Z-1.19
N910 X11.926 Y75.394 Z-1.199
N915 X11.932 Y75.366 Z-1.208
N920 X11.953 Y75.347 Z-1.217
N925 X11.98 Y75.341 Z-1.226
N930 X12.006 Y75.351 Z-1.235
N935 X12.023 Y75.374 Z-1.244
N940 X12.025 Y75.402 Z-1.253
N945 X12.012 Y75.426 Z-1.262
N950 X11.987 Y75.44 Z-1.271
N955 X11.959 Y75.438 Z-1.28
N960 X11.936 Y75.422 Z-1.289
N965 X11.926 Y75.396 Z-1.299
N970 X11.931 Y75.368 Z-1.308
N975 X11.951 Y75.348 Z-1.317
N980 X11.978 Y75.341 Z-1.326
N985 X12.004 Y75.35 Z-1.335
N990 X12.022 Y75.372 Z-1.344
N995 X12.025 Y75.399 Z-1.353
N1000 X12.013 Y75.425 Z-1.362
N1005 X11.989 Y75.439 Z-1.371
N1010 X11.961 Z-1.38
N1015 X11.938 Y75.423 Z-1.389
N1020 X11.926 Y75.398 Z-1.398
N1025 X11.931 Y75.37 Z-1.407
N1030 X11.949 Y75.349 Z-1.416
N1035 X11.976 Y75.341 Z-1.425
N1040 X12.003 Y75.349 Z-1.434
N1045 X12.021 Y75.37 Z-1.443
N1050 X12.026 Y75.397 Z-1.452
N1055 X12.014 Y75.423 Z-1.461
N1060 X11.991 Y75.439 Z-1.47
N1065 X11.963 Z-1.479
N1070 X11.939 Y75.425 Z-1.488
N1075 X11.927 Y75.4 Z-1.497
N1080 X11.93 Y75.372 Z-1.506
N1085 X11.947 Y75.35 Z-1.515
N1090 X11.974 Y75.341 Z-1.524
N1095 X12.001 Y75.348 Z-1.533
N1100 X12.02 Y75.368 Z-1.542
N1105 X12.026 Y75.395 Z-1.551
N1110 X12.016 Y75.421 Z-1.56
N1115 X11.993 Y75.438 Z-1.569
N1120 X11.965 Y75.44 Z-1.578
N1125 X11.941 Y75.426 Z-1.588
N1130 X11.927 Y75.402 Z-1.597
N1135 X11.929 Y75.374 Z-1.606
N1140 X11.946 Y75.351 Z-1.615
N1145 X11.972 Y75.341 Z-1.624
N1150 X11.999 Y75.347 Z-1.633
N1155 X12.019 Y75.366 Z-1.642
N1160 X12.026 Y75.393 Z-1.651
N1165 X12.017 Y75.42 Z-1.66
N1170 X11.995 Y75.437 Z-1.669
N1175 X11.967 Y75.44 Z-1.678
N1180 X11.942 Y75.428 Z-1.687
N1185 X11.928 Y75.404 Z-1.696
N1190 Y75.376 Z-1.705
N1195 X11.944 Y75.353 Z-1.714
N1200 X11.97 Y75.341 Z-1.723
N1205 X11.997 Y75.346 Z-1.732
N1210 X12.018 Y75.364 Z-1.741
N1215 X12.026 Y75.391 Z-1.75
N1220 X12.018 Y75.418 Z-1.759
N1225 X11.997 Y75.436 Z-1.768
N1230 X11.969 Y75.441 Z-1.777
N1235 X11.944 Y75.429 Z-1.786
N1240 X11.928 Y75.406 Z-1.795
N1245 Y75.378 Z-1.804
N1250 X11.942 Y75.354 Z-1.813
N1255 X11.968 Y75.342 Z-1.822
N1260 X11.995 Y75.345 Z-1.831
N1265 X12.017 Y75.363 Z-1.84
N1270 X12.026 Y75.389 Z-1.849
N1275 X12.019 Y75.416 Z-1.858
N1280 X11.999 Y75.436 Z-1.867
N1285 X11.971 Y75.441 Z-1.877
N1290 X11.945 Y75.43 Z-1.886
N1295 X11.929 Y75.408 Z-1.895
N1300 X11.927 Y75.38 Z-1.904
N1305 X11.941 Y75.355 Z-1.913
N1310 X11.966 Y75.342 Z-1.922
N1315 X11.993 Y75.344 Z-1.931
N1320 X12.016 Y75.361 Z-1.94
N1325 X12.026 Y75.387 Z-1.949
N1330 X12.02 Y75.415 Z-1.958
N1335 X12.001 Y75.435 Z-1.967
N1340 X11.973 Y75.441 Z-1.976
N1345 X11.947 Y75.432 Z-1.985
N1350 X11.93 Y75.41 Z-1.994
N1355 X11.927 Y75.382 Z-2.003
N1360 X11.939 Y75.357 Z-2.012
N1365 X11.964 Y75.343 Z-2.021
N1370 X11.992 Y75.344 Z-2.03
N1375 X12.015 Y75.359 Z-2.039
N1380 X12.026 Y75.385 Z-2.048
N1385 X12.021 Y75.413 Z-2.057
N1390 X12.002 Y75.434 Z-2.066
N1395 X11.975 Y75.441 Z-2.075
N1400 X11.949 Y75.433 Z-2.084
N1405 X11.93 Y75.412 Z-2.093
N1410 X11.926 Y75.384 Z-2.102
N1415 X11.938 Y75.358 Z-2.111
N1420 X11.962 Y75.343 Z-2.12
N1425 X11.99 Z-2.129
N1430 X12.013 Y75.358 Z-2.138
N1435 X12.025 Y75.383 Z-2.147
N1440 X12.022 Y75.411 Z-2.156
N1445 X12.004 Y75.432 Z-2.166
N1450 X11.977 Y75.441 Z-2.175
N1455 X11.95 Y75.434 Z-2.184
N1460 X11.931 Y75.413 Z-2.193
N1465 X11.926 Y75.386 Z-2.202
N1470 X11.937 Y75.36 Z-2.211
N1475 X11.96 Y75.344 Z-2.22
N1480 X11.988 Y75.342 Z-2.229
N1485 X12.012 Y75.356 Z-2.238
N1490 X12.025 Y75.381 Z-2.247
N1495 X12.023 Y75.409 Z-2.256
N1500 X12.006 Y75.431 Z-2.265
N1505 X11.979 Y75.441 Z-2.274
N1510 X11.952 Y75.435 Z-2.283
N1515 X11.932 Y75.415 Z-2.292
N1520 X11.926 Y75.388 Z-2.301
N1525 X11.936 Y75.362 Z-2.31
N1530 X11.958 Y75.344 Z-2.319
N1535 X11.986 Y75.342 Z-2.328
N1540 X12.01 Y75.355 Z-2.337
N1545 X12.024 Y75.379 Z-2.346
N1550 X12.023 Y75.407 Z-2.355
N1555 X12.007 Y75.43 Z-2.364
N1560 X11.981 Y75.441 Z-2.373
N1565 X11.954 Y75.436 Z-2.382
N1570 X11.933 Y75.417 Z-2.391
N1575 X11.926 Y75.39 Z-2.4
N1580 X11.934 Y75.363 Z-2.409
N1585 X11.956 Y75.345 Z-2.418
N1590 X11.984 Y75.342 Z-2.427
N1595 X12.009 Y75.353 Z-2.436
N1600 X12.024 Y75.377 Z-2.445
N1605 Y75.405 Z-2.455
N1610 X12.009 Y75.429 Z-2.464
N1615 X11.984 Y75.44 Z-2.473
N1620 X11.956 Y75.437 Z-2.482
N1625 X11.934 Y75.419 Z-2.491
N1630 X11.926 Y75.392 Z-2.5
N1635 X11.933 Y75.365 Z-2.509
N1640 X11.954 Y75.346 Z-2.518
N1645 X11.981 Y75.341 Z-2.527
N1650 X12.007 Y75.352 Z-2.536
N1655 X12.023 Y75.375 Z-2.545
N1660 X12.024 Y75.403 Z-2.554
N1665 X12.01 Y75.427 Z-2.563
N1670 X11.986 Y75.44 Z-2.572
N1675 X11.958 Y75.438 Z-2.581
N1680 X11.936 Y75.42 Z-2.59
N1685 X11.926 Y75.394 Z-2.599
N1690 X11.932 Y75.367 Z-2.608
N1695 X11.952 Y75.347 Z-2.617
N1700 X11.979 Y75.341 Z-2.626
N1705 X12.006 Y75.351 Z-2.635
N1710 X12.023 Y75.373 Z-2.644
N1715 X12.025 Y75.401 Z-2.653
N1720 X12.012 Y75.426 Z-2.662
N1725 X11.988 Y75.44 Z-2.671
N1730 X11.96 Y75.438 Z-2.68
N1735 X11.937 Y75.422 Z-2.689
N1740 X11.926 Y75.396 Z-2.698
N1745 X11.931 Y75.369 Z-2.707
N1750 X11.95 Y75.348 Z-2.716
N1755 X11.977 Y75.341 Z-2.725
N1760 X12.004 Y75.35 Z-2.734
N1765 X12.022 Y75.371 Z-2.744
N1770 X12.025 Y75.399 Z-2.753
N1775 X12.013 Y75.424 Z-2.762
N1780 X11.99 Y75.439 Z-2.771
N1785 X11.962 Z-2.78
N1790 X11.938 Y75.424 Z-2.789
N1795 X11.926 Y75.398 Z-2.798
N1800 X11.93 Y75.37 Z-2.807
N1805 X11.949 Y75.349 Z-2.816
N1810 X11.975 Y75.341 Z-2.825
N1815 X12.002 Y75.349 Z-2.834
N1820 X12.021 Y75.369 Z-2.843
N1825 X12.026 Y75.397 Z-2.852
N1830 X12.015 Y75.423 Z-2.861
N1835 X11.992 Y75.439 Z-2.87
N1840 X11.964 Z-2.879
N1845 X11.939 Y75.425 Z-2.888
N1850 X11.927 Y75.4 Z-2.897
N1855 X11.93 Y75.372 Z-2.906
N1860 X11.947 Y75.35 Z-2.915
N1865 X11.973 Y75.341 Z-2.924
N1870 X12.001 Y75.347 Z-2.933
N1875 X12.02 Y75.367 Z-2.942
N1880 X12.026 Y75.395 Z-2.951
N1885 X12.016 Y75.421 Z-2.96
N1890 X11.993 Y75.438 Z-2.969
N1895 X11.966 Y75.44 Z-2.978
N1900 X11.941 Y75.427 Z-2.987
N1905 X11.927 Y75.402 Z-2.996
N1910 X11.929 Y75.374 Z-3.005
N1915 X11.945 Y75.352 Z-3.014
N1920 X11.971 Y75.341 Z-3.023
N1925 X11.999 Y75.346 Z-3.033
N1930 X12.019 Y75.366 Z-3.042
N1935 X12.026 Y75.393 Z-3.051
N1940 X12.017 Y75.419 Z-3.06
N1945 X11.995 Y75.437 Z-3.069
N1950 X11.968 Y75.44 Z-3.078
N1955 X11.942 Y75.428 Z-3.087
N1960 X11.928 Y75.404 Z-3.096
N1965 Y75.376 Z-3.105
N1970 X11.944 Y75.353 Z-3.114
N1975 X11.969 Y75.341 Z-3.123
N1980 X11.997 Y75.346 Z-3.132
N1985 X12.018 Y75.364 Z-3.141
N1990 X12.026 Y75.391 Z-3.15
N1995 X12.018 Y75.418 Z-3.159
N2000 X11.997 Y75.436 Z-3.168
N2005 X11.97 Y75.441 Z-3.177
N2010 X11.944 Y75.429 Z-3.186
N2015 X11.928 Y75.406 Z-3.195
N2020 Y75.378 Z-3.204
N2025 X11.942 Y75.354 Z-3.213
N2030 X11.967 Y75.342 Z-3.222
N2035 X11.995 Y75.345 Z-3.231
N2040 X12.017 Y75.362 Z-3.24
N2045 X12.026 Y75.389 Z-3.249
N2050 X12.019 Y75.416 Z-3.258
N2055 X11.999 Y75.435 Z-3.267
N2060 X11.972 Y75.441 Z-3.276
N2065 X11.946 Y75.431 Z-3.285
N2070 X11.929 Y75.408 Z-3.294
N2075 X11.927 Y75.38 Z-3.303
N2080 X11.941 Y75.356 Z-3.312
N2085 X11.965 Y75.342 Z-3.322
N2090 X11.993 Y75.344 Z-3.331
N2095 X12.016 Y75.361 Z-3.34
N2100 X12.026 Y75.387 Z-3.349
N2105 X12.02 Y75.414 Z-3.358
N2110 X12.001 Y75.434 Z-3.367
N2115 X11.974 Y75.441 Z-3.376
N2120 X11.947 Y75.432 Z-3.385
N2125 X11.93 Y75.41 Z-3.394
N2130 X11.927 Y75.382 Z-3.403
N2135 X11.939 Y75.357 Z-3.412
N2140 X11.963 Y75.343 Z-3.421
N2145 X11.991 Z-3.43
N2150 X12.014 Y75.359 Z-3.439
N2155 X12.026 Y75.385 Z-3.448
N2160 X12.021 Y75.412 Z-3.457
N2165 X12.003 Y75.433 Z-3.466
N2170 X11.976 Y75.441 Z-3.475
N2175 X11.949 Y75.433 Z-3.484
N2180 X11.931 Y75.412 Z-3.493
N2185 X11.926 Y75.384 Z-3.502
N2190 X11.938 Y75.359 Z-3.511
N2195 X11.961 Y75.343 Z-3.52
N2200 X11.989 Z-3.529
N2205 X12.013 Y75.357 Z-3.538
N2210 X12.025 Y75.383 Z-3.547
N2215 X12.022 Y75.41 Z-3.556
N2220 X12.004 Y75.432 Z-3.565
N2225 X11.978 Y75.441 Z-3.574
N2230 X11.951 Y75.434 Z-3.583
N2235 X11.931 Y75.414 Z-3.592
N2240 X11.926 Y75.386 Z-3.601
N2245 X11.936 Y75.36 Z-3.611
N2250 X11.959 Y75.344 Z-3.62
N2255 X11.987 Y75.342 Z-3.629
N2260 X12.012 Y75.356 Z-3.638
N2265 X12.025 Y75.381 Z-3.647
N2270 X12.023 Y75.408 Z-3.656
N2275 X12.006 Y75.431 Z-3.665
N2280 X11.98 Y75.441 Z-3.674
N2285 X11.953 Y75.435 Z-3.683
N2290 X11.932 Y75.416 Z-3.692
N2295 X11.926 Y75.388 Z-3.701
N2300 X11.935 Y75.362 Z-3.71
N2305 X11.957 Y75.345 Z-3.719
N2310 X11.985 Y75.342 Z-3.728
N2315 X12.01 Y75.354 Z-3.737
N2320 X12.024 Y75.379 Z-3.746
N2325 X12.023 Y75.406 Z-3.755
N2330 X12.008 Y75.43 Z-3.764
N2335 X11.982 Y75.441 Z-3.773
N2340 X11.954 Y75.436 Z-3.782
N2345 X11.934 Y75.417 Z-3.791
N2350 X11.926 Y75.39 Z-3.8
N2355 X11.934 Y75.364 Z-3.809
N2360 X11.955 Y75.345 Z-3.818
N2365 X11.983 Y75.342 Z-3.827
N2370 X12.009 Y75.353 Z-3.836
N2375 X12.024 Y75.377 Z-3.845
N2380 Y75.405 Z-3.854
N2385 X12.009 Y75.428 Z-3.863
N2390 X11.984 Y75.44 Z-3.872
N2395 X11.956 Y75.437 Z-3.881
N2400 X11.935 Y75.419 Z-3.89
N2405 X11.926 Y75.393 Z-3.9
N2410 X11.933 Y75.365 Z-3.909
N2415 X11.953 Y75.346 Z-3.918
N2420 X11.981 Y75.341 Z-3.927
N2425 X12.007 Y75.352 Z-3.936
N2430 X12.023 Y75.375 Z-3.945
N2435 X12.025 Y75.403 Z-3.954
N2440 X12.011 Y75.427 Z-3.963
N2445 X11.986 Y75.44 Z-3.972
N2450 X11.958 Y75.438 Z-3.981
N2455 X11.936 Y75.421 Z-3.99
N2460 X11.926 Y75.395 Z-3.999
N2465 X11.932 Y75.367 Z-4.008
N2470 X11.952 Y75.347 Z-4.017
N2475 X11.979 Y75.341 Z-4.026
N2480 X12.005 Y75.351 Z-4.035
N2485 X12.022 Y75.373 Z-4.044
N2490 X12.025 Y75.4 Z-4.053
N2495 X12.012 Y75.425 Z-4.062
N2500 X11.988 Y75.44 Z-4.071
N2505 X11.96 Y75.438 Z-4.08
N2510 X11.937 Y75.422 Z-4.089
N2515 X11.926 Y75.397 Z-4.098
N2520 X11.931 Y75.369 Z-4.107
N2525 X11.95 Y75.348 Z-4.116
N2530 X11.977 Y75.341 Z-4.125
N2535 X12.004 Y75.349 Z-4.134
N2540 X12.022 Y75.371 Z-4.143
N2545 X12.025 Y75.398 Z-4.152
N2550 X12.014 Y75.424 Z-4.161
N2555 X11.99 Y75.439 Z-4.17
N2560 X11.962 Z-4.179
N2565 X11.938 Y75.424 Z-4.189
N2570 X11.927 Y75.399 Z-4.198
N2575 X11.93 Y75.371 Z-4.207
N2580 X11.948 Y75.349 Z-4.216
N2585 X11.975 Y75.341 Z-4.225
N2590 X12.002 Y75.348 Z-4.234
N2595 X12.021 Y75.369 Z-4.243
N2600 X12.026 Y75.396 Z-4.252
N2605 X12.015 Y75.422 Z-4.261
N2610 X11.992 Y75.438 Z-4.27
N2615 X11.964 Y75.44 Z-4.279
N2620 X11.94 Y75.426 Z-4.288
N2625 X11.927 Y75.401 Z-4.297
N2630 X11.929 Y75.373 Z-4.306
N2635 X11.946 Y75.351 Z-4.315
N2640 X11.973 Y75.341 Z-4.324
N2645 X12 Y75.347 Z-4.333
N2650 X12.02 Y75.367 Z-4.342
N2655 X12.026 Y75.394 Z-4.351
N2660 X12.016 Y75.421 Z-4.36
N2665 X11.994 Y75.438 Z-4.369
N2670 X11.966 Y75.44 Z-4.378
N2675 X11.941 Y75.427 Z-4.387
N2680 X11.927 Y75.403 Z-4.396
N2685 X11.929 Y75.375 Z-4.405
N2690 X11.945 Y75.352 Z-4.414
N2695 X11.971 Y75.341 Z-4.423
N2700 X11.998 Y75.346 Z-4.432
N2705 X12.019 Y75.365 Z-4.441
N2710 X12.026 Y75.392 Z-4.45
N2715 X12.017 Y75.419 Z-4.459
N2720 X11.996 Y75.437 Z-4.468
N2725 X11.968 Y75.44 Z-4.478
N2730 X11.943 Y75.428 Z-4.487
N2735 X11.928 Y75.405 Z-4.496
N2740 Y75.377 Z-4.505
N2745 X11.943 Y75.353 Z-4.514
N2750 X11.969 Y75.342 Z-4.523
N2755 X11.996 Y75.345 Z-4.532
N2760 X12.018 Y75.363 Z-4.541
N2765 X12.026 Y75.39 Z-4.55
N2770 X12.019 Y75.417 Z-4.559
N2775 X11.998 Y75.436 Z-4.568
N2780 X11.97 Y75.441 Z-4.577
N2785 X11.944 Y75.43 Z-4.586
N2790 X11.928 Y75.407 Z-4.595
N2795 X11.927 Y75.379 Z-4.604
N2800 X11.942 Y75.355 Z-4.613
N2805 X11.967 Y75.342 Z-4.622
N2810 X11.994 Y75.345 Z-4.631
N2815 X12.017 Y75.362 Z-4.64
N2820 X12.026 Y75.388 Z-4.649
N2825 X12.02 Y75.415 Z-4.658
N2830 X12 Y75.435 Z-4.667
N2835 X11.972 Y75.441 Z-4.676
N2840 X11.946 Y75.431 Z-4.685
N2845 X11.929 Y75.409 Z-4.694
N2850 X11.927 Y75.381 Z-4.703
N2855 X11.94 Y75.356 Z-4.712
N2860 X11.965 Y75.342 Z-4.721
N2865 X11.993 Y75.344 Z-4.73
N2870 X12.015 Y75.36 Z-4.739
N2875 X12.026 Y75.386 Z-4.748
N2880 X12.021 Y75.414 Z-4.757
N2885 X12.001 Y75.434 Z-4.767
N2890 X11.974 Y75.441 Z-4.776
N2895 X11.948 Y75.432 Z-4.785
N2900 X11.93 Y75.411 Z-4.794
N2905 X11.927 Y75.383 Z-4.803
N2910 X11.939 Y75.358 Z-4.812
N2915 X11.963 Y75.343 Z-4.821
N2920 X11.991 Z-4.83
N2925 X12.014 Y75.359 Z-4.839
N2930 X12.025 Y75.384 Z-4.848
N2935 X12.021 Y75.412 Z-4.857
N2940 X12.003 Y75.433 Z-4.866
N2945 X11.976 Y75.441 Z-4.875
N2950 X11.949 Y75.433 Z-4.884
N2955 X11.931 Y75.412 Z-4.893
N2960 X11.926 Y75.385 Z-4.902
N2965 X11.937 Y75.359 Z-4.911
N2970 X11.961 Y75.343 Z-4.92
N2975 X11.989 Z-4.929
N2980 X12.013 Y75.357 Z-4.938
N2985 X12.025 Y75.382 Z-4.947
N2990 X12.022 Y75.41 Z-4.956
N2995 X12.005 Y75.432 Z-4.965
N3000 X11.978 Y75.441 Z-4.974
N3005 X11.951 Y75.434 Z-4.983
N3010 X11.932 Y75.414 Z-4.992
N3015 X11.926 Y75.387 Z-5.001
N3020 X11.936 Y75.361 Z-5.01
N3025 X11.959 Y75.344 Z-5.019
N3030 X11.987 Y75.342 Z-5.028
N3035 X12.011 Y75.356 Z-5.037
N3040 X12.025 Y75.38 Z-5.046
N3045 X12.023 Y75.408 Z-5.056
N3050 X12.007 Y75.431 Z-5.065
N3055 X11.98 Y75.441 Z-5.074
N3060 X11.953 Y75.435 Z-5.083
N3065 X11.933 Y75.416 Z-5.092
N3070 X11.926 Y75.389 Z-5.101
N3075 X11.935 Y75.362 Z-5.11
N3080 X11.957 Y75.345 Z-5.119
N3085 X11.985 Y75.342 Z-5.128
N3090 X12.01 Y75.354 Z-5.137
N3095 X12.024 Y75.378 Z-5.146
N3100 Y75.406 Z-5.155
N3105 X12.008 Y75.429 Z-5.164
N3110 X11.983 Y75.441 Z-5.173
N3115 X11.955 Y75.436 Z-5.182
N3120 X11.934 Y75.418 Z-5.191
N3125 X11.926 Y75.391 Z-5.2
N3130 G3 X12.026 I0.05
N3135 X11.926 I-0.05
N3140 G1 X11.933 Y75.373
N3145 X11.951 Y75.366
N3150 X11.976 Y75.391
N3155 G0 Z2.3
N3160 X17.552 Y79.233
N3165 Z2
N3170 G1 Z0.3 F50
N3175 X17.527 Y79.258
N3180 X17.51 Y79.25
N3185 X17.502 Y79.233
N3190 X17.51 Y79.206 Z0.291 F800
N3195 X17.531 Y79.187 Z0.282
N3200 X17.559 Y79.183 Z0.273
N3205 X17.584 Y79.194 Z0.264
N3210 X17.6 Y79.218 Z0.255
N3215 X17.601 Y79.246 Z0.246
N3220 X17.586 Y79.269 Z0.237
N3225 X17.561 Y79.282 Z0.228
N3230 X17.533 Y79.279 Z0.219
N3235 X17.511 Y79.261 Z0.21
N3240 X17.502 Y79.235 Z0.201
N3245 X17.509 Y79.207 Z0.192
N3250 X17.529 Y79.188 Z0.183
N3255 X17.557 Y79.183 Z0.174
N3260 X17.583 Y79.193 Z0.165
N3265 X17.599 Y79.216 Z0.156
N3270 X17.601 Y79.244 Z0.146
N3275 X17.588 Y79.268 Z0.137
N3280 X17.563 Y79.281 Z0.128
N3285 X17.535 Y79.279 Z0.119
N3290 X17.512 Y79.263 Z0.11
N3295 X17.502 Y79.237 Z0.101
N3300 X17.508 Y79.209 Z0.092
N3305 X17.528 Y79.189 Z0.083
N3310 X17.555 Y79.183 Z0.074
N3315 X17.581 Y79.192 Z0.065
N3320 X17.599 Y79.214 Z0.056
N3325 X17.601 Y79.241 Z0.047
N3330 X17.589 Y79.267 Z0.038
N3335 X17.565 Y79.281 Z0.029
N3340 X17.537 Y79.28 Z0.02
N3345 X17.514 Y79.264 Z0.011
N3350 X17.503 Y79.239 Z0.002
N3355 X17.507 Y79.211 Z-0.007
N3360 X17.526 Y79.19 Z-0.016
N3365 X17.553 Y79.183 Z-0.025
N3370 X17.579 Y79.191 Z-0.034
N3375 X17.598 Y79.212 Z-0.043
N3380 X17.602 Y79.239 Z-0.052
N3385 X17.59 Y79.265 Z-0.061
N3390 X17.567 Y79.28 Z-0.07
N3395 X17.539 Y79.281 Z-0.079
N3400 X17.515 Y79.266 Z-0.088
N3405 X17.503 Y79.241 Z-0.097
N3410 X17.506 Y79.213 Z-0.106
N3415 X17.524 Y79.191 Z-0.115
N3420 X17.551 Y79.183 Z-0.124
N3425 X17.578 Y79.189 Z-0.133
N3430 X17.597 Y79.21 Z-0.143
N3435 X17.602 Y79.237 Z-0.152
N3440 X17.592 Y79.263 Z-0.161
N3445 X17.569 Y79.28 Z-0.17
N3450 X17.541 Y79.281 Z-0.179
N3455 X17.517 Y79.267 Z-0.188
N3460 X17.503 Y79.243 Z-0.197
N3465 X17.506 Y79.215 Z-0.206
N3470 X17.522 Y79.192 Z-0.215
N3475 X17.549 Y79.183 Z-0.224
N3480 X17.576 Y79.188 Z-0.233
N3485 X17.596 Y79.208 Z-0.242
N3490 X17.602 Y79.235 Z-0.251
N3495 X17.593 Y79.262 Z-0.26
N3500 X17.571 Y79.279 Z-0.269
N3505 X17.543 Y79.282 Z-0.278
N3510 X17.518 Y79.269 Z-0.287
N3515 X17.504 Y79.245 Z-0.296
N3520 X17.505 Y79.217 Z-0.305
N3525 X17.521 Y79.194 Z-0.314
N3530 X17.547 Y79.183 Z-0.323
N3535 X17.574 Y79.188 Z-0.332
N3540 X17.595 Y79.206 Z-0.341
N3545 X17.602 Y79.233 Z-0.35
N3550 X17.594 Y79.26 Z-0.359
N3555 X17.573 Y79.278 Z-0.368
N3560 X17.545 Y79.282 Z-0.377
N3565 X17.52 Y79.27 Z-0.386
N3570 X17.504 Y79.247 Z-0.395
N3575 Y79.219 Z-0.404
N3580 X17.519 Y79.195 Z-0.413
N3585 X17.544 Y79.183 Z-0.422
N3590 X17.572 Y79.187 Z-0.432
N3595 X17.594 Y79.205 Z-0.441
N3600 X17.602 Y79.231 Z-0.45
N3605 X17.595 Y79.258 Z-0.459
N3610 X17.575 Y79.277 Z-0.468
N3615 X17.547 Y79.282 Z-0.477
N3620 X17.521 Y79.272 Z-0.486
N3625 X17.505 Y79.249 Z-0.495
N3630 X17.504 Y79.221 Z-0.504
N3635 X17.518 Y79.196 Z-0.513
N3640 X17.542 Y79.183 Z-0.522
N3645 X17.57 Y79.186 Z-0.531
N3650 X17.593 Y79.203 Z-0.54
N3655 X17.602 Y79.229 Z-0.549
N3660 X17.596 Y79.256 Z-0.558
N3665 X17.576 Y79.276 Z-0.567
N3670 X17.549 Y79.282 Z-0.576
N3675 X17.523 Y79.273 Z-0.585
N3680 X17.506 Y79.251 Z-0.594
N3685 X17.503 Y79.223 Z-0.603
N3690 X17.516 Y79.198 Z-0.612
N3695 X17.54 Y79.184 Z-0.621
N3700 X17.568 Y79.185 Z-0.63
N3705 X17.591 Y79.201 Z-0.639
N3710 X17.602 Y79.227 Z-0.648
N3715 X17.597 Y79.255 Z-0.657
N3720 X17.578 Y79.275 Z-0.666
N3725 X17.551 Y79.282 Z-0.675
N3730 X17.524 Y79.274 Z-0.684
N3735 X17.506 Y79.253 Z-0.693
N3740 X17.503 Y79.225 Z-0.702
N3745 X17.515 Y79.199 Z-0.711
N3750 X17.538 Y79.184 Z-0.721
N3755 X17.566 Y79.185 Z-0.73
N3760 X17.59 Y79.2 Z-0.739
N3765 X17.602 Y79.225 Z-0.748
N3770 X17.598 Y79.253 Z-0.757
N3775 X17.58 Y79.274 Z-0.766
N3780 X17.553 Y79.282 Z-0.775
N3785 X17.526 Y79.275 Z-0.784
N3790 X17.507 Y79.254 Z-0.793
N3795 X17.503 Y79.227 Z-0.802
N3800 X17.513 Y79.201 Z-0.811
N3805 X17.536 Y79.185 Z-0.82
N3810 X17.564 Y79.184 Z-0.829
N3815 X17.589 Y79.198 Z-0.838
N3820 X17.601 Y79.223 Z-0.847
N3825 X17.599 Y79.251 Z-0.856
N3830 X17.582 Y79.273 Z-0.865
N3835 X17.555 Y79.282 Z-0.874
N3840 X17.528 Y79.276 Z-0.883
N3845 X17.508 Y79.256 Z-0.892
N3850 X17.502 Y79.229 Z-0.901
N3855 X17.512 Y79.203 Z-0.91
N3860 X17.535 Y79.186 Z-0.919
N3865 X17.562 Y79.184 Z-0.928
N3870 X17.587 Y79.197 Z-0.937
N3875 X17.601 Y79.221 Z-0.946
N3880 X17.6 Y79.249 Z-0.955
N3885 X17.583 Y79.272 Z-0.964
N3890 X17.557 Y79.282 Z-0.973
N3895 X17.53 Y79.277 Z-0.982
N3900 X17.509 Y79.258 Z-0.991
N3905 X17.502 Y79.231 Z-1
N3910 X17.511 Y79.204 Z-1.01
N3915 X17.533 Y79.187 Z-1.019
N3920 X17.56 Y79.183 Z-1.028
N3925 X17.586 Y79.195 Z-1.037
N3930 X17.6 Y79.219 Z-1.046
N3935 Y79.247 Z-1.055
N3940 X17.585 Y79.27 Z-1.064
N3945 X17.559 Y79.282 Z-1.073
N3950 X17.532 Y79.278 Z-1.082
N3955 X17.51 Y79.26 Z-1.091
N3960 X17.502 Y79.233 Z-1.1
N3965 X17.51 Y79.206 Z-1.109
N3970 X17.531 Y79.187 Z-1.118
N3975 X17.558 Y79.183 Z-1.127
N3980 X17.584 Y79.194 Z-1.136
N3985 X17.6 Y79.217 Z-1.145
N3990 X17.601 Y79.245 Z-1.154
N3995 X17.586 Y79.269 Z-1.163
N4000 X17.561 Y79.282 Z-1.172
N4005 X17.534 Y79.279 Z-1.181
N4010 X17.512 Y79.262 Z-1.19
N4015 X17.502 Y79.235 Z-1.199
N4020 X17.509 Y79.208 Z-1.208
N4025 X17.529 Y79.188 Z-1.217
N4030 X17.556 Y79.183 Z-1.226
N4035 X17.582 Y79.193 Z-1.235
N4040 X17.599 Y79.215 Z-1.244
N4045 X17.601 Y79.243 Z-1.253
N4050 X17.588 Y79.268 Z-1.262
N4055 X17.563 Y79.281 Z-1.271
N4060 X17.535 Y79.28 Z-1.28
N4065 X17.513 Y79.263 Z-1.289
N4070 X17.503 Y79.237 Z-1.299
N4075 X17.508 Y79.21 Z-1.308
N4080 X17.527 Y79.189 Z-1.317
N4085 X17.554 Y79.183 Z-1.326
N4090 X17.581 Y79.191 Z-1.335
N4095 X17.598 Y79.213 Z-1.344
N4100 X17.602 Y79.241 Z-1.353
N4105 X17.589 Y79.266 Z-1.362
N4110 X17.565 Y79.281 Z-1.371
N4115 X17.537 Y79.28 Z-1.38
N4120 X17.514 Y79.265 Z-1.389
N4125 X17.503 Y79.239 Z-1.398
N4130 X17.507 Y79.212 Z-1.407
N4135 X17.525 Y79.19 Z-1.416
N4140 X17.552 Y79.183 Z-1.425
N4145 X17.579 Y79.19 Z-1.434
N4150 X17.598 Y79.211 Z-1.443
N4155 X17.602 Y79.239 Z-1.452
N4160 X17.591 Y79.265 Z-1.461
N4165 X17.567 Y79.28 Z-1.47
N4170 X17.539 Y79.281 Z-1.479
N4175 X17.515 Y79.266 Z-1.488
N4180 X17.503 Y79.241 Z-1.497
N4185 X17.506 Y79.213 Z-1.506
N4190 X17.524 Y79.192 Z-1.515
N4195 X17.55 Y79.183 Z-1.524
N4200 X17.577 Y79.189 Z-1.533
N4205 X17.597 Y79.209 Z-1.542
N4210 X17.602 Y79.237 Z-1.551
N4215 X17.592 Y79.263 Z-1.56
N4220 X17.569 Y79.28 Z-1.569
N4225 X17.541 Y79.281 Z-1.578
N4230 X17.517 Y79.268 Z-1.588
N4235 X17.503 Y79.243 Z-1.597
N4240 X17.505 Y79.215 Z-1.606
N4245 X17.522 Y79.193 Z-1.615
N4250 X17.548 Y79.183 Z-1.624
N4255 X17.575 Y79.188 Z-1.633
N4260 X17.596 Y79.208 Z-1.642
N4265 X17.602 Y79.235 Z-1.651
N4270 X17.593 Y79.261 Z-1.66
N4275 X17.571 Y79.279 Z-1.669
N4280 X17.543 Y79.282 Z-1.678
N4285 X17.518 Y79.269 Z-1.687
N4290 X17.504 Y79.245 Z-1.696
N4295 X17.505 Y79.217 Z-1.705
N4300 X17.52 Y79.194 Z-1.714
N4305 X17.546 Y79.183 Z-1.723
N4310 X17.574 Y79.187 Z-1.732
N4315 X17.595 Y79.206 Z-1.741
N4320 X17.602 Y79.233 Z-1.75
N4325 X17.594 Y79.26 Z-1.759
N4330 X17.573 Y79.278 Z-1.768
N4335 X17.545 Y79.282 Z-1.777
N4340 X17.52 Y79.271 Z-1.786
N4345 X17.505 Y79.247 Z-1.795
N4350 X17.504 Y79.219 Z-1.804
N4355 X17.519 Y79.195 Z-1.813
N4360 X17.544 Y79.183 Z-1.822
N4365 X17.572 Y79.186 Z-1.831
N4370 X17.593 Y79.204 Z-1.84
N4375 X17.602 Y79.231 Z-1.849
N4380 X17.595 Y79.258 Z-1.858
N4385 X17.575 Y79.277 Z-1.867
N4390 X17.548 Y79.282 Z-1.877
N4395 X17.522 Y79.272 Z-1.886
N4400 X17.505 Y79.249 Z-1.895
N4405 X17.504 Y79.221 Z-1.904
N4410 X17.517 Y79.197 Z-1.913
N4415 X17.542 Y79.184 Z-1.922
N4420 X17.57 Y79.186 Z-1.931
N4425 X17.592 Y79.202 Z-1.94
N4430 X17.602 Y79.229 Z-1.949
N4435 X17.596 Y79.256 Z-1.958
N4440 X17.577 Y79.276 Z-1.967
N4445 X17.55 Y79.282 Z-1.976
N4450 X17.523 Y79.273 Z-1.985
N4455 X17.506 Y79.251 Z-1.994
N4460 X17.503 Y79.223 Z-2.003
N4465 X17.516 Y79.198 Z-2.012
N4470 X17.54 Y79.184 Z-2.021
N4475 X17.568 Y79.185 Z-2.03
N4480 X17.591 Y79.201 Z-2.039
N4485 X17.602 Y79.227 Z-2.048
N4490 X17.597 Y79.254 Z-2.057
N4495 X17.579 Y79.275 Z-2.066
N4500 X17.552 Y79.283 Z-2.075
N4505 X17.525 Y79.274 Z-2.084
N4510 X17.507 Y79.253 Z-2.093
N4515 X17.503 Y79.225 Z-2.102
N4520 X17.514 Y79.2 Z-2.111
N4525 X17.538 Y79.185 Z-2.12
N4530 X17.566 Y79.184 Z-2.129
N4535 X17.59 Y79.199 Z-2.138
N4540 X17.602 Y79.225 Z-2.147
N4545 X17.598 Y79.252 Z-2.156
N4550 X17.58 Y79.274 Z-2.166
N4555 X17.554 Y79.282 Z-2.175
N4560 X17.527 Y79.275 Z-2.184
N4565 X17.508 Y79.255 Z-2.193
N4570 X17.503 Y79.227 Z-2.202
N4575 X17.513 Y79.201 Z-2.211
N4580 X17.536 Y79.185 Z-2.22
N4585 X17.564 Y79.184 Z-2.229
N4590 X17.588 Y79.198 Z-2.238
N4595 X17.601 Y79.223 Z-2.247
N4600 X17.599 Y79.25 Z-2.256
N4605 X17.582 Y79.273 Z-2.265
N4610 X17.556 Y79.282 Z-2.274
N4615 X17.528 Y79.276 Z-2.283
N4620 X17.509 Y79.257 Z-2.292
N4625 X17.502 Y79.229 Z-2.301
N4630 X17.512 Y79.203 Z-2.31
N4635 X17.534 Y79.186 Z-2.319
N4640 X17.562 Y79.183 Z-2.328
N4645 X17.587 Y79.196 Z-2.337
N4650 X17.601 Y79.221 Z-2.346
N4655 X17.6 Y79.248 Z-2.355
N4660 X17.584 Y79.271 Z-2.364
N4665 X17.558 Y79.282 Z-2.373
N4670 X17.53 Y79.277 Z-2.382
N4675 X17.51 Y79.259 Z-2.391
N4680 X17.502 Y79.231 Z-2.4
N4685 X17.511 Y79.205 Z-2.409
N4690 X17.532 Y79.187 Z-2.418
N4695 X17.56 Y79.183 Z-2.427
N4700 X17.585 Y79.195 Z-2.436
N4705 X17.6 Y79.219 Z-2.445
N4710 Y79.247 Z-2.455
N4715 X17.585 Y79.27 Z-2.464
N4720 X17.56 Y79.282 Z-2.473
N4725 X17.532 Y79.278 Z-2.482
N4730 X17.511 Y79.26 Z-2.491
N4735 X17.502 Y79.234 Z-2.5
N4740 X17.51 Y79.207 Z-2.509
N4745 X17.53 Y79.188 Z-2.518
N4750 X17.558 Y79.183 Z-2.527
N4755 X17.584 Y79.194 Z-2.536
N4760 X17.6 Y79.217 Z-2.545
N4765 X17.601 Y79.245 Z-2.554
N4770 X17.587 Y79.269 Z-2.563
N4775 X17.562 Y79.282 Z-2.572
N4780 X17.534 Y79.279 Z-2.581
N4785 X17.512 Y79.262 Z-2.59
N4790 X17.502 Y79.236 Z-2.599
N4795 X17.509 Y79.208 Z-2.608
N4800 X17.528 Y79.189 Z-2.617
N4805 X17.556 Y79.183 Z-2.626
N4810 X17.582 Y79.192 Z-2.635
N4815 X17.599 Y79.215 Z-2.644
N4820 X17.601 Y79.242 Z-2.653
N4825 X17.588 Y79.267 Z-2.662
N4830 X17.564 Y79.281 Z-2.671
N4835 X17.536 Y79.28 Z-2.68
N4840 X17.513 Y79.264 Z-2.689
N4845 X17.503 Y79.238 Z-2.698
N4850 X17.508 Y79.21 Z-2.707
N4855 X17.527 Y79.19 Z-2.716
N4860 X17.554 Y79.183 Z-2.725
N4865 X17.58 Y79.191 Z-2.734
N4870 X17.598 Y79.213 Z-2.744
N4875 X17.602 Y79.24 Z-2.753
N4880 X17.59 Y79.266 Z-2.762
N4885 X17.566 Y79.281 Z-2.771
N4890 X17.538 Y79.28 Z-2.78
N4895 X17.514 Y79.265 Z-2.789
N4900 X17.503 Y79.24 Z-2.798
N4905 X17.507 Y79.212 Z-2.807
N4910 X17.525 Y79.191 Z-2.816
N4915 X17.552 Y79.183 Z-2.825
N4920 X17.579 Y79.19 Z-2.834
N4925 X17.597 Y79.211 Z-2.843
N4930 X17.602 Y79.238 Z-2.852
N4935 X17.591 Y79.264 Z-2.861
N4940 X17.568 Y79.28 Z-2.87
N4945 X17.54 Y79.281 Z-2.879
N4950 X17.516 Y79.267 Z-2.888
N4955 X17.503 Y79.242 Z-2.897
N4960 X17.506 Y79.214 Z-2.906
N4965 X17.523 Y79.192 Z-2.915
N4970 X17.55 Y79.183 Z-2.924
N4975 X17.577 Y79.189 Z-2.933
N4980 X17.596 Y79.209 Z-2.942
N4985 X17.602 Y79.236 Z-2.951
N4990 X17.592 Y79.263 Z-2.96
N4995 X17.57 Y79.279 Z-2.969
N5000 X17.542 Y79.281 Z-2.978
N5005 X17.517 Y79.268 Z-2.987
N5010 X17.504 Y79.244 Z-2.996
N5015 X17.505 Y79.216 Z-3.005
N5020 X17.522 Y79.193 Z-3.014
N5025 X17.548 Y79.183 Z-3.023
N5030 X17.575 Y79.188 Z-3.033
N5035 X17.595 Y79.207 Z-3.042
N5040 X17.602 Y79.234 Z-3.051
N5045 X17.593 Y79.261 Z-3.06
N5050 X17.572 Y79.279 Z-3.069
N5055 X17.544 Y79.282 Z-3.078
N5060 X17.519 Y79.27 Z-3.087
N5065 X17.504 Y79.246 Z-3.096
N5070 X17.505 Y79.218 Z-3.105
N5075 X17.52 Y79.194 Z-3.114
N5080 X17.545 Y79.183 Z-3.123
N5085 X17.573 Y79.187 Z-3.132
N5090 X17.594 Y79.205 Z-3.141
N5095 X17.602 Y79.232 Z-3.15
N5100 X17.595 Y79.259 Z-3.159
N5105 X17.574 Y79.278 Z-3.168
N5110 X17.546 Y79.282 Z-3.177
N5115 X17.52 Y79.271 Z-3.186
N5120 X17.505 Y79.248 Z-3.195
N5125 X17.504 Y79.22 Z-3.204
N5130 X17.518 Y79.196 Z-3.213
N5135 X17.543 Y79.183 Z-3.222
N5140 X17.571 Y79.186 Z-3.231
N5145 X17.593 Y79.204 Z-3.24
N5150 X17.602 Y79.23 Z-3.249
N5155 X17.596 Y79.257 Z-3.258
N5160 X17.575 Y79.277 Z-3.267
N5165 X17.548 Y79.282 Z-3.276
N5170 X17.522 Y79.272 Z-3.285
N5175 X17.505 Y79.25 Z-3.294
N5180 X17.503 Y79.222 Z-3.303
N5185 X17.517 Y79.197 Z-3.312
N5190 X17.541 Y79.184 Z-3.322
N5195 X17.569 Y79.186 Z-3.331
N5200 X17.592 Y79.202 Z-3.34
N5205 X17.602 Y79.228 Z-3.349
N5210 X17.597 Y79.256 Z-3.358
N5215 X17.577 Y79.276 Z-3.367
N5220 X17.55 Y79.282 Z-3.376
N5225 X17.524 Y79.273 Z-3.385
N5230 X17.506 Y79.252 Z-3.394
N5235 X17.503 Y79.224 Z-3.403
N5240 X17.515 Y79.199 Z-3.412
N5245 X17.539 Y79.184 Z-3.421
N5250 X17.567 Y79.185 Z-3.43
N5255 X17.591 Y79.2 Z-3.439
N5260 X17.602 Y79.226 Z-3.448
N5265 X17.598 Y79.254 Z-3.457
N5270 X17.579 Y79.275 Z-3.466
N5275 X17.552 Y79.283 Z-3.475
N5280 X17.525 Y79.275 Z-3.484
N5285 X17.507 Y79.254 Z-3.493
N5290 X17.503 Y79.226 Z-3.502
N5295 X17.514 Y79.2 Z-3.511
N5300 X17.537 Y79.185 Z-3.52
N5305 X17.565 Y79.184 Z-3.529
N5310 X17.589 Y79.199 Z-3.538
N5315 X17.602 Y79.224 Z-3.547
N5320 X17.598 Y79.252 Z-3.556
N5325 X17.581 Y79.274 Z-3.565
N5330 X17.554 Y79.282 Z-3.574
N5335 X17.527 Y79.276 Z-3.583
N5340 X17.508 Y79.255 Z-3.592
N5345 X17.503 Y79.228 Z-3.601
N5350 X17.513 Y79.202 Z-3.611
N5355 X17.535 Y79.185 Z-3.62
N5360 X17.563 Y79.184 Z-3.629
N5365 X17.588 Y79.197 Z-3.638
N5370 X17.601 Y79.222 Z-3.647
N5375 X17.599 Y79.25 Z-3.656
N5380 X17.582 Y79.272 Z-3.665
N5385 X17.556 Y79.282 Z-3.674
N5390 X17.529 Y79.277 Z-3.683
N5395 X17.509 Y79.257 Z-3.692
N5400 X17.502 Y79.23 Z-3.701
N5405 X17.512 Y79.203 Z-3.71
N5410 X17.534 Y79.186 Z-3.719
N5415 X17.561 Y79.183 Z-3.728
N5420 X17.586 Y79.196 Z-3.737
N5425 X17.601 Y79.22 Z-3.746
N5430 X17.6 Y79.248 Z-3.755
N5435 X17.584 Y79.271 Z-3.764
N5440 X17.558 Y79.282 Z-3.773
N5445 X17.531 Y79.278 Z-3.782
N5450 X17.51 Y79.259 Z-3.791
N5455 X17.502 Y79.232 Z-3.8
N5460 X17.51 Y79.205 Z-3.809
N5465 X17.532 Y79.187 Z-3.818
N5470 X17.559 Y79.183 Z-3.827
N5475 X17.585 Y79.195 Z-3.836
N5480 X17.6 Y79.218 Z-3.845
N5485 Y79.246 Z-3.854
N5490 X17.586 Y79.27 Z-3.863
N5495 X17.56 Y79.282 Z-3.872
N5500 X17.533 Y79.278 Z-3.881
N5505 X17.511 Y79.261 Z-3.89
N5510 X17.502 Y79.234 Z-3.9
N5515 X17.509 Y79.207 Z-3.909
N5520 X17.53 Y79.188 Z-3.918
N5525 X17.557 Y79.183 Z-3.927
N5530 X17.583 Y79.193 Z-3.936
N5535 X17.6 Y79.216 Z-3.945
N5540 X17.601 Y79.244 Z-3.954
N5545 X17.587 Y79.268 Z-3.963
N5550 X17.562 Y79.281 Z-3.972
N5555 X17.535 Y79.279 Z-3.981
N5560 X17.512 Y79.262 Z-3.99
N5565 X17.502 Y79.236 Z-3.999
N5570 X17.508 Y79.209 Z-4.008
N5575 X17.528 Y79.189 Z-4.017
N5580 X17.555 Y79.183 Z-4.026
N5585 X17.582 Y79.192 Z-4.035
N5590 X17.599 Y79.214 Z-4.044
N5595 X17.601 Y79.242 Z-4.053
N5600 X17.589 Y79.267 Z-4.062
N5605 X17.564 Y79.281 Z-4.071
N5610 X17.536 Y79.28 Z-4.08
N5615 X17.513 Y79.264 Z-4.089
N5620 X17.503 Y79.238 Z-4.098
N5625 X17.507 Y79.211 Z-4.107
N5630 X17.526 Y79.19 Z-4.116
N5635 X17.553 Y79.183 Z-4.125
N5640 X17.58 Y79.191 Z-4.134
N5645 X17.598 Y79.212 Z-4.143
N5650 X17.602 Y79.24 Z-4.152
N5655 X17.59 Y79.265 Z-4.161
N5660 X17.566 Y79.28 Z-4.17
N5665 X17.538 Y79.281 Z-4.179
N5670 X17.515 Y79.266 Z-4.189
N5675 X17.503 Y79.24 Z-4.198
N5680 X17.506 Y79.212 Z-4.207
N5685 X17.524 Y79.191 Z-4.216
N5690 X17.551 Y79.183 Z-4.225
N5695 X17.578 Y79.19 Z-4.234
N5700 X17.597 Y79.21 Z-4.243
N5705 X17.602 Y79.238 Z-4.252
N5710 X17.591 Y79.264 Z-4.261
N5715 X17.568 Y79.28 Z-4.27
N5720 X17.54 Y79.281 Z-4.279
N5725 X17.516 Y79.267 Z-4.288
N5730 X17.503 Y79.242 Z-4.297
N5735 X17.506 Y79.214 Z-4.306
N5740 X17.523 Y79.192 Z-4.315
N5745 X17.549 Y79.183 Z-4.324
N5750 X17.576 Y79.189 Z-4.333
N5755 X17.596 Y79.209 Z-4.342
N5760 X17.602 Y79.236 Z-4.351
N5765 X17.593 Y79.262 Z-4.36
N5770 X17.57 Y79.279 Z-4.369
N5775 X17.542 Y79.282 Z-4.378
N5780 X17.518 Y79.269 Z-4.387
N5785 X17.504 Y79.244 Z-4.396
N5790 X17.505 Y79.216 Z-4.405
N5795 X17.521 Y79.193 Z-4.414
N5800 X17.547 Y79.183 Z-4.423
N5805 X17.575 Y79.188 Z-4.432
N5810 X17.595 Y79.207 Z-4.441
N5815 X17.602 Y79.234 Z-4.45
N5820 X17.594 Y79.26 Z-4.459
N5825 X17.572 Y79.278 Z-4.468
N5830 X17.544 Y79.282 Z-4.478
N5835 X17.519 Y79.27 Z-4.487
N5840 X17.504 Y79.246 Z-4.496
N5845 Y79.218 Z-4.505
N5850 X17.52 Y79.195 Z-4.514
N5855 X17.545 Y79.183 Z-4.523
N5860 X17.573 Y79.187 Z-4.532
N5865 X17.594 Y79.205 Z-4.541
N5870 X17.602 Y79.232 Z-4.55
N5875 X17.595 Y79.259 Z-4.559
N5880 X17.574 Y79.277 Z-4.568
N5885 X17.547 Y79.282 Z-4.577
N5890 X17.521 Y79.271 Z-4.586
N5895 X17.505 Y79.248 Z-4.595
N5900 X17.504 Y79.22 Z-4.604
N5905 X17.518 Y79.196 Z-4.613
N5910 X17.543 Y79.183 Z-4.622
N5915 X17.571 Y79.186 Z-4.631
N5920 X17.593 Y79.203 Z-4.64
N5925 X17.602 Y79.23 Z-4.649
N5930 X17.596 Y79.257 Z-4.658
N5935 X17.576 Y79.277 Z-4.667
N5940 X17.549 Y79.282 Z-4.676
N5945 X17.522 Y79.273 Z-4.685
N5950 X17.506 Y79.25 Z-4.694
N5955 X17.503 Y79.222 Z-4.703
N5960 X17.517 Y79.198 Z-4.712
N5965 X17.541 Y79.184 Z-4.721
N5970 X17.569 Y79.185 Z-4.73
N5975 X17.592 Y79.202 Z-4.739
N5980 X17.602 Y79.228 Z-4.748
N5985 X17.597 Y79.255 Z-4.757
N5990 X17.578 Y79.276 Z-4.767
N5995 X17.551 Y79.282 Z-4.776
N6000 X17.524 Y79.274 Z-4.785
N6005 X17.506 Y79.252 Z-4.794
N6010 X17.503 Y79.224 Z-4.803
N6015 X17.515 Y79.199 Z-4.812
N6020 X17.539 Y79.184 Z-4.821
N6025 X17.567 Y79.185 Z-4.83
N6030 X17.59 Y79.2 Z-4.839
N6035 X17.602 Y79.226 Z-4.848
N6040 X17.598 Y79.253 Z-4.857
N6045 X17.579 Y79.274 Z-4.866
N6050 X17.553 Y79.283 Z-4.875
N6055 X17.526 Y79.275 Z-4.884
N6060 X17.507 Y79.254 Z-4.893
N6065 X17.503 Y79.226 Z-4.902
N6070 X17.514 Y79.201 Z-4.911
N6075 X17.537 Y79.185 Z-4.92
N6080 X17.565 Y79.184 Z-4.929
N6085 X17.589 Y79.198 Z-4.938
N6090 X17.601 Y79.224 Z-4.947
N6095 X17.599 Y79.251 Z-4.956
N6100 X17.581 Y79.273 Z-4.965
N6105 X17.555 Y79.282 Z-4.974
N6110 X17.528 Y79.276 Z-4.983
N6115 X17.508 Y79.256 Z-4.992
N6120 X17.502 Y79.228 Z-5.001
N6125 X17.512 Y79.202 Z-5.01
N6130 X17.535 Y79.186 Z-5.019
N6135 X17.563 Y79.184 Z-5.028
N6140 X17.588 Y79.197 Z-5.037
N6145 X17.601 Y79.222 Z-5.046
N6150 X17.599 Y79.249 Z-5.056
N6155 X17.583 Y79.272 Z-5.065
N6160 X17.557 Y79.282 Z-5.074
N6165 X17.529 Y79.277 Z-5.083
N6170 X17.509 Y79.258 Z-5.092
N6175 X17.502 Y79.23 Z-5.101
N6180 X17.511 Y79.204 Z-5.11
N6185 X17.533 Y79.186 Z-5.119
N6190 X17.561 Y79.183 Z-5.128
N6195 X17.586 Y79.196 Z-5.137
N6200 X17.601 Y79.22 Z-5.146
N6205 X17.6 Y79.247 Z-5.155
N6210 X17.584 Y79.271 Z-5.164
N6215 X17.559 Y79.282 Z-5.173
N6220 X17.531 Y79.278 Z-5.182
N6225 X17.51 Y79.259 Z-5.191
N6230 X17.502 Y79.233 Z-5.2
N6235 G3 X17.602 I0.05
N6240 X17.502 I-0.05
N6245 G1 X17.51 Y79.215
N6250 X17.527 Y79.208
N6255 X17.552 Y79.233
N6260 G0 Z2.3
N6265 X23.667 Y82.141
N6270 Z2
N6275 G1 Z0.3 F50
N6280 X23.692 Y82.116
N6285 X23.71 Y82.123
N6290 X23.717 Y82.141
N6295 X23.709 Y82.168 Z0.291 F800
N6300 X23.688 Y82.186 Z0.282
N6305 X23.661 Y82.191 Z0.273
N6310 X23.635 Y82.179 Z0.264
N6315 X23.62 Y82.156 Z0.255
N6320 X23.619 Y82.128 Z0.246
N6325 X23.634 Y82.104 Z0.237
N6330 X23.659 Y82.092 Z0.228
N6335 X23.687 Y82.095 Z0.219
N6340 X23.708 Y82.112 Z0.21
N6345 X23.717 Y82.139 Z0.201
N6350 X23.711 Y82.166 Z0.192
N6355 X23.69 Y82.185 Z0.183
N6360 X23.663 Y82.191 Z0.174
N6365 X23.637 Y82.181 Z0.165
N6370 X23.62 Y82.158 Z0.156
N6375 X23.619 Y82.13 Z0.146
N6380 X23.632 Y82.106 Z0.137
N6385 X23.657 Y82.092 Z0.128
N6390 X23.685 Y82.094 Z0.119
N6395 X23.707 Y82.111 Z0.11
N6400 X23.717 Y82.137 Z0.101
N6405 X23.712 Y82.164 Z0.092
N6410 X23.692 Y82.184 Z0.083
N6415 X23.665 Y82.191 Z0.074
N6420 X23.638 Y82.182 Z0.065
N6425 X23.621 Y82.16 Z0.056
N6430 X23.618 Y82.132 Z0.047
N6435 X23.631 Y82.107 Z0.038
N6440 X23.655 Y82.093 Z0.029
N6445 X23.683 Z0.02
N6450 X23.706 Y82.109 Z0.011
N6455 X23.717 Y82.135 Z0.002
N6460 X23.712 Y82.162 Z-0.007
N6465 X23.694 Y82.183 Z-0.016
N6470 X23.667 Y82.191 Z-0.025
N6475 X23.64 Y82.183 Z-0.034
N6480 X23.622 Y82.162 Z-0.043
N6485 X23.618 Y82.134 Z-0.052
N6490 X23.629 Y82.109 Z-0.061
N6495 X23.653 Y82.093 Z-0.07
N6500 X23.681 Z-0.079
N6505 X23.704 Y82.108 Z-0.088
N6510 X23.717 Y82.133 Z-0.097
N6515 X23.713 Y82.161 Z-0.106
N6520 X23.696 Y82.182 Z-0.115
N6525 X23.669 Y82.191 Z-0.124
N6530 X23.642 Y82.184 Z-0.133
N6535 X23.623 Y82.164 Z-0.143
N6540 X23.618 Y82.136 Z-0.152
N6545 X23.628 Y82.11 Z-0.161
N6550 X23.651 Y82.094 Z-0.17
N6555 X23.679 Y82.092 Z-0.179
N6560 X23.703 Y82.106 Z-0.188
N6565 X23.716 Y82.131 Z-0.197
N6570 X23.714 Y82.159 Z-0.206
N6575 X23.697 Y82.181 Z-0.215
N6580 X23.671 Y82.191 Z-0.224
N6585 X23.644 Y82.185 Z-0.233
N6590 X23.624 Y82.165 Z-0.242
N6595 X23.617 Y82.138 Z-0.251
N6600 X23.627 Y82.112 Z-0.26
N6605 X23.649 Y82.095 Z-0.269
N6610 X23.677 Y82.092 Z-0.278
N6615 X23.702 Y82.105 Z-0.287
N6620 X23.716 Y82.129 Z-0.296
N6625 X23.715 Y82.157 Z-0.305
N6630 X23.699 Y82.18 Z-0.314
N6635 X23.673 Y82.191 Z-0.323
N6640 X23.645 Y82.186 Z-0.332
N6645 X23.625 Y82.167 Z-0.341
N6650 X23.617 Y82.14 Z-0.35
N6655 X23.626 Y82.113 Z-0.359
N6660 X23.647 Y82.095 Z-0.368
N6665 X23.675 Y82.092 Z-0.377
N6670 X23.7 Y82.103 Z-0.386
N6675 X23.715 Y82.127 Z-0.395
N6680 Y82.155 Z-0.404
N6685 X23.7 Y82.178 Z-0.413
N6690 X23.675 Y82.19 Z-0.422
N6695 X23.647 Y82.187 Z-0.432
N6700 X23.626 Y82.169 Z-0.441
N6705 X23.617 Y82.142 Z-0.45
N6710 X23.624 Y82.115 Z-0.459
N6715 X23.645 Y82.096 Z-0.468
N6720 X23.673 Y82.091 Z-0.477
N6725 X23.698 Y82.102 Z-0.486
N6730 X23.715 Y82.125 Z-0.495
N6735 X23.716 Y82.153 Z-0.504
N6740 X23.702 Y82.177 Z-0.513
N6745 X23.677 Y82.19 Z-0.522
N6750 X23.649 Y82.188 Z-0.531
N6755 X23.627 Y82.171 Z-0.54
N6760 X23.617 Y82.144 Z-0.549
N6765 X23.623 Y82.117 Z-0.558
N6770 X23.643 Y82.097 Z-0.567
N6775 X23.671 Y82.091 Z-0.576
N6780 X23.697 Y82.101 Z-0.585
N6785 X23.714 Y82.123 Z-0.594
N6790 X23.716 Y82.151 Z-0.603
N6795 X23.703 Y82.176 Z-0.612
N6800 X23.679 Y82.19 Z-0.621
N6805 X23.651 Y82.188 Z-0.63
N6810 X23.628 Y82.172 Z-0.639
N6815 X23.618 Y82.146 Z-0.648
N6820 X23.622 Y82.119 Z-0.657
N6825 X23.641 Y82.098 Z-0.666
N6830 X23.668 Y82.091 Z-0.675
N6835 X23.695 Y82.099 Z-0.684
N6840 X23.713 Y82.121 Z-0.693
N6845 X23.717 Y82.149 Z-0.702
N6850 X23.705 Y82.174 Z-0.711
N6855 X23.681 Y82.189 Z-0.721
N6860 X23.653 Z-0.73
N6865 X23.63 Y82.174 Z-0.739
N6870 X23.618 Y82.148 Z-0.748
N6875 X23.622 Y82.121 Z-0.757
N6880 X23.64 Y82.099 Z-0.766
N6885 X23.666 Y82.091 Z-0.775
N6890 X23.693 Y82.098 Z-0.784
N6895 X23.712 Y82.119 Z-0.793
N6900 X23.717 Y82.147 Z-0.802
N6905 X23.706 Y82.172 Z-0.811
N6910 X23.683 Y82.188 Z-0.82
N6915 X23.655 Y82.19 Z-0.829
N6920 X23.631 Y82.175 Z-0.838
N6925 X23.618 Y82.15 Z-0.847
N6930 X23.621 Y82.123 Z-0.856
N6935 X23.638 Y82.101 Z-0.865
N6940 X23.664 Y82.091 Z-0.874
N6945 X23.692 Y82.097 Z-0.883
N6950 X23.711 Y82.117 Z-0.892
N6955 X23.717 Y82.145 Z-0.901
N6960 X23.707 Y82.171 Z-0.91
N6965 X23.685 Y82.188 Z-0.919
N6970 X23.657 Y82.19 Z-0.928
N6975 X23.632 Y82.177 Z-0.937
N6980 X23.619 Y82.153 Z-0.946
N6985 X23.62 Y82.125 Z-0.955
N6990 X23.636 Y82.102 Z-0.964
N6995 X23.662 Y82.091 Z-0.973
N7000 X23.69 Y82.096 Z-0.982
N7005 X23.71 Y82.115 Z-0.991
N7010 X23.717 Y82.143 Z-1
N7015 X23.709 Y82.169 Z-1.01
N7020 X23.687 Y82.187 Z-1.019
N7025 X23.659 Y82.19 Z-1.028
N7030 X23.634 Y82.178 Z-1.037
N7035 X23.619 Y82.155 Z-1.046
N7040 Y82.127 Z-1.055
N7045 X23.635 Y82.103 Z-1.064
N7050 X23.66 Y82.092 Z-1.073
N7055 X23.688 Y82.095 Z-1.082
N7060 X23.709 Y82.114 Z-1.091
N7065 X23.717 Y82.14 Z-1.1
N7070 X23.71 Y82.167 Z-1.109
N7075 X23.689 Y82.186 Z-1.118
N7080 X23.661 Y82.191 Z-1.127
N7085 X23.636 Y82.18 Z-1.136
N7090 X23.62 Y82.156 Z-1.145
N7095 X23.619 Y82.129 Z-1.154
N7100 X23.633 Y82.104 Z-1.163
N7105 X23.658 Y82.092 Z-1.172
N7110 X23.686 Y82.095 Z-1.181
N7115 X23.708 Y82.112 Z-1.19
N7120 X23.717 Y82.138 Z-1.199
N7125 X23.711 Y82.166 Z-1.208
N7130 X23.691 Y82.185 Z-1.217
N7135 X23.663 Y82.191 Z-1.226
N7140 X23.637 Y82.181 Z-1.235
N7145 X23.62 Y82.158 Z-1.244
N7150 X23.618 Y82.131 Z-1.253
N7155 X23.632 Y82.106 Z-1.262
N7160 X23.656 Y82.092 Z-1.271
N7165 X23.684 Y82.094 Z-1.28
N7170 X23.707 Y82.11 Z-1.289
N7175 X23.717 Y82.136 Z-1.299
N7180 X23.712 Y82.164 Z-1.308
N7185 X23.693 Y82.184 Z-1.317
N7190 X23.665 Y82.191 Z-1.326
N7195 X23.639 Y82.182 Z-1.335
N7200 X23.621 Y82.16 Z-1.344
N7205 X23.618 Y82.133 Z-1.353
N7210 X23.63 Y82.107 Z-1.362
N7215 X23.654 Y82.093 Z-1.371
N7220 X23.682 Z-1.38
N7225 X23.705 Y82.109 Z-1.389
N7230 X23.717 Y82.134 Z-1.398
N7235 X23.713 Y82.162 Z-1.407
N7240 X23.694 Y82.183 Z-1.416
N7245 X23.667 Y82.191 Z-1.425
N7250 X23.641 Y82.183 Z-1.434
N7255 X23.622 Y82.162 Z-1.443
N7260 X23.618 Y82.135 Z-1.452
N7265 X23.629 Y82.109 Z-1.461
N7270 X23.652 Y82.093 Z-1.47
N7275 X23.68 Z-1.479
N7280 X23.704 Y82.107 Z-1.488
N7285 X23.717 Y82.132 Z-1.497
N7290 X23.713 Y82.16 Z-1.506
N7295 X23.696 Y82.182 Z-1.515
N7300 X23.669 Y82.191 Z-1.524
N7305 X23.642 Y82.184 Z-1.533
N7310 X23.623 Y82.164 Z-1.542
N7315 X23.617 Y82.137 Z-1.551
N7320 X23.628 Y82.111 Z-1.56
N7325 X23.65 Y82.094 Z-1.569
N7330 X23.678 Y82.092 Z-1.578
N7335 X23.703 Y82.106 Z-1.588
N7340 X23.716 Y82.13 Z-1.597
N7345 X23.714 Y82.158 Z-1.606
N7350 X23.698 Y82.181 Z-1.615
N7355 X23.672 Y82.191 Z-1.624
N7360 X23.644 Y82.185 Z-1.633
N7365 X23.624 Y82.166 Z-1.642
N7370 X23.617 Y82.139 Z-1.651
N7375 X23.626 Y82.112 Z-1.66
N7380 X23.648 Y82.095 Z-1.669
N7385 X23.676 Y82.092 Z-1.678
N7390 X23.701 Y82.104 Z-1.687
N7395 X23.716 Y82.128 Z-1.696
N7400 X23.715 Y82.156 Z-1.705
N7405 X23.699 Y82.179 Z-1.714
N7410 X23.674 Y82.191 Z-1.723
N7415 X23.646 Y82.186 Z-1.732
N7420 X23.625 Y82.168 Z-1.741
N7425 X23.617 Y82.141 Z-1.75
N7430 X23.625 Y82.114 Z-1.759
N7435 X23.646 Y82.096 Z-1.768
N7440 X23.674 Y82.091 Z-1.777
N7445 X23.7 Y82.103 Z-1.786
N7450 X23.715 Y82.126 Z-1.795
N7455 X23.716 Y82.154 Z-1.804
N7460 X23.701 Y82.178 Z-1.813
N7465 X23.676 Y82.19 Z-1.822
N7470 X23.648 Y82.187 Z-1.831
N7475 X23.626 Y82.169 Z-1.84
N7480 X23.617 Y82.143 Z-1.849
N7485 X23.624 Y82.116 Z-1.858
N7490 X23.645 Y82.096 Z-1.867
N7495 X23.672 Y82.091 Z-1.877
N7500 X23.698 Y82.102 Z-1.886
N7505 X23.714 Y82.124 Z-1.895
N7510 X23.716 Y82.152 Z-1.904
N7515 X23.702 Y82.177 Z-1.913
N7520 X23.678 Y82.19 Z-1.922
N7525 X23.65 Y82.188 Z-1.931
N7530 X23.627 Y82.171 Z-1.94
N7535 X23.617 Y82.145 Z-1.949
N7540 X23.623 Y82.117 Z-1.958
N7545 X23.643 Y82.097 Z-1.967
N7550 X23.67 Y82.091 Z-1.976
N7555 X23.696 Y82.1 Z-1.985
N7560 X23.714 Y82.122 Z-1.994
N7565 X23.716 Y82.15 Z-2.003
N7570 X23.704 Y82.175 Z-2.012
N7575 X23.68 Y82.189 Z-2.021
N7580 X23.652 Z-2.03
N7585 X23.629 Y82.173 Z-2.039
N7590 X23.618 Y82.147 Z-2.048
N7595 X23.622 Y82.119 Z-2.057
N7600 X23.641 Y82.099 Z-2.066
N7605 X23.668 Y82.091 Z-2.075
N7610 X23.695 Y82.099 Z-2.084
N7615 X23.713 Y82.12 Z-2.093
N7620 X23.717 Y82.148 Z-2.102
N7625 X23.705 Y82.174 Z-2.111
N7630 X23.682 Y82.189 Z-2.12
N7635 X23.654 Z-2.129
N7640 X23.63 Y82.174 Z-2.138
N7645 X23.618 Y82.149 Z-2.147
N7650 X23.621 Y82.121 Z-2.156
N7655 X23.639 Y82.1 Z-2.166
N7660 X23.666 Y82.091 Z-2.175
N7665 X23.693 Y82.098 Z-2.184
N7670 X23.712 Y82.119 Z-2.193
N7675 X23.717 Y82.146 Z-2.202
N7680 X23.706 Y82.172 Z-2.211
N7685 X23.684 Y82.188 Z-2.22
N7690 X23.656 Y82.19 Z-2.229
N7695 X23.631 Y82.176 Z-2.238
N7700 X23.618 Y82.151 Z-2.247
N7705 X23.621 Y82.123 Z-2.256
N7710 X23.638 Y82.101 Z-2.265
N7715 X23.664 Y82.091 Z-2.274
N7720 X23.691 Y82.097 Z-2.283
N7725 X23.711 Y82.117 Z-2.292
N7730 X23.717 Y82.144 Z-2.301
N7735 X23.708 Y82.17 Z-2.31
N7740 X23.686 Y82.188 Z-2.319
N7745 X23.658 Y82.19 Z-2.328
N7750 X23.633 Y82.177 Z-2.337
N7755 X23.619 Y82.153 Z-2.346
N7760 X23.62 Y82.125 Z-2.355
N7765 X23.636 Y82.102 Z-2.364
N7770 X23.662 Y82.091 Z-2.373
N7775 X23.689 Y82.096 Z-2.382
N7780 X23.71 Y82.115 Z-2.391
N7785 X23.717 Y82.142 Z-2.4
N7790 X23.709 Y82.169 Z-2.409
N7795 X23.687 Y82.187 Z-2.418
N7800 X23.66 Y82.19 Z-2.427
N7805 X23.634 Y82.179 Z-2.436
N7810 X23.619 Y82.155 Z-2.445
N7815 Y82.127 Z-2.455
N7820 X23.634 Y82.103 Z-2.464
N7825 X23.66 Y82.092 Z-2.473
N7830 X23.687 Y82.095 Z-2.482
N7835 X23.709 Y82.113 Z-2.491
N7840 X23.717 Y82.14 Z-2.5
N7845 X23.71 Y82.167 Z-2.509
N7850 X23.689 Y82.186 Z-2.518
N7855 X23.662 Y82.191 Z-2.527
N7860 X23.636 Y82.18 Z-2.536
N7865 X23.62 Y82.157 Z-2.545
N7870 X23.619 Y82.129 Z-2.554
N7875 X23.633 Y82.105 Z-2.563
N7880 X23.658 Y82.092 Z-2.572
N7885 X23.686 Y82.094 Z-2.581
N7890 X23.708 Y82.112 Z-2.59
N7895 X23.717 Y82.138 Z-2.599
N7900 X23.711 Y82.165 Z-2.608
N7905 X23.691 Y82.185 Z-2.617
N7910 X23.664 Y82.191 Z-2.626
N7915 X23.638 Y82.181 Z-2.635
N7920 X23.621 Y82.159 Z-2.644
N7925 X23.618 Y82.131 Z-2.653
N7930 X23.631 Y82.106 Z-2.662
N7935 X23.656 Y82.092 Z-2.671
N7940 X23.684 Y82.094 Z-2.68
N7945 X23.706 Y82.11 Z-2.689
N7950 X23.717 Y82.136 Z-2.698
N7955 X23.712 Y82.163 Z-2.707
N7960 X23.693 Y82.184 Z-2.716
N7965 X23.666 Y82.191 Z-2.725
N7970 X23.639 Y82.182 Z-2.734
N7975 X23.621 Y82.161 Z-2.744
N7980 X23.618 Y82.133 Z-2.753
N7985 X23.63 Y82.108 Z-2.762
N7990 X23.654 Y82.093 Z-2.771
N7995 X23.682 Z-2.78
N8000 X23.705 Y82.108 Z-2.789
N8005 X23.717 Y82.134 Z-2.798
N8010 X23.713 Y82.162 Z-2.807
N8015 X23.695 Y82.183 Z-2.816
N8020 X23.668 Y82.191 Z-2.825
N8025 X23.641 Y82.184 Z-2.834
N8030 X23.622 Y82.163 Z-2.843
N8035 X23.618 Y82.135 Z-2.852
N8040 X23.629 Y82.109 Z-2.861
N8045 X23.652 Y82.094 Z-2.87
N8050 X23.68 Y82.093 Z-2.879
N8055 X23.704 Y82.107 Z-2.888
N8060 X23.716 Y82.132 Z-2.897
N8065 X23.714 Y82.16 Z-2.906
N8070 X23.696 Y82.182 Z-2.915
N8075 X23.67 Y82.191 Z-2.924
N8080 X23.643 Y82.185 Z-2.933
N8085 X23.623 Y82.165 Z-2.942
N8090 X23.617 Y82.137 Z-2.951
N8095 X23.627 Y82.111 Z-2.96
N8100 X23.65 Y82.094 Z-2.969
N8105 X23.678 Y82.092 Z-2.978
N8110 X23.702 Y82.105 Z-2.987
N8115 X23.716 Y82.13 Z-2.996
N8120 X23.714 Y82.158 Z-3.005
N8125 X23.698 Y82.18 Z-3.014
N8130 X23.672 Y82.191 Z-3.023
N8135 X23.645 Y82.186 Z-3.033
N8140 X23.624 Y82.166 Z-3.042
N8145 X23.617 Y82.139 Z-3.051
N8150 X23.626 Y82.113 Z-3.06
N8155 X23.648 Y82.095 Z-3.069
N8160 X23.676 Y82.092 Z-3.078
N8165 X23.701 Y82.104 Z-3.087
N8170 X23.716 Y82.128 Z-3.096
N8175 X23.715 Y82.156 Z-3.105
N8180 X23.7 Y82.179 Z-3.114
N8185 X23.674 Y82.191 Z-3.123
N8190 X23.646 Y82.186 Z-3.132
N8195 X23.625 Y82.168 Z-3.141
N8200 X23.617 Y82.141 Z-3.15
N8205 X23.625 Y82.114 Z-3.159
N8210 X23.646 Y82.096 Z-3.168
N8215 X23.674 Y82.091 Z-3.177
N8220 X23.699 Y82.103 Z-3.186
N8225 X23.715 Y82.126 Z-3.195
N8230 X23.716 Y82.154 Z-3.204
N8235 X23.701 Y82.178 Z-3.213
N8240 X23.676 Y82.19 Z-3.222
N8245 X23.648 Y82.187 Z-3.231
N8250 X23.626 Y82.17 Z-3.24
N8255 X23.617 Y82.143 Z-3.249
N8260 X23.624 Y82.116 Z-3.258
N8265 X23.644 Y82.097 Z-3.267
N8270 X23.672 Y82.091 Z-3.276
N8275 X23.698 Y82.101 Z-3.285
N8280 X23.714 Y82.124 Z-3.294
N8285 X23.716 Y82.152 Z-3.303
N8290 X23.703 Y82.176 Z-3.312
N8295 X23.678 Y82.19 Z-3.322
N8300 X23.65 Y82.188 Z-3.331
N8305 X23.628 Y82.171 Z-3.34
N8310 X23.617 Y82.145 Z-3.349
N8315 X23.623 Y82.118 Z-3.358
N8320 X23.642 Y82.098 Z-3.367
N8325 X23.669 Y82.091 Z-3.376
N8330 X23.696 Y82.1 Z-3.385
N8335 X23.713 Y82.122 Z-3.394
N8340 X23.717 Y82.15 Z-3.403
N8345 X23.704 Y82.175 Z-3.412
N8350 X23.68 Y82.189 Z-3.421
N8355 X23.652 Z-3.43
N8360 X23.629 Y82.173 Z-3.439
N8365 X23.618 Y82.147 Z-3.448
N8370 X23.622 Y82.12 Z-3.457
N8375 X23.641 Y82.099 Z-3.466
N8380 X23.667 Y82.091 Z-3.475
N8385 X23.694 Y82.099 Z-3.484
N8390 X23.713 Y82.12 Z-3.493
N8395 X23.717 Y82.148 Z-3.502
N8400 X23.705 Y82.173 Z-3.511
N8405 X23.682 Y82.189 Z-3.52
N8410 X23.654 Z-3.529
N8415 X23.63 Y82.175 Z-3.538
N8420 X23.618 Y82.149 Z-3.547
N8425 X23.621 Y82.122 Z-3.556
N8430 X23.639 Y82.1 Z-3.565
N8435 X23.665 Y82.091 Z-3.574
N8440 X23.693 Y82.098 Z-3.583
N8445 X23.712 Y82.118 Z-3.592
N8450 X23.717 Y82.146 Z-3.601
N8455 X23.707 Y82.172 Z-3.611
N8460 X23.684 Y82.188 Z-3.62
N8465 X23.656 Y82.19 Z-3.629
N8470 X23.632 Y82.176 Z-3.638
N8475 X23.618 Y82.152 Z-3.647
N8480 X23.62 Y82.124 Z-3.656
N8485 X23.637 Y82.101 Z-3.665
N8490 X23.663 Y82.091 Z-3.674
N8495 X23.691 Y82.097 Z-3.683
N8500 X23.711 Y82.116 Z-3.692
N8505 X23.717 Y82.144 Z-3.701
N8510 X23.708 Y82.17 Z-3.71
N8515 X23.686 Y82.187 Z-3.719
N8520 X23.658 Y82.19 Z-3.728
N8525 X23.633 Y82.178 Z-3.737
N8530 X23.619 Y82.154 Z-3.746
N8535 X23.62 Y82.126 Z-3.755
N8540 X23.636 Y82.102 Z-3.764
N8545 X23.661 Y82.091 Z-3.773
N8550 X23.689 Y82.096 Z-3.782
N8555 X23.71 Y82.115 Z-3.791
N8560 X23.717 Y82.142 Z-3.8
N8565 X23.709 Y82.168 Z-3.809
N8570 X23.688 Y82.187 Z-3.818
N8575 X23.66 Y82.191 Z-3.827
N8580 X23.635 Y82.179 Z-3.836
N8585 X23.619 Y82.156 Z-3.845
N8590 Y82.128 Z-3.854
N8595 X23.634 Y82.104 Z-3.863
N8600 X23.659 Y82.092 Z-3.872
N8605 X23.687 Y82.095 Z-3.881
N8610 X23.709 Y82.113 Z-3.89
N8615 X23.717 Y82.139 Z-3.9
N8620 X23.71 Y82.167 Z-3.909
N8625 X23.69 Y82.186 Z-3.918
N8630 X23.662 Y82.191 Z-3.927
N8635 X23.636 Y82.18 Z-3.936
N8640 X23.62 Y82.157 Z-3.945
N8645 X23.619 Y82.13 Z-3.954
N8650 X23.632 Y82.105 Z-3.963
N8655 X23.657 Y82.092 Z-3.972
N8660 X23.685 Y82.094 Z-3.981
N8665 X23.707 Y82.111 Z-3.99
N8670 X23.717 Y82.137 Z-3.999
N8675 X23.711 Y82.165 Z-4.008
N8680 X23.692 Y82.185 Z-4.017
N8685 X23.664 Y82.191 Z-4.026
N8690 X23.638 Y82.182 Z-4.035
N8695 X23.621 Y82.159 Z-4.044
N8700 X23.618 Y82.132 Z-4.053
N8705 X23.631 Y82.107 Z-4.062
N8710 X23.655 Y82.093 Z-4.071
N8715 X23.683 Y82.094 Z-4.08
N8720 X23.706 Y82.11 Z-4.089
N8725 X23.717 Y82.135 Z-4.098
N8730 X23.712 Y82.163 Z-4.107
N8735 X23.693 Y82.184 Z-4.116
N8740 X23.666 Y82.191 Z-4.125
N8745 X23.64 Y82.183 Z-4.134
N8750 X23.622 Y82.161 Z-4.143
N8755 X23.618 Y82.134 Z-4.152
N8760 X23.63 Y82.108 Z-4.161
N8765 X23.653 Y82.093 Z-4.17
N8770 X23.681 Z-4.179
N8775 X23.705 Y82.108 Z-4.189
N8780 X23.717 Y82.133 Z-4.198
N8785 X23.713 Y82.161 Z-4.207
N8790 X23.695 Y82.183 Z-4.216
N8795 X23.668 Y82.191 Z-4.225
N8800 X23.641 Y82.184 Z-4.234
N8805 X23.622 Y82.163 Z-4.243
N8810 X23.618 Y82.136 Z-4.252
N8815 X23.628 Y82.11 Z-4.261
N8820 X23.651 Y82.094 Z-4.27
N8825 X23.679 Y82.092 Z-4.279
N8830 X23.703 Y82.106 Z-4.288
N8835 X23.716 Y82.131 Z-4.297
N8840 X23.714 Y82.159 Z-4.306
N8845 X23.697 Y82.181 Z-4.315
N8850 X23.671 Y82.191 Z-4.324
N8855 X23.643 Y82.185 Z-4.333
N8860 X23.623 Y82.165 Z-4.342
N8865 X23.617 Y82.138 Z-4.351
N8870 X23.627 Y82.111 Z-4.36
N8875 X23.649 Y82.094 Z-4.369
N8880 X23.677 Y82.092 Z-4.378
N8885 X23.702 Y82.105 Z-4.387
N8890 X23.716 Y82.129 Z-4.396
N8895 X23.715 Y82.157 Z-4.405
N8900 X23.698 Y82.18 Z-4.414
N8905 X23.673 Y82.191 Z-4.423
N8910 X23.645 Y82.186 Z-4.432
N8915 X23.624 Y82.167 Z-4.441
N8920 X23.617 Y82.14 Z-4.45
N8925 X23.626 Y82.113 Z-4.459
N8930 X23.647 Y82.095 Z-4.468
N8935 X23.675 Y82.092 Z-4.478
N8940 X23.7 Y82.104 Z-4.487
N8945 X23.715 Y82.127 Z-4.496
N8950 Y82.155 Z-4.505
N8955 X23.7 Y82.179 Z-4.514
N8960 X23.675 Y82.19 Z-4.523
N8965 X23.647 Y82.187 Z-4.532
N8970 X23.626 Y82.169 Z-4.541
N8975 X23.617 Y82.142 Z-4.55
N8980 X23.625 Y82.115 Z-4.559
N8985 X23.645 Y82.096 Z-4.568
N8990 X23.673 Y82.091 Z-4.577
N8995 X23.699 Y82.102 Z-4.586
N9000 X23.715 Y82.125 Z-4.595
N9005 X23.716 Y82.153 Z-4.604
N9010 X23.702 Y82.177 Z-4.613
N9015 X23.677 Y82.19 Z-4.622
N9020 X23.649 Y82.187 Z-4.631
N9025 X23.627 Y82.17 Z-4.64
N9030 X23.617 Y82.144 Z-4.649
N9035 X23.624 Y82.117 Z-4.658
N9040 X23.644 Y82.097 Z-4.667
N9045 X23.671 Y82.091 Z-4.676
N9050 X23.697 Y82.101 Z-4.685
N9055 X23.714 Y82.123 Z-4.694
N9060 X23.716 Y82.151 Z-4.703
N9065 X23.703 Y82.176 Z-4.712
N9070 X23.679 Y82.19 Z-4.721
N9075 X23.651 Y82.188 Z-4.73
N9080 X23.628 Y82.172 Z-4.739
N9085 X23.618 Y82.146 Z-4.748
N9090 X23.623 Y82.118 Z-4.757
N9095 X23.642 Y82.098 Z-4.767
N9100 X23.669 Y82.091 Z-4.776
N9105 X23.696 Y82.1 Z-4.785
N9110 X23.713 Y82.121 Z-4.794
N9115 X23.717 Y82.149 Z-4.803
N9120 X23.704 Y82.174 Z-4.812
N9125 X23.681 Y82.189 Z-4.821
N9130 X23.653 Z-4.83
N9135 X23.629 Y82.173 Z-4.839
N9140 X23.618 Y82.148 Z-4.848
N9145 X23.622 Y82.12 Z-4.857
N9150 X23.64 Y82.099 Z-4.866
N9155 X23.667 Y82.091 Z-4.875
N9160 X23.694 Y82.099 Z-4.884
N9165 X23.712 Y82.12 Z-4.893
N9170 X23.717 Y82.147 Z-4.902
N9175 X23.706 Y82.173 Z-4.911
N9180 X23.683 Y82.189 Z-4.92
N9185 X23.655 Z-4.929
N9190 X23.631 Y82.175 Z-4.938
N9195 X23.618 Y82.15 Z-4.947
N9200 X23.621 Y82.122 Z-4.956
N9205 X23.638 Y82.1 Z-4.965
N9210 X23.665 Y82.091 Z-4.974
N9215 X23.692 Y82.098 Z-4.983
N9220 X23.712 Y82.118 Z-4.992
N9225 X23.717 Y82.145 Z-5.001
N9230 X23.707 Y82.171 Z-5.01
N9235 X23.685 Y82.188 Z-5.019
N9240 X23.657 Y82.19 Z-5.028
N9245 X23.632 Y82.177 Z-5.037
N9250 X23.619 Y82.152 Z-5.046
N9255 X23.62 Y82.124 Z-5.056
N9260 X23.637 Y82.101 Z-5.065
N9265 X23.663 Y82.091 Z-5.074
N9270 X23.69 Y82.097 Z-5.083
N9275 X23.711 Y82.116 Z-5.092
N9280 X23.717 Y82.143 Z-5.101
N9285 X23.708 Y82.17 Z-5.11
N9290 X23.687 Y82.187 Z-5.119
N9295 X23.659 Y82.19 Z-5.128
N9300 X23.634 Y82.178 Z-5.137
N9305 X23.619 Y82.154 Z-5.146
N9310 X23.62 Y82.126 Z-5.155
N9315 X23.635 Y82.103 Z-5.164
N9320 X23.661 Y82.091 Z-5.173
N9325 X23.688 Y82.096 Z-5.182
N9330 X23.709 Y82.114 Z-5.191
N9335 X23.717 Y82.141 Z-5.2
N9340 G3 X23.617 I-0.05
N9345 X23.717 I0.05
N9350 G1 X23.71 Y82.159
N9355 X23.692 Y82.166
N9360 X23.667 Y82.141
N9365 G0 Z2.3
N9370 X29.782 Y79.233
N9375 Z2
N9380 G1 Z0.3 F50
N9385 X29.757 Y79.258
N9390 X29.74 Y79.25
N9395 X29.732 Y79.233
N9400 X29.74 Y79.206 Z0.291 F800
N9405 X29.761 Y79.187 Z0.282
N9410 X29.789 Y79.183 Z0.273
N9415 X29.814 Y79.194 Z0.264
N9420 X29.83 Y79.218 Z0.255
N9425 X29.831 Y79.246 Z0.246
N9430 X29.816 Y79.269 Z0.237
N9435 X29.791 Y79.282 Z0.228
N9440 X29.763 Y79.279 Z0.219
N9445 X29.741 Y79.261 Z0.21
N9450 X29.732 Y79.235 Z0.201
N9455 X29.739 Y79.207 Z0.192
N9460 X29.759 Y79.188 Z0.183
N9465 X29.787 Y79.183 Z0.174
N9470 X29.813 Y79.193 Z0.165
N9475 X29.829 Y79.216 Z0.156
N9480 X29.831 Y79.244 Z0.146
N9485 X29.818 Y79.268 Z0.137
N9490 X29.793 Y79.281 Z0.128
N9495 X29.765 Y79.279 Z0.119
N9500 X29.742 Y79.263 Z0.11
N9505 X29.732 Y79.237 Z0.101
N9510 X29.738 Y79.209 Z0.092
N9515 X29.758 Y79.189 Z0.083
N9520 X29.785 Y79.183 Z0.074
N9525 X29.811 Y79.192 Z0.065
N9530 X29.829 Y79.214 Z0.056
N9535 X29.831 Y79.241 Z0.047
N9540 X29.819 Y79.267 Z0.038
N9545 X29.795 Y79.281 Z0.029
N9550 X29.767 Y79.28 Z0.02
N9555 X29.744 Y79.264 Z0.011
N9560 X29.733 Y79.239 Z0.002
N9565 X29.737 Y79.211 Z-0.007
N9570 X29.756 Y79.19 Z-0.016
N9575 X29.783 Y79.183 Z-0.025
N9580 X29.809 Y79.191 Z-0.034
N9585 X29.828 Y79.212 Z-0.043
N9590 X29.832 Y79.239 Z-0.052
N9595 X29.82 Y79.265 Z-0.061
N9600 X29.797 Y79.28 Z-0.07
N9605 X29.769 Y79.281 Z-0.079
N9610 X29.745 Y79.266 Z-0.088
N9615 X29.733 Y79.241 Z-0.097
N9620 X29.736 Y79.213 Z-0.106
N9625 X29.754 Y79.191 Z-0.115
N9630 X29.781 Y79.183 Z-0.124
N9635 X29.808 Y79.189 Z-0.133
N9640 X29.827 Y79.21 Z-0.143
N9645 X29.832 Y79.237 Z-0.152
N9650 X29.822 Y79.263 Z-0.161
N9655 X29.799 Y79.28 Z-0.17
N9660 X29.771 Y79.281 Z-0.179
N9665 X29.747 Y79.267 Z-0.188
N9670 X29.733 Y79.243 Z-0.197
N9675 X29.736 Y79.215 Z-0.206
N9680 X29.752 Y79.192 Z-0.215
N9685 X29.779 Y79.183 Z-0.224
N9690 X29.806 Y79.188 Z-0.233
N9695 X29.826 Y79.208 Z-0.242
N9700 X29.832 Y79.235 Z-0.251
N9705 X29.823 Y79.262 Z-0.26
N9710 X29.801 Y79.279 Z-0.269
N9715 X29.773 Y79.282 Z-0.278
N9720 X29.748 Y79.269 Z-0.287
N9725 X29.734 Y79.245 Z-0.296
N9730 X29.735 Y79.217 Z-0.305
N9735 X29.751 Y79.194 Z-0.314
N9740 X29.777 Y79.183 Z-0.323
N9745 X29.804 Y79.188 Z-0.332
N9750 X29.825 Y79.206 Z-0.341
N9755 X29.832 Y79.233 Z-0.35
N9760 X29.824 Y79.26 Z-0.359
N9765 X29.803 Y79.278 Z-0.368
N9770 X29.775 Y79.282 Z-0.377
N9775 X29.75 Y79.27 Z-0.386
N9780 X29.734 Y79.247 Z-0.395
N9785 Y79.219 Z-0.404
N9790 X29.749 Y79.195 Z-0.413
N9795 X29.774 Y79.183 Z-0.422
N9800 X29.802 Y79.187 Z-0.432
N9805 X29.824 Y79.205 Z-0.441
N9810 X29.832 Y79.231 Z-0.45
N9815 X29.825 Y79.258 Z-0.459
N9820 X29.805 Y79.277 Z-0.468
N9825 X29.777 Y79.282 Z-0.477
N9830 X29.751 Y79.272 Z-0.486
N9835 X29.735 Y79.249 Z-0.495
N9840 X29.734 Y79.221 Z-0.504
N9845 X29.748 Y79.196 Z-0.513
N9850 X29.772 Y79.183 Z-0.522
N9855 X29.8 Y79.186 Z-0.531
N9860 X29.823 Y79.203 Z-0.54
N9865 X29.832 Y79.229 Z-0.549
N9870 X29.826 Y79.256 Z-0.558
N9875 X29.806 Y79.276 Z-0.567
N9880 X29.779 Y79.282 Z-0.576
N9885 X29.753 Y79.273 Z-0.585
N9890 X29.736 Y79.251 Z-0.594
N9895 X29.733 Y79.223 Z-0.603
N9900 X29.746 Y79.198 Z-0.612
N9905 X29.77 Y79.184 Z-0.621
N9910 X29.798 Y79.185 Z-0.63
N9915 X29.821 Y79.201 Z-0.639
N9920 X29.832 Y79.227 Z-0.648
N9925 X29.827 Y79.255 Z-0.657
N9930 X29.808 Y79.275 Z-0.666
N9935 X29.781 Y79.282 Z-0.675
N9940 X29.754 Y79.274 Z-0.684
N9945 X29.736 Y79.253 Z-0.693
N9950 X29.733 Y79.225 Z-0.702
N9955 X29.745 Y79.199 Z-0.711
N9960 X29.768 Y79.184 Z-0.721
N9965 X29.796 Y79.185 Z-0.73
N9970 X29.82 Y79.2 Z-0.739
N9975 X29.832 Y79.225 Z-0.748
N9980 X29.828 Y79.253 Z-0.757
N9985 X29.81 Y79.274 Z-0.766
N9990 X29.783 Y79.282 Z-0.775
N9995 X29.756 Y79.275 Z-0.784
N10000 X29.737 Y79.254 Z-0.793
N10005 X29.733 Y79.227 Z-0.802
N10010 X29.743 Y79.201 Z-0.811
N10015 X29.766 Y79.185 Z-0.82
N10020 X29.794 Y79.184 Z-0.829
N10025 X29.819 Y79.198 Z-0.838
N10030 X29.831 Y79.223 Z-0.847
N10035 X29.829 Y79.251 Z-0.856
N10040 X29.812 Y79.273 Z-0.865
N10045 X29.785 Y79.282 Z-0.874
N10050 X29.758 Y79.276 Z-0.883
N10055 X29.738 Y79.256 Z-0.892
N10060 X29.732 Y79.229 Z-0.901
N10065 X29.742 Y79.203 Z-0.91
N10070 X29.765 Y79.186 Z-0.919
N10075 X29.792 Y79.184 Z-0.928
N10080 X29.817 Y79.197 Z-0.937
N10085 X29.831 Y79.221 Z-0.946
N10090 X29.83 Y79.249 Z-0.955
N10095 X29.813 Y79.272 Z-0.964
N10100 X29.787 Y79.282 Z-0.973
N10105 X29.76 Y79.277 Z-0.982
N10110 X29.739 Y79.258 Z-0.991
N10115 X29.732 Y79.231 Z-1
N10120 X29.741 Y79.204 Z-1.01
N10125 X29.763 Y79.187 Z-1.019
N10130 X29.79 Y79.183 Z-1.028
N10135 X29.816 Y79.195 Z-1.037
N10140 X29.83 Y79.219 Z-1.046
N10145 Y79.247 Z-1.055
N10150 X29.815 Y79.27 Z-1.064
N10155 X29.789 Y79.282 Z-1.073
N10160 X29.762 Y79.278 Z-1.082
N10165 X29.74 Y79.26 Z-1.091
N10170 X29.732 Y79.233 Z-1.1
N10175 X29.74 Y79.206 Z-1.109
N10180 X29.761 Y79.187 Z-1.118
N10185 X29.788 Y79.183 Z-1.127
N10190 X29.814 Y79.194 Z-1.136
N10195 X29.83 Y79.217 Z-1.145
N10200 X29.831 Y79.245 Z-1.154
N10205 X29.816 Y79.269 Z-1.163
N10210 X29.791 Y79.282 Z-1.172
N10215 X29.764 Y79.279 Z-1.181
N10220 X29.742 Y79.262 Z-1.19
N10225 X29.732 Y79.235 Z-1.199
N10230 X29.739 Y79.208 Z-1.208
N10235 X29.759 Y79.188 Z-1.217
N10240 X29.786 Y79.183 Z-1.226
N10245 X29.812 Y79.193 Z-1.235
N10250 X29.829 Y79.215 Z-1.244
N10255 X29.831 Y79.243 Z-1.253
N10260 X29.818 Y79.268 Z-1.262
N10265 X29.793 Y79.281 Z-1.271
N10270 X29.765 Y79.28 Z-1.28
N10275 X29.743 Y79.263 Z-1.289
N10280 X29.733 Y79.237 Z-1.299
N10285 X29.738 Y79.21 Z-1.308
N10290 X29.757 Y79.189 Z-1.317
N10295 X29.784 Y79.183 Z-1.326
N10300 X29.811 Y79.191 Z-1.335
N10305 X29.828 Y79.213 Z-1.344
N10310 X29.832 Y79.241 Z-1.353
N10315 X29.819 Y79.266 Z-1.362
N10320 X29.795 Y79.281 Z-1.371
N10325 X29.767 Y79.28 Z-1.38
N10330 X29.744 Y79.265 Z-1.389
N10335 X29.733 Y79.239 Z-1.398
N10340 X29.737 Y79.212 Z-1.407
N10345 X29.755 Y79.19 Z-1.416
N10350 X29.782 Y79.183 Z-1.425
N10355 X29.809 Y79.19 Z-1.434
N10360 X29.828 Y79.211 Z-1.443
N10365 X29.832 Y79.239 Z-1.452
N10370 X29.821 Y79.265 Z-1.461
N10375 X29.797 Y79.28 Z-1.47
N10380 X29.769 Y79.281 Z-1.479
N10385 X29.745 Y79.266 Z-1.488
N10390 X29.733 Y79.241 Z-1.497
N10395 X29.736 Y79.213 Z-1.506
N10400 X29.754 Y79.192 Z-1.515
N10405 X29.78 Y79.183 Z-1.524
N10410 X29.807 Y79.189 Z-1.533
N10415 X29.827 Y79.209 Z-1.542
N10420 X29.832 Y79.237 Z-1.551
N10425 X29.822 Y79.263 Z-1.56
N10430 X29.799 Y79.28 Z-1.569
N10435 X29.771 Y79.281 Z-1.578
N10440 X29.747 Y79.268 Z-1.588
N10445 X29.733 Y79.243 Z-1.597
N10450 X29.735 Y79.215 Z-1.606
N10455 X29.752 Y79.193 Z-1.615
N10460 X29.778 Y79.183 Z-1.624
N10465 X29.805 Y79.188 Z-1.633
N10470 X29.826 Y79.208 Z-1.642
N10475 X29.832 Y79.235 Z-1.651
N10480 X29.823 Y79.261 Z-1.66
N10485 X29.801 Y79.279 Z-1.669
N10490 X29.773 Y79.282 Z-1.678
N10495 X29.748 Y79.269 Z-1.687
N10500 X29.734 Y79.245 Z-1.696
N10505 X29.735 Y79.217 Z-1.705
N10510 X29.75 Y79.194 Z-1.714
N10515 X29.776 Y79.183 Z-1.723
N10520 X29.804 Y79.187 Z-1.732
N10525 X29.825 Y79.206 Z-1.741
N10530 X29.832 Y79.233 Z-1.75
N10535 X29.824 Y79.26 Z-1.759
N10540 X29.803 Y79.278 Z-1.768
N10545 X29.775 Y79.282 Z-1.777
N10550 X29.75 Y79.271 Z-1.786
N10555 X29.735 Y79.247 Z-1.795
N10560 X29.734 Y79.219 Z-1.804
N10565 X29.749 Y79.195 Z-1.813
N10570 X29.774 Y79.183 Z-1.822
N10575 X29.802 Y79.186 Z-1.831
N10580 X29.823 Y79.204 Z-1.84
N10585 X29.832 Y79.231 Z-1.849
N10590 X29.825 Y79.258 Z-1.858
N10595 X29.805 Y79.277 Z-1.867
N10600 X29.778 Y79.282 Z-1.877
N10605 X29.752 Y79.272 Z-1.886
N10610 X29.735 Y79.249 Z-1.895
N10615 X29.734 Y79.221 Z-1.904
N10620 X29.747 Y79.197 Z-1.913
N10625 X29.772 Y79.184 Z-1.922
N10630 X29.8 Y79.186 Z-1.931
N10635 X29.822 Y79.202 Z-1.94
N10640 X29.832 Y79.229 Z-1.949
N10645 X29.826 Y79.256 Z-1.958
N10650 X29.807 Y79.276 Z-1.967
N10655 X29.78 Y79.282 Z-1.976
N10660 X29.753 Y79.273 Z-1.985
N10665 X29.736 Y79.251 Z-1.994
N10670 X29.733 Y79.223 Z-2.003
N10675 X29.746 Y79.198 Z-2.012
N10680 X29.77 Y79.184 Z-2.021
N10685 X29.798 Y79.185 Z-2.03
N10690 X29.821 Y79.201 Z-2.039
N10695 X29.832 Y79.227 Z-2.048
N10700 X29.827 Y79.254 Z-2.057
N10705 X29.809 Y79.275 Z-2.066
N10710 X29.782 Y79.283 Z-2.075
N10715 X29.755 Y79.274 Z-2.084
N10720 X29.737 Y79.253 Z-2.093
N10725 X29.733 Y79.225 Z-2.102
N10730 X29.744 Y79.2 Z-2.111
N10735 X29.768 Y79.185 Z-2.12
N10740 X29.796 Y79.184 Z-2.129
N10745 X29.82 Y79.199 Z-2.138
N10750 X29.832 Y79.225 Z-2.147
N10755 X29.828 Y79.252 Z-2.156
N10760 X29.81 Y79.274 Z-2.166
N10765 X29.784 Y79.282 Z-2.175
N10770 X29.757 Y79.275 Z-2.184
N10775 X29.738 Y79.255 Z-2.193
N10780 X29.733 Y79.227 Z-2.202
N10785 X29.743 Y79.201 Z-2.211
N10790 X29.766 Y79.185 Z-2.22
N10795 X29.794 Y79.184 Z-2.229
N10800 X29.818 Y79.198 Z-2.238
N10805 X29.831 Y79.223 Z-2.247
N10810 X29.829 Y79.25 Z-2.256
N10815 X29.812 Y79.273 Z-2.265
N10820 X29.786 Y79.282 Z-2.274
N10825 X29.758 Y79.276 Z-2.283
N10830 X29.739 Y79.257 Z-2.292
N10835 X29.732 Y79.229 Z-2.301
N10840 X29.742 Y79.203 Z-2.31
N10845 X29.764 Y79.186 Z-2.319
N10850 X29.792 Y79.183 Z-2.328
N10855 X29.817 Y79.196 Z-2.337
N10860 X29.831 Y79.221 Z-2.346
N10865 X29.83 Y79.248 Z-2.355
N10870 X29.814 Y79.271 Z-2.364
N10875 X29.788 Y79.282 Z-2.373
N10880 X29.76 Y79.277 Z-2.382
N10885 X29.74 Y79.259 Z-2.391
N10890 X29.732 Y79.231 Z-2.4
N10895 X29.741 Y79.205 Z-2.409
N10900 X29.762 Y79.187 Z-2.418
N10905 X29.79 Y79.183 Z-2.427
N10910 X29.815 Y79.195 Z-2.436
N10915 X29.83 Y79.219 Z-2.445
N10920 Y79.247 Z-2.455
N10925 X29.815 Y79.27 Z-2.464
N10930 X29.79 Y79.282 Z-2.473
N10935 X29.762 Y79.278 Z-2.482
N10940 X29.741 Y79.26 Z-2.491
N10945 X29.732 Y79.234 Z-2.5
N10950 X29.74 Y79.207 Z-2.509
N10955 X29.76 Y79.188 Z-2.518
N10960 X29.788 Y79.183 Z-2.527
N10965 X29.814 Y79.194 Z-2.536
N10970 X29.83 Y79.217 Z-2.545
N10975 X29.831 Y79.245 Z-2.554
N10980 X29.817 Y79.269 Z-2.563
N10985 X29.792 Y79.282 Z-2.572
N10990 X29.764 Y79.279 Z-2.581
N10995 X29.742 Y79.262 Z-2.59
N11000 X29.732 Y79.236 Z-2.599
N11005 X29.739 Y79.208 Z-2.608
N11010 X29.758 Y79.189 Z-2.617
N11015 X29.786 Y79.183 Z-2.626
N11020 X29.812 Y79.192 Z-2.635
N11025 X29.829 Y79.215 Z-2.644
N11030 X29.831 Y79.242 Z-2.653
N11035 X29.818 Y79.267 Z-2.662
N11040 X29.794 Y79.281 Z-2.671
N11045 X29.766 Y79.28 Z-2.68
N11050 X29.743 Y79.264 Z-2.689
N11055 X29.733 Y79.238 Z-2.698
N11060 X29.738 Y79.21 Z-2.707
N11065 X29.757 Y79.19 Z-2.716
N11070 X29.784 Y79.183 Z-2.725
N11075 X29.81 Y79.191 Z-2.734
N11080 X29.828 Y79.213 Z-2.744
N11085 X29.832 Y79.24 Z-2.753
N11090 X29.82 Y79.266 Z-2.762
N11095 X29.796 Y79.281 Z-2.771
N11100 X29.768 Y79.28 Z-2.78
N11105 X29.744 Y79.265 Z-2.789
N11110 X29.733 Y79.24 Z-2.798
N11115 X29.737 Y79.212 Z-2.807
N11120 X29.755 Y79.191 Z-2.816
N11125 X29.782 Y79.183 Z-2.825
N11130 X29.809 Y79.19 Z-2.834
N11135 X29.827 Y79.211 Z-2.843
N11140 X29.832 Y79.238 Z-2.852
N11145 X29.821 Y79.264 Z-2.861
N11150 X29.798 Y79.28 Z-2.87
N11155 X29.77 Y79.281 Z-2.879
N11160 X29.746 Y79.267 Z-2.888
N11165 X29.733 Y79.242 Z-2.897
N11170 X29.736 Y79.214 Z-2.906
N11175 X29.753 Y79.192 Z-2.915
N11180 X29.78 Y79.183 Z-2.924
N11185 X29.807 Y79.189 Z-2.933
N11190 X29.826 Y79.209 Z-2.942
N11195 X29.832 Y79.236 Z-2.951
N11200 X29.822 Y79.263 Z-2.96
N11205 X29.8 Y79.279 Z-2.969
N11210 X29.772 Y79.281 Z-2.978
N11215 X29.747 Y79.268 Z-2.987
N11220 X29.734 Y79.244 Z-2.996
N11225 X29.735 Y79.216 Z-3.005
N11230 X29.752 Y79.193 Z-3.014
N11235 X29.778 Y79.183 Z-3.023
N11240 X29.805 Y79.188 Z-3.033
N11245 X29.825 Y79.207 Z-3.042
N11250 X29.832 Y79.234 Z-3.051
N11255 X29.823 Y79.261 Z-3.06
N11260 X29.802 Y79.279 Z-3.069
N11265 X29.774 Y79.282 Z-3.078
N11270 X29.749 Y79.27 Z-3.087
N11275 X29.734 Y79.246 Z-3.096
N11280 X29.735 Y79.218 Z-3.105
N11285 X29.75 Y79.194 Z-3.114
N11290 X29.775 Y79.183 Z-3.123
N11295 X29.803 Y79.187 Z-3.132
N11300 X29.824 Y79.205 Z-3.141
N11305 X29.832 Y79.232 Z-3.15
N11310 X29.825 Y79.259 Z-3.159
N11315 X29.804 Y79.278 Z-3.168
N11320 X29.776 Y79.282 Z-3.177
N11325 X29.75 Y79.271 Z-3.186
N11330 X29.735 Y79.248 Z-3.195
N11335 X29.734 Y79.22 Z-3.204
N11340 X29.748 Y79.196 Z-3.213
N11345 X29.773 Y79.183 Z-3.222
N11350 X29.801 Y79.186 Z-3.231
N11355 X29.823 Y79.204 Z-3.24
N11360 X29.832 Y79.23 Z-3.249
N11365 X29.826 Y79.257 Z-3.258
N11370 X29.805 Y79.277 Z-3.267
N11375 X29.778 Y79.282 Z-3.276
N11380 X29.752 Y79.272 Z-3.285
N11385 X29.735 Y79.25 Z-3.294
N11390 X29.733 Y79.222 Z-3.303
N11395 X29.747 Y79.197 Z-3.312
N11400 X29.771 Y79.184 Z-3.322
N11405 X29.799 Y79.186 Z-3.331
N11410 X29.822 Y79.202 Z-3.34
N11415 X29.832 Y79.228 Z-3.349
N11420 X29.827 Y79.256 Z-3.358
N11425 X29.807 Y79.276 Z-3.367
N11430 X29.78 Y79.282 Z-3.376
N11435 X29.754 Y79.273 Z-3.385
N11440 X29.736 Y79.252 Z-3.394
N11445 X29.733 Y79.224 Z-3.403
N11450 X29.745 Y79.199 Z-3.412
N11455 X29.769 Y79.184 Z-3.421
N11460 X29.797 Y79.185 Z-3.43
N11465 X29.821 Y79.2 Z-3.439
N11470 X29.832 Y79.226 Z-3.448
N11475 X29.828 Y79.254 Z-3.457
N11480 X29.809 Y79.275 Z-3.466
N11485 X29.782 Y79.283 Z-3.475
N11490 X29.755 Y79.275 Z-3.484
N11495 X29.737 Y79.253 Z-3.493
N11500 X29.733 Y79.226 Z-3.502
N11505 X29.744 Y79.2 Z-3.511
N11510 X29.767 Y79.185 Z-3.52
N11515 X29.795 Y79.184 Z-3.529
N11520 X29.819 Y79.199 Z-3.538
N11525 X29.832 Y79.224 Z-3.547
N11530 X29.828 Y79.252 Z-3.556
N11535 X29.811 Y79.274 Z-3.565
N11540 X29.784 Y79.282 Z-3.574
N11545 X29.757 Y79.276 Z-3.583
N11550 X29.738 Y79.255 Z-3.592
N11555 X29.733 Y79.228 Z-3.601
N11560 X29.743 Y79.202 Z-3.611
N11565 X29.765 Y79.185 Z-3.62
N11570 X29.793 Y79.184 Z-3.629
N11575 X29.818 Y79.197 Z-3.638
N11580 X29.831 Y79.222 Z-3.647
N11585 X29.829 Y79.25 Z-3.656
N11590 X29.812 Y79.272 Z-3.665
N11595 X29.786 Y79.282 Z-3.674
N11600 X29.759 Y79.277 Z-3.683
N11605 X29.739 Y79.257 Z-3.692
N11610 X29.732 Y79.23 Z-3.701
N11615 X29.742 Y79.203 Z-3.71
N11620 X29.764 Y79.186 Z-3.719
N11625 X29.791 Y79.183 Z-3.728
N11630 X29.816 Y79.196 Z-3.737
N11635 X29.831 Y79.22 Z-3.746
N11640 X29.83 Y79.248 Z-3.755
N11645 X29.814 Y79.271 Z-3.764
N11650 X29.788 Y79.282 Z-3.773
N11655 X29.761 Y79.278 Z-3.782
N11660 X29.74 Y79.259 Z-3.791
N11665 X29.732 Y79.232 Z-3.8
N11670 X29.74 Y79.205 Z-3.809
N11675 X29.762 Y79.187 Z-3.818
N11680 X29.789 Y79.183 Z-3.827
N11685 X29.815 Y79.195 Z-3.836
N11690 X29.83 Y79.218 Z-3.845
N11695 Y79.246 Z-3.854
N11700 X29.816 Y79.27 Z-3.863
N11705 X29.79 Y79.282 Z-3.872
N11710 X29.763 Y79.278 Z-3.881
N11715 X29.741 Y79.261 Z-3.89
N11720 X29.732 Y79.234 Z-3.9
N11725 X29.739 Y79.207 Z-3.909
N11730 X29.76 Y79.188 Z-3.918
N11735 X29.787 Y79.183 Z-3.927
N11740 X29.813 Y79.193 Z-3.936
N11745 X29.83 Y79.216 Z-3.945
N11750 X29.831 Y79.244 Z-3.954
N11755 X29.817 Y79.268 Z-3.963
N11760 X29.792 Y79.281 Z-3.972
N11765 X29.765 Y79.279 Z-3.981
N11770 X29.742 Y79.262 Z-3.99
N11775 X29.732 Y79.236 Z-3.999
N11780 X29.738 Y79.209 Z-4.008
N11785 X29.758 Y79.189 Z-4.017
N11790 X29.785 Y79.183 Z-4.026
N11795 X29.812 Y79.192 Z-4.035
N11800 X29.829 Y79.214 Z-4.044
N11805 X29.831 Y79.242 Z-4.053
N11810 X29.819 Y79.267 Z-4.062
N11815 X29.794 Y79.281 Z-4.071
N11820 X29.766 Y79.28 Z-4.08
N11825 X29.743 Y79.264 Z-4.089
N11830 X29.733 Y79.238 Z-4.098
N11835 X29.737 Y79.211 Z-4.107
N11840 X29.756 Y79.19 Z-4.116
N11845 X29.783 Y79.183 Z-4.125
N11850 X29.81 Y79.191 Z-4.134
N11855 X29.828 Y79.212 Z-4.143
N11860 X29.832 Y79.24 Z-4.152
N11865 X29.82 Y79.265 Z-4.161
N11870 X29.796 Y79.28 Z-4.17
N11875 X29.768 Y79.281 Z-4.179
N11880 X29.745 Y79.266 Z-4.189
N11885 X29.733 Y79.24 Z-4.198
N11890 X29.736 Y79.212 Z-4.207
N11895 X29.754 Y79.191 Z-4.216
N11900 X29.781 Y79.183 Z-4.225
N11905 X29.808 Y79.19 Z-4.234
N11910 X29.827 Y79.21 Z-4.243
N11915 X29.832 Y79.238 Z-4.252
N11920 X29.821 Y79.264 Z-4.261
N11925 X29.798 Y79.28 Z-4.27
N11930 X29.77 Y79.281 Z-4.279
N11935 X29.746 Y79.267 Z-4.288
N11940 X29.733 Y79.242 Z-4.297
N11945 X29.736 Y79.214 Z-4.306
N11950 X29.753 Y79.192 Z-4.315
N11955 X29.779 Y79.183 Z-4.324
N11960 X29.806 Y79.189 Z-4.333
N11965 X29.826 Y79.209 Z-4.342
N11970 X29.832 Y79.236 Z-4.351
N11975 X29.823 Y79.262 Z-4.36
N11980 X29.8 Y79.279 Z-4.369
N11985 X29.772 Y79.282 Z-4.378
N11990 X29.748 Y79.269 Z-4.387
N11995 X29.734 Y79.244 Z-4.396
N12000 X29.735 Y79.216 Z-4.405
N12005 X29.751 Y79.193 Z-4.414
N12010 X29.777 Y79.183 Z-4.423
N12015 X29.805 Y79.188 Z-4.432
N12020 X29.825 Y79.207 Z-4.441
N12025 X29.832 Y79.234 Z-4.45
N12030 X29.824 Y79.26 Z-4.459
N12035 X29.802 Y79.278 Z-4.468
N12040 X29.774 Y79.282 Z-4.478
N12045 X29.749 Y79.27 Z-4.487
N12050 X29.734 Y79.246 Z-4.496
N12055 Y79.218 Z-4.505
N12060 X29.75 Y79.195 Z-4.514
N12065 X29.775 Y79.183 Z-4.523
N12070 X29.803 Y79.187 Z-4.532
N12075 X29.824 Y79.205 Z-4.541
N12080 X29.832 Y79.232 Z-4.55
N12085 X29.825 Y79.259 Z-4.559
N12090 X29.804 Y79.277 Z-4.568
N12095 X29.777 Y79.282 Z-4.577
N12100 X29.751 Y79.271 Z-4.586
N12105 X29.735 Y79.248 Z-4.595
N12110 X29.734 Y79.22 Z-4.604
N12115 X29.748 Y79.196 Z-4.613
N12120 X29.773 Y79.183 Z-4.622
N12125 X29.801 Y79.186 Z-4.631
N12130 X29.823 Y79.203 Z-4.64
N12135 X29.832 Y79.23 Z-4.649
N12140 X29.826 Y79.257 Z-4.658
N12145 X29.806 Y79.277 Z-4.667
N12150 X29.779 Y79.282 Z-4.676
N12155 X29.752 Y79.273 Z-4.685
N12160 X29.736 Y79.25 Z-4.694
N12165 X29.733 Y79.222 Z-4.703
N12170 X29.747 Y79.198 Z-4.712
N12175 X29.771 Y79.184 Z-4.721
N12180 X29.799 Y79.185 Z-4.73
N12185 X29.822 Y79.202 Z-4.739
N12190 X29.832 Y79.228 Z-4.748
N12195 X29.827 Y79.255 Z-4.757
N12200 X29.808 Y79.276 Z-4.767
N12205 X29.781 Y79.282 Z-4.776
N12210 X29.754 Y79.274 Z-4.785
N12215 X29.736 Y79.252 Z-4.794
N12220 X29.733 Y79.224 Z-4.803
N12225 X29.745 Y79.199 Z-4.812
N12230 X29.769 Y79.184 Z-4.821
N12235 X29.797 Y79.185 Z-4.83
N12240 X29.82 Y79.2 Z-4.839
N12245 X29.832 Y79.226 Z-4.848
N12250 X29.828 Y79.253 Z-4.857
N12255 X29.809 Y79.274 Z-4.866
N12260 X29.783 Y79.283 Z-4.875
N12265 X29.756 Y79.275 Z-4.884
N12270 X29.737 Y79.254 Z-4.893
N12275 X29.733 Y79.226 Z-4.902
N12280 X29.744 Y79.201 Z-4.911
N12285 X29.767 Y79.185 Z-4.92
N12290 X29.795 Y79.184 Z-4.929
N12295 X29.819 Y79.198 Z-4.938
N12300 X29.831 Y79.224 Z-4.947
N12305 X29.829 Y79.251 Z-4.956
N12310 X29.811 Y79.273 Z-4.965
N12315 X29.785 Y79.282 Z-4.974
N12320 X29.758 Y79.276 Z-4.983
N12325 X29.738 Y79.256 Z-4.992
N12330 X29.732 Y79.228 Z-5.001
N12335 X29.742 Y79.202 Z-5.01
N12340 X29.765 Y79.186 Z-5.019
N12345 X29.793 Y79.184 Z-5.028
N12350 X29.818 Y79.197 Z-5.037
N12355 X29.831 Y79.222 Z-5.046
N12360 X29.829 Y79.249 Z-5.056
N12365 X29.813 Y79.272 Z-5.065
N12370 X29.787 Y79.282 Z-5.074
N12375 X29.759 Y79.277 Z-5.083
N12380 X29.739 Y79.258 Z-5.092
N12385 X29.732 Y79.23 Z-5.101
N12390 X29.741 Y79.204 Z-5.11
N12395 X29.763 Y79.186 Z-5.119
N12400 X29.791 Y79.183 Z-5.128
N12405 X29.816 Y79.196 Z-5.137
N12410 X29.831 Y79.22 Z-5.146
N12415 X29.83 Y79.247 Z-5.155
N12420 X29.814 Y79.271 Z-5.164
N12425 X29.789 Y79.282 Z-5.173
N12430 X29.761 Y79.278 Z-5.182
N12435 X29.74 Y79.259 Z-5.191
N12440 X29.732 Y79.233 Z-5.2
N12445 G3 X29.832 I0.05
N12450 X29.732 I-0.05
N12455 G1 X29.74 Y79.215
N12460 X29.757 Y79.208
N12465 X29.782 Y79.233
N12470 G0 Z2.3
N12475 X35.359 Y75.391
N12480 Z2
N12485 G1 Z0.3 F50
N12490 X35.334 Y75.416
N12495 X35.316 Y75.409
N12500 X35.309 Y75.391
N12505 X35.316 Y75.364 Z0.291 F800
N12510 X35.338 Y75.346 Z0.282
N12515 X35.365 Y75.341 Z0.273
N12520 X35.391 Y75.353 Z0.264
N12525 X35.406 Y75.376 Z0.255
N12530 X35.407 Y75.404 Z0.246
N12535 X35.392 Y75.428 Z0.237
N12540 X35.367 Y75.44 Z0.228
N12545 X35.339 Y75.437 Z0.219
N12550 X35.318 Y75.42 Z0.21
N12555 X35.309 Y75.393 Z0.201
N12560 X35.315 Y75.366 Z0.192
N12565 X35.336 Y75.347 Z0.183
N12570 X35.363 Y75.341 Z0.174
N12575 X35.389 Y75.351 Z0.165
N12580 X35.406 Y75.374 Z0.156
N12585 X35.407 Y75.402 Z0.146
N12590 X35.394 Y75.427 Z0.137
N12595 X35.369 Y75.44 Z0.128
N12600 X35.341 Y75.438 Z0.119
N12605 X35.319 Y75.421 Z0.11
N12610 X35.309 Y75.395 Z0.101
N12615 X35.314 Y75.368 Z0.092
N12620 X35.334 Y75.348 Z0.083
N12625 X35.361 Y75.341 Z0.074
N12630 X35.388 Y75.35 Z0.065
N12635 X35.405 Y75.372 Z0.056
N12640 X35.408 Y75.4 Z0.047
N12645 X35.395 Y75.425 Z0.038
N12650 X35.371 Y75.439 Z0.029
N12655 X35.343 Z0.02
N12660 X35.32 Y75.423 Z0.011
N12665 X35.309 Y75.397 Z0.002
N12670 X35.313 Y75.37 Z-0.007
N12675 X35.332 Y75.349 Z-0.016
N12680 X35.359 Y75.341 Z-0.025
N12685 X35.386 Y75.349 Z-0.034
N12690 X35.404 Y75.37 Z-0.043
N12695 X35.408 Y75.398 Z-0.052
N12700 X35.397 Y75.423 Z-0.061
N12705 X35.373 Y75.439 Z-0.07
N12710 X35.345 Z-0.079
N12715 X35.321 Y75.424 Z-0.088
N12720 X35.309 Y75.399 Z-0.097
N12725 X35.313 Y75.371 Z-0.106
N12730 X35.33 Y75.35 Z-0.115
N12735 X35.357 Y75.341 Z-0.124
N12740 X35.384 Y75.348 Z-0.133
N12745 X35.403 Y75.368 Z-0.143
N12750 X35.408 Y75.396 Z-0.152
N12755 X35.398 Y75.422 Z-0.161
N12760 X35.375 Y75.438 Z-0.17
N12765 X35.347 Y75.44 Z-0.179
N12770 X35.323 Y75.426 Z-0.188
N12775 X35.31 Y75.401 Z-0.197
N12780 X35.312 Y75.373 Z-0.206
N12785 X35.329 Y75.351 Z-0.215
N12790 X35.355 Y75.341 Z-0.224
N12795 X35.382 Y75.347 Z-0.233
N12800 X35.402 Y75.367 Z-0.242
N12805 X35.409 Y75.394 Z-0.251
N12810 X35.399 Y75.42 Z-0.26
N12815 X35.377 Y75.437 Z-0.269
N12820 X35.349 Y75.44 Z-0.278
N12825 X35.324 Y75.427 Z-0.287
N12830 X35.31 Y75.403 Z-0.296
N12835 X35.311 Y75.375 Z-0.305
N12840 X35.327 Y75.352 Z-0.314
N12845 X35.353 Y75.341 Z-0.323
N12850 X35.38 Y75.346 Z-0.332
N12855 X35.401 Y75.365 Z-0.341
N12860 X35.409 Y75.392 Z-0.35
N12865 X35.4 Y75.419 Z-0.359
N12870 X35.379 Y75.437 Z-0.368
N12875 X35.351 Y75.44 Z-0.377
N12880 X35.326 Y75.429 Z-0.386
N12885 X35.311 Y75.405 Z-0.395
N12890 Y75.377 Z-0.404
N12895 X35.325 Y75.354 Z-0.413
N12900 X35.351 Y75.342 Z-0.422
N12905 X35.379 Y75.345 Z-0.432
N12910 X35.4 Y75.363 Z-0.441
N12915 X35.409 Y75.39 Z-0.45
N12920 X35.401 Y75.417 Z-0.459
N12925 X35.381 Y75.436 Z-0.468
N12930 X35.353 Y75.441 Z-0.477
N12935 X35.327 Y75.43 Z-0.486
N12940 X35.311 Y75.407 Z-0.495
N12945 X35.31 Y75.379 Z-0.504
N12950 X35.324 Y75.355 Z-0.513
N12955 X35.349 Y75.342 Z-0.522
N12960 X35.377 Y75.344 Z-0.531
N12965 X35.399 Y75.361 Z-0.54
N12970 X35.409 Y75.388 Z-0.549
N12975 X35.403 Y75.415 Z-0.558
N12980 X35.383 Y75.435 Z-0.567
N12985 X35.355 Y75.441 Z-0.576
N12990 X35.329 Y75.431 Z-0.585
N12995 X35.312 Y75.409 Z-0.594
N13000 X35.31 Y75.381 Z-0.603
N13005 X35.323 Y75.356 Z-0.612
N13010 X35.347 Y75.342 Z-0.621
N13015 X35.375 Y75.344 Z-0.63
N13020 X35.398 Y75.36 Z-0.639
N13025 X35.408 Y75.386 Z-0.648
N13030 X35.403 Y75.413 Z-0.657
N13035 X35.385 Y75.434 Z-0.666
N13040 X35.357 Y75.441 Z-0.675
N13045 X35.331 Y75.433 Z-0.684
N13050 X35.313 Y75.411 Z-0.693
N13055 X35.309 Y75.383 Z-0.702
N13060 X35.321 Y75.358 Z-0.711
N13065 X35.345 Y75.343 Z-0.721
N13070 X35.373 Z-0.73
N13075 X35.396 Y75.358 Z-0.739
N13080 X35.408 Y75.384 Z-0.748
N13085 X35.404 Y75.411 Z-0.757
N13090 X35.386 Y75.433 Z-0.766
N13095 X35.36 Y75.441 Z-0.775
N13100 X35.333 Y75.434 Z-0.784
N13105 X35.314 Y75.413 Z-0.793
N13110 X35.309 Y75.385 Z-0.802
N13115 X35.32 Y75.36 Z-0.811
N13120 X35.343 Y75.344 Z-0.82
N13125 X35.371 Y75.343 Z-0.829
N13130 X35.395 Y75.357 Z-0.838
N13135 X35.408 Y75.382 Z-0.847
N13140 X35.405 Y75.409 Z-0.856
N13145 X35.388 Y75.432 Z-0.865
N13150 X35.362 Y75.441 Z-0.874
N13155 X35.334 Y75.435 Z-0.883
N13160 X35.315 Y75.415 Z-0.892
N13165 X35.309 Y75.387 Z-0.901
N13170 X35.319 Y75.361 Z-0.91
N13175 X35.341 Y75.344 Z-0.919
N13180 X35.369 Y75.342 Z-0.928
N13185 X35.393 Y75.355 Z-0.937
N13190 X35.407 Y75.38 Z-0.946
N13195 X35.406 Y75.407 Z-0.955
N13200 X35.39 Y75.43 Z-0.964
N13205 X35.364 Y75.441 Z-0.973
N13210 X35.336 Y75.436 Z-0.982
N13215 X35.316 Y75.417 Z-0.991
N13220 X35.309 Y75.389 Z-1
N13225 X35.317 Y75.363 Z-1.01
N13230 X35.339 Y75.345 Z-1.019
N13235 X35.367 Y75.342 Z-1.028
N13240 X35.392 Y75.354 Z-1.037
N13245 X35.407 Y75.378 Z-1.046
N13250 X35.406 Y75.406 Z-1.055
N13255 X35.391 Y75.429 Z-1.064
N13260 X35.366 Y75.441 Z-1.073
N13265 X35.338 Y75.437 Z-1.082
N13270 X35.317 Y75.418 Z-1.091
N13275 X35.309 Y75.392 Z-1.1
N13280 X35.316 Y75.365 Z-1.109
N13285 X35.337 Y75.346 Z-1.118
N13290 X35.365 Y75.341 Z-1.127
N13295 X35.39 Y75.352 Z-1.136
N13300 X35.406 Y75.376 Z-1.145
N13305 X35.407 Y75.404 Z-1.154
N13310 X35.393 Y75.428 Z-1.163
N13315 X35.368 Y75.44 Z-1.172
N13320 X35.34 Y75.437 Z-1.181
N13325 X35.318 Y75.42 Z-1.19
N13330 X35.309 Y75.394 Z-1.199
N13335 X35.315 Y75.366 Z-1.208
N13340 X35.335 Y75.347 Z-1.217
N13345 X35.363 Y75.341 Z-1.226
N13350 X35.389 Y75.351 Z-1.235
N13355 X35.406 Y75.374 Z-1.244
N13360 X35.408 Y75.402 Z-1.253
N13365 X35.394 Y75.426 Z-1.262
N13370 X35.37 Y75.44 Z-1.271
N13375 X35.342 Y75.438 Z-1.28
N13380 X35.319 Y75.422 Z-1.289
N13385 X35.309 Y75.396 Z-1.299
N13390 X35.314 Y75.368 Z-1.308
N13395 X35.333 Y75.348 Z-1.317
N13400 X35.361 Y75.341 Z-1.326
N13405 X35.387 Y75.35 Z-1.335
N13410 X35.405 Y75.372 Z-1.344
N13415 X35.408 Y75.399 Z-1.353
N13420 X35.396 Y75.425 Z-1.362
N13425 X35.372 Y75.439 Z-1.371
N13430 X35.344 Z-1.38
N13435 X35.32 Y75.423 Z-1.389
N13440 X35.309 Y75.398 Z-1.398
N13445 X35.313 Y75.37 Z-1.407
N13450 X35.332 Y75.349 Z-1.416
N13455 X35.359 Y75.341 Z-1.425
N13460 X35.385 Y75.349 Z-1.434
N13465 X35.404 Y75.37 Z-1.443
N13470 X35.408 Y75.397 Z-1.452
N13475 X35.397 Y75.423 Z-1.461
N13480 X35.374 Y75.439 Z-1.47
N13485 X35.346 Z-1.479
N13490 X35.322 Y75.425 Z-1.488
N13495 X35.309 Y75.4 Z-1.497
N13500 X35.312 Y75.372 Z-1.506
N13505 X35.33 Y75.35 Z-1.515
N13510 X35.356 Y75.341 Z-1.524
N13515 X35.384 Y75.348 Z-1.533
N13520 X35.403 Y75.368 Z-1.542
N13525 X35.408 Y75.395 Z-1.551
N13530 X35.398 Y75.421 Z-1.56
N13535 X35.376 Y75.438 Z-1.569
N13540 X35.348 Y75.44 Z-1.578
N13545 X35.323 Y75.426 Z-1.588
N13550 X35.31 Y75.402 Z-1.597
N13555 X35.312 Y75.374 Z-1.606
N13560 X35.328 Y75.351 Z-1.615
N13565 X35.354 Y75.341 Z-1.624
N13570 X35.382 Y75.347 Z-1.633
N13575 X35.402 Y75.366 Z-1.642
N13580 X35.409 Y75.393 Z-1.651
N13585 X35.4 Y75.42 Z-1.66
N13590 X35.378 Y75.437 Z-1.669
N13595 X35.35 Y75.44 Z-1.678
N13600 X35.325 Y75.428 Z-1.687
N13605 X35.31 Y75.404 Z-1.696
N13610 X35.311 Y75.376 Z-1.705
N13615 X35.327 Y75.353 Z-1.714
N13620 X35.352 Y75.341 Z-1.723
N13625 X35.38 Y75.346 Z-1.732
N13630 X35.401 Y75.364 Z-1.741
N13635 X35.409 Y75.391 Z-1.75
N13640 X35.401 Y75.418 Z-1.759
N13645 X35.38 Y75.436 Z-1.768
N13650 X35.352 Y75.441 Z-1.777
N13655 X35.326 Y75.429 Z-1.786
N13660 X35.311 Y75.406 Z-1.795
N13665 X35.31 Y75.378 Z-1.804
N13670 X35.325 Y75.354 Z-1.813
N13675 X35.35 Y75.342 Z-1.822
N13680 X35.378 Y75.345 Z-1.831
N13685 X35.4 Y75.363 Z-1.84
N13690 X35.409 Y75.389 Z-1.849
N13695 X35.402 Y75.416 Z-1.858
N13700 X35.381 Y75.436 Z-1.867
N13705 X35.354 Y75.441 Z-1.877
N13710 X35.328 Y75.43 Z-1.886
N13715 X35.312 Y75.408 Z-1.895
N13720 X35.31 Y75.38 Z-1.904
N13725 X35.324 Y75.355 Z-1.913
N13730 X35.348 Y75.342 Z-1.922
N13735 X35.376 Y75.344 Z-1.931
N13740 X35.399 Y75.361 Z-1.94
N13745 X35.408 Y75.387 Z-1.949
N13750 X35.403 Y75.415 Z-1.958
N13755 X35.383 Y75.435 Z-1.967
N13760 X35.356 Y75.441 Z-1.976
N13765 X35.33 Y75.432 Z-1.985
N13770 X35.312 Y75.41 Z-1.994
N13775 X35.309 Y75.382 Z-2.003
N13780 X35.322 Y75.357 Z-2.012
N13785 X35.346 Y75.343 Z-2.021
N13790 X35.374 Y75.344 Z-2.03
N13795 X35.397 Y75.359 Z-2.039
N13800 X35.408 Y75.385 Z-2.048
N13805 X35.404 Y75.413 Z-2.057
N13810 X35.385 Y75.434 Z-2.066
N13815 X35.358 Y75.441 Z-2.075
N13820 X35.331 Y75.433 Z-2.084
N13825 X35.313 Y75.412 Z-2.093
N13830 X35.309 Y75.384 Z-2.102
N13835 X35.321 Y75.358 Z-2.111
N13840 X35.344 Y75.343 Z-2.12
N13845 X35.372 Z-2.129
N13850 X35.396 Y75.358 Z-2.138
N13855 X35.408 Y75.383 Z-2.147
N13860 X35.405 Y75.411 Z-2.156
N13865 X35.387 Y75.432 Z-2.166
N13870 X35.36 Y75.441 Z-2.175
N13875 X35.333 Y75.434 Z-2.184
N13880 X35.314 Y75.413 Z-2.193
N13885 X35.309 Y75.386 Z-2.202
N13890 X35.319 Y75.36 Z-2.211
N13895 X35.342 Y75.344 Z-2.22
N13900 X35.37 Y75.342 Z-2.229
N13905 X35.395 Y75.356 Z-2.238
N13910 X35.408 Y75.381 Z-2.247
N13915 X35.405 Y75.409 Z-2.256
N13920 X35.388 Y75.431 Z-2.265
N13925 X35.362 Y75.441 Z-2.274
N13930 X35.335 Y75.435 Z-2.283
N13935 X35.315 Y75.415 Z-2.292
N13940 X35.309 Y75.388 Z-2.301
N13945 X35.318 Y75.362 Z-2.31
N13950 X35.34 Y75.344 Z-2.319
N13955 X35.368 Y75.342 Z-2.328
N13960 X35.393 Y75.355 Z-2.337
N13965 X35.407 Y75.379 Z-2.346
N13970 X35.406 Y75.407 Z-2.355
N13975 X35.39 Y75.43 Z-2.364
N13980 X35.364 Y75.441 Z-2.373
N13985 X35.337 Y75.436 Z-2.382
N13990 X35.316 Y75.417 Z-2.391
N13995 X35.309 Y75.39 Z-2.4
N14000 X35.317 Y75.363 Z-2.409
N14005 X35.338 Y75.345 Z-2.418
N14010 X35.366 Y75.342 Z-2.427
N14015 X35.392 Y75.353 Z-2.436
N14020 X35.407 Y75.377 Z-2.445
N14025 Y75.405 Z-2.455
N14030 X35.392 Y75.429 Z-2.464
N14035 X35.366 Y75.44 Z-2.473
N14040 X35.338 Y75.437 Z-2.482
N14045 X35.317 Y75.419 Z-2.491
N14050 X35.309 Y75.392 Z-2.5
N14055 X35.316 Y75.365 Z-2.509
N14060 X35.337 Y75.346 Z-2.518
N14065 X35.364 Y75.341 Z-2.527
N14070 X35.39 Y75.352 Z-2.536
N14075 X35.406 Y75.375 Z-2.545
N14080 X35.407 Y75.403 Z-2.554
N14085 X35.393 Y75.427 Z-2.563
N14090 X35.368 Y75.44 Z-2.572
N14095 X35.34 Y75.438 Z-2.581
N14100 X35.318 Y75.42 Z-2.59
N14105 X35.309 Y75.394 Z-2.599
N14110 X35.315 Y75.367 Z-2.608
N14115 X35.335 Y75.347 Z-2.617
N14120 X35.362 Y75.341 Z-2.626
N14125 X35.388 Y75.351 Z-2.635
N14130 X35.405 Y75.373 Z-2.644
N14135 X35.408 Y75.401 Z-2.653
N14140 X35.395 Y75.426 Z-2.662
N14145 X35.37 Y75.44 Z-2.671
N14150 X35.342 Y75.438 Z-2.68
N14155 X35.319 Y75.422 Z-2.689
N14160 X35.309 Y75.396 Z-2.698
N14165 X35.314 Y75.369 Z-2.707
N14170 X35.333 Y75.348 Z-2.716
N14175 X35.36 Y75.341 Z-2.725
N14180 X35.387 Y75.35 Z-2.734
N14185 X35.405 Y75.371 Z-2.744
N14190 X35.408 Y75.399 Z-2.753
N14195 X35.396 Y75.424 Z-2.762
N14200 X35.372 Y75.439 Z-2.771
N14205 X35.344 Z-2.78
N14210 X35.321 Y75.424 Z-2.789
N14215 X35.309 Y75.398 Z-2.798
N14220 X35.313 Y75.37 Z-2.807
N14225 X35.331 Y75.349 Z-2.816
N14230 X35.358 Y75.341 Z-2.825
N14235 X35.385 Y75.349 Z-2.834
N14240 X35.404 Y75.369 Z-2.843
N14245 X35.408 Y75.397 Z-2.852
N14250 X35.397 Y75.423 Z-2.861
N14255 X35.374 Y75.439 Z-2.87
N14260 X35.346 Z-2.879
N14265 X35.322 Y75.425 Z-2.888
N14270 X35.309 Y75.4 Z-2.897
N14275 X35.312 Y75.372 Z-2.906
N14280 X35.33 Y75.35 Z-2.915
N14285 X35.356 Y75.341 Z-2.924
N14290 X35.383 Y75.347 Z-2.933
N14295 X35.403 Y75.367 Z-2.942
N14300 X35.408 Y75.395 Z-2.951
N14305 X35.399 Y75.421 Z-2.96
N14310 X35.376 Y75.438 Z-2.969
N14315 X35.348 Y75.44 Z-2.978
N14320 X35.324 Y75.427 Z-2.987
N14325 X35.31 Y75.402 Z-2.996
N14330 X35.312 Y75.374 Z-3.005
N14335 X35.328 Y75.352 Z-3.014
N14340 X35.354 Y75.341 Z-3.023
N14345 X35.381 Y75.346 Z-3.033
N14350 X35.402 Y75.366 Z-3.042
N14355 X35.409 Y75.393 Z-3.051
N14360 X35.4 Y75.419 Z-3.06
N14365 X35.378 Y75.437 Z-3.069
N14370 X35.35 Y75.44 Z-3.078
N14375 X35.325 Y75.428 Z-3.087
N14380 X35.31 Y75.404 Z-3.096
N14385 X35.311 Y75.376 Z-3.105
N14390 X35.326 Y75.353 Z-3.114
N14395 X35.352 Y75.341 Z-3.123
N14400 X35.38 Y75.346 Z-3.132
N14405 X35.401 Y75.364 Z-3.141
N14410 X35.409 Y75.391 Z-3.15
N14415 X35.401 Y75.418 Z-3.159
N14420 X35.38 Y75.436 Z-3.168
N14425 X35.352 Y75.441 Z-3.177
N14430 X35.327 Y75.429 Z-3.186
N14435 X35.311 Y75.406 Z-3.195
N14440 X35.31 Y75.378 Z-3.204
N14445 X35.325 Y75.354 Z-3.213
N14450 X35.35 Y75.342 Z-3.222
N14455 X35.378 Y75.345 Z-3.231
N14460 X35.4 Y75.362 Z-3.24
N14465 X35.409 Y75.389 Z-3.249
N14470 X35.402 Y75.416 Z-3.258
N14475 X35.382 Y75.435 Z-3.267
N14480 X35.354 Y75.441 Z-3.276
N14485 X35.328 Y75.431 Z-3.285
N14490 X35.312 Y75.408 Z-3.294
N14495 X35.31 Y75.38 Z-3.303
N14500 X35.323 Y75.356 Z-3.312
N14505 X35.348 Y75.342 Z-3.322
N14510 X35.376 Y75.344 Z-3.331
N14515 X35.398 Y75.361 Z-3.34
N14520 X35.408 Y75.387 Z-3.349
N14525 X35.403 Y75.414 Z-3.358
N14530 X35.384 Y75.434 Z-3.367
N14535 X35.356 Y75.441 Z-3.376
N14540 X35.33 Y75.432 Z-3.385
N14545 X35.312 Y75.41 Z-3.394
N14550 X35.309 Y75.382 Z-3.403
N14555 X35.322 Y75.357 Z-3.412
N14560 X35.346 Y75.343 Z-3.421
N14565 X35.374 Z-3.43
N14570 X35.397 Y75.359 Z-3.439
N14575 X35.408 Y75.385 Z-3.448
N14580 X35.404 Y75.412 Z-3.457
N14585 X35.385 Y75.433 Z-3.466
N14590 X35.359 Y75.441 Z-3.475
N14595 X35.332 Y75.433 Z-3.484
N14600 X35.313 Y75.412 Z-3.493
N14605 X35.309 Y75.384 Z-3.502
N14610 X35.32 Y75.359 Z-3.511
N14615 X35.344 Y75.343 Z-3.52
N14620 X35.372 Z-3.529
N14625 X35.396 Y75.357 Z-3.538
N14630 X35.408 Y75.383 Z-3.547
N14635 X35.405 Y75.41 Z-3.556
N14640 X35.387 Y75.432 Z-3.565
N14645 X35.361 Y75.441 Z-3.574
N14650 X35.333 Y75.434 Z-3.583
N14655 X35.314 Y75.414 Z-3.592
N14660 X35.309 Y75.386 Z-3.601
N14665 X35.319 Y75.36 Z-3.611
N14670 X35.342 Y75.344 Z-3.62
N14675 X35.37 Y75.342 Z-3.629
N14680 X35.394 Y75.356 Z-3.638
N14685 X35.408 Y75.381 Z-3.647
N14690 X35.406 Y75.408 Z-3.656
N14695 X35.389 Y75.431 Z-3.665
N14700 X35.363 Y75.441 Z-3.674
N14705 X35.335 Y75.435 Z-3.683
N14710 X35.315 Y75.416 Z-3.692
N14715 X35.309 Y75.388 Z-3.701
N14720 X35.318 Y75.362 Z-3.71
N14725 X35.34 Y75.345 Z-3.719
N14730 X35.368 Y75.342 Z-3.728
N14735 X35.393 Y75.354 Z-3.737
N14740 X35.407 Y75.379 Z-3.746
N14745 X35.406 Y75.406 Z-3.755
N14750 X35.39 Y75.43 Z-3.764
N14755 X35.365 Y75.441 Z-3.773
N14760 X35.337 Y75.436 Z-3.782
N14765 X35.316 Y75.417 Z-3.791
N14770 X35.309 Y75.39 Z-3.8
N14775 X35.317 Y75.364 Z-3.809
N14780 X35.338 Y75.345 Z-3.818
N14785 X35.366 Y75.342 Z-3.827
N14790 X35.391 Y75.353 Z-3.836
N14795 X35.406 Y75.377 Z-3.845
N14800 X35.407 Y75.405 Z-3.854
N14805 X35.392 Y75.428 Z-3.863
N14810 X35.367 Y75.44 Z-3.872
N14815 X35.339 Y75.437 Z-3.881
N14820 X35.317 Y75.419 Z-3.89
N14825 X35.309 Y75.393 Z-3.9
N14830 X35.316 Y75.365 Z-3.909
N14835 X35.336 Y75.346 Z-3.918
N14840 X35.364 Y75.341 Z-3.927
N14845 X35.39 Y75.352 Z-3.936
N14850 X35.406 Y75.375 Z-3.945
N14855 X35.407 Y75.403 Z-3.954
N14860 X35.393 Y75.427 Z-3.963
N14865 X35.369 Y75.44 Z-3.972
N14870 X35.341 Y75.438 Z-3.981
N14875 X35.319 Y75.421 Z-3.99
N14880 X35.309 Y75.395 Z-3.999
N14885 X35.315 Y75.367 Z-4.008
N14890 X35.334 Y75.347 Z-4.017
N14895 X35.362 Y75.341 Z-4.026
N14900 X35.388 Y75.351 Z-4.035
N14905 X35.405 Y75.373 Z-4.044
N14910 X35.408 Y75.4 Z-4.053
N14915 X35.395 Y75.425 Z-4.062
N14920 X35.371 Y75.44 Z-4.071
N14925 X35.343 Y75.438 Z-4.08
N14930 X35.32 Y75.422 Z-4.089
N14935 X35.309 Y75.397 Z-4.098
N14940 X35.314 Y75.369 Z-4.107
N14945 X35.333 Y75.348 Z-4.116
N14950 X35.36 Y75.341 Z-4.125
N14955 X35.386 Y75.349 Z-4.134
N14960 X35.404 Y75.371 Z-4.143
N14965 X35.408 Y75.398 Z-4.152
N14970 X35.396 Y75.424 Z-4.161
N14975 X35.373 Y75.439 Z-4.17
N14980 X35.345 Z-4.179
N14985 X35.321 Y75.424 Z-4.189
N14990 X35.309 Y75.399 Z-4.198
N14995 X35.313 Y75.371 Z-4.207
N15000 X35.331 Y75.349 Z-4.216
N15005 X35.357 Y75.341 Z-4.225
N15010 X35.385 Y75.348 Z-4.234
N15015 X35.403 Y75.369 Z-4.243
N15020 X35.408 Y75.396 Z-4.252
N15025 X35.398 Y75.422 Z-4.261
N15030 X35.375 Y75.438 Z-4.27
N15035 X35.347 Y75.44 Z-4.279
N15040 X35.323 Y75.426 Z-4.288
N15045 X35.31 Y75.401 Z-4.297
N15050 X35.312 Y75.373 Z-4.306
N15055 X35.329 Y75.351 Z-4.315
N15060 X35.355 Y75.341 Z-4.324
N15065 X35.383 Y75.347 Z-4.333
N15070 X35.403 Y75.367 Z-4.342
N15075 X35.409 Y75.394 Z-4.351
N15080 X35.399 Y75.421 Z-4.36
N15085 X35.377 Y75.438 Z-4.369
N15090 X35.349 Y75.44 Z-4.378
N15095 X35.324 Y75.427 Z-4.387
N15100 X35.31 Y75.403 Z-4.396
N15105 X35.311 Y75.375 Z-4.405
N15110 X35.327 Y75.352 Z-4.414
N15115 X35.353 Y75.341 Z-4.423
N15120 X35.381 Y75.346 Z-4.432
N15125 X35.401 Y75.365 Z-4.441
N15130 X35.409 Y75.392 Z-4.45
N15135 X35.4 Y75.419 Z-4.459
N15140 X35.379 Y75.437 Z-4.468
N15145 X35.351 Y75.44 Z-4.478
N15150 X35.325 Y75.428 Z-4.487
N15155 X35.311 Y75.405 Z-4.496
N15160 Y75.377 Z-4.505
N15165 X35.326 Y75.353 Z-4.514
N15170 X35.351 Y75.342 Z-4.523
N15175 X35.379 Y75.345 Z-4.532
N15180 X35.4 Y75.363 Z-4.541
N15185 X35.409 Y75.39 Z-4.55
N15190 X35.401 Y75.417 Z-4.559
N15195 X35.38 Y75.436 Z-4.568
N15200 X35.353 Y75.441 Z-4.577
N15205 X35.327 Y75.43 Z-4.586
N15210 X35.311 Y75.407 Z-4.595
N15215 X35.31 Y75.379 Z-4.604
N15220 X35.324 Y75.355 Z-4.613
N15225 X35.349 Y75.342 Z-4.622
N15230 X35.377 Y75.345 Z-4.631
N15235 X35.399 Y75.362 Z-4.64
N15240 X35.409 Y75.388 Z-4.649
N15245 X35.402 Y75.415 Z-4.658
N15250 X35.382 Y75.435 Z-4.667
N15255 X35.355 Y75.441 Z-4.676
N15260 X35.329 Y75.431 Z-4.685
N15265 X35.312 Y75.409 Z-4.694
N15270 X35.31 Y75.381 Z-4.703
N15275 X35.323 Y75.356 Z-4.712
N15280 X35.347 Y75.342 Z-4.721
N15285 X35.375 Y75.344 Z-4.73
N15290 X35.398 Y75.36 Z-4.739
N15295 X35.408 Y75.386 Z-4.748
N15300 X35.403 Y75.414 Z-4.757
N15305 X35.384 Y75.434 Z-4.767
N15310 X35.357 Y75.441 Z-4.776
N15315 X35.33 Y75.432 Z-4.785
N15320 X35.313 Y75.411 Z-4.794
N15325 X35.309 Y75.383 Z-4.803
N15330 X35.321 Y75.358 Z-4.812
N15335 X35.345 Y75.343 Z-4.821
N15340 X35.373 Z-4.83
N15345 X35.397 Y75.359 Z-4.839
N15350 X35.408 Y75.384 Z-4.848
N15355 X35.404 Y75.412 Z-4.857
N15360 X35.386 Y75.433 Z-4.866
N15365 X35.359 Y75.441 Z-4.875
N15370 X35.332 Y75.433 Z-4.884
N15375 X35.313 Y75.412 Z-4.893
N15380 X35.309 Y75.385 Z-4.902
N15385 X35.32 Y75.359 Z-4.911
N15390 X35.343 Y75.343 Z-4.92
N15395 X35.371 Z-4.929
N15400 X35.395 Y75.357 Z-4.938
N15405 X35.408 Y75.382 Z-4.947
N15410 X35.405 Y75.41 Z-4.956
N15415 X35.388 Y75.432 Z-4.965
N15420 X35.361 Y75.441 Z-4.974
N15425 X35.334 Y75.434 Z-4.983
N15430 X35.314 Y75.414 Z-4.992
N15435 X35.309 Y75.387 Z-5.001
N15440 X35.319 Y75.361 Z-5.01
N15445 X35.341 Y75.344 Z-5.019
N15450 X35.369 Y75.342 Z-5.028
N15455 X35.394 Y75.356 Z-5.037
N15460 X35.407 Y75.38 Z-5.046
N15465 X35.406 Y75.408 Z-5.056
N15470 X35.389 Y75.431 Z-5.065
N15475 X35.363 Y75.441 Z-5.074
N15480 X35.336 Y75.435 Z-5.083
N15485 X35.315 Y75.416 Z-5.092
N15490 X35.309 Y75.389 Z-5.101
N15495 X35.318 Y75.362 Z-5.11
N15500 X35.339 Y75.345 Z-5.119
N15505 X35.367 Y75.342 Z-5.128
N15510 X35.392 Y75.354 Z-5.137
N15515 X35.407 Y75.378 Z-5.146
N15520 X35.406 Y75.406 Z-5.155
N15525 X35.391 Y75.429 Z-5.164
N15530 X35.365 Y75.441 Z-5.173
N15535 X35.338 Y75.436 Z-5.182
N15540 X35.316 Y75.418 Z-5.191
N15545 X35.309 Y75.391 Z-5.2
N15550 G3 X35.409 I0.05
N15555 X35.309 I-0.05
N15560 G1 X35.316 Y75.373
N15565 X35.334 Y75.366
N15570 X35.359 Y75.391
N15575 G0 Z2.3
N15580 X35.897 Y68.641
N15585 Z2
N15590 G1 Z0.3 F50
N15595 X35.872 Y68.666
N15600 X35.855 Y68.659
N15605 X35.847 Y68.641
N15610 X35.855 Y68.614 Z0.291 F800
N15615 X35.876 Y68.596 Z0.282
N15620 X35.904 Y68.591 Z0.273
N15625 X35.929 Y68.603 Z0.264
N15630 X35.945 Y68.626 Z0.255
N15635 X35.946 Y68.654 Z0.246
N15640 X35.931 Y68.678 Z0.237
N15645 X35.906 Y68.69 Z0.228
N15650 X35.878 Y68.687 Z0.219
N15655 X35.856 Y68.67 Z0.21
N15660 X35.847 Y68.643 Z0.201
N15665 X35.854 Y68.616 Z0.192
N15670 X35.874 Y68.597 Z0.183
N15675 X35.902 Y68.591 Z0.174
N15680 X35.928 Y68.601 Z0.165
N15685 X35.944 Y68.624 Z0.156
N15690 X35.946 Y68.652 Z0.146
N15695 X35.933 Y68.677 Z0.137
N15700 X35.908 Y68.69 Z0.128
N15705 X35.88 Y68.688 Z0.119
N15710 X35.857 Y68.671 Z0.11
N15715 X35.847 Y68.645 Z0.101
N15720 X35.853 Y68.618 Z0.092
N15725 X35.873 Y68.598 Z0.083
N15730 X35.9 Y68.591 Z0.074
N15735 X35.926 Y68.6 Z0.065
N15740 X35.944 Y68.622 Z0.056
N15745 X35.946 Y68.65 Z0.047
N15750 X35.934 Y68.675 Z0.038
N15755 X35.91 Y68.689 Z0.029
N15760 X35.882 Z0.02
N15765 X35.859 Y68.673 Z0.011
N15770 X35.848 Y68.647 Z0.002
N15775 X35.852 Y68.62 Z-0.007
N15780 X35.871 Y68.599 Z-0.016
N15785 X35.898 Y68.591 Z-0.025
N15790 X35.924 Y68.599 Z-0.034
N15795 X35.943 Y68.62 Z-0.043
N15800 X35.947 Y68.648 Z-0.052
N15805 X35.935 Y68.673 Z-0.061
N15810 X35.912 Y68.689 Z-0.07
N15815 X35.884 Z-0.079
N15820 X35.86 Y68.674 Z-0.088
N15825 X35.848 Y68.649 Z-0.097
N15830 X35.851 Y68.621 Z-0.106
N15835 X35.869 Y68.6 Z-0.115
N15840 X35.896 Y68.591 Z-0.124
N15845 X35.923 Y68.598 Z-0.133
N15850 X35.942 Y68.618 Z-0.143
N15855 X35.947 Y68.646 Z-0.152
N15860 X35.937 Y68.672 Z-0.161
N15865 X35.914 Y68.688 Z-0.17
N15870 X35.886 Y68.69 Z-0.179
N15875 X35.862 Y68.676 Z-0.188
N15880 X35.848 Y68.651 Z-0.197
N15885 X35.851 Y68.623 Z-0.206
N15890 X35.867 Y68.601 Z-0.215
N15895 X35.894 Y68.591 Z-0.224
N15900 X35.921 Y68.597 Z-0.233
N15905 X35.941 Y68.617 Z-0.242
N15910 X35.947 Y68.644 Z-0.251
N15915 X35.938 Y68.67 Z-0.26
N15920 X35.916 Y68.687 Z-0.269
N15925 X35.888 Y68.69 Z-0.278
N15930 X35.863 Y68.677 Z-0.287
N15935 X35.849 Y68.653 Z-0.296
N15940 X35.85 Y68.625 Z-0.305
N15945 X35.866 Y68.602 Z-0.314
N15950 X35.892 Y68.591 Z-0.323
N15955 X35.919 Y68.596 Z-0.332
N15960 X35.94 Y68.615 Z-0.341
N15965 X35.947 Y68.642 Z-0.35
N15970 X35.939 Y68.669 Z-0.359
N15975 X35.918 Y68.687 Z-0.368
N15980 X35.89 Y68.69 Z-0.377
N15985 X35.865 Y68.679 Z-0.386
N15990 X35.849 Y68.655 Z-0.395
N15995 Y68.627 Z-0.404
N16000 X35.864 Y68.604 Z-0.413
N16005 X35.889 Y68.592 Z-0.422
N16010 X35.917 Y68.595 Z-0.432
N16015 X35.939 Y68.613 Z-0.441
N16020 X35.947 Y68.64 Z-0.45
N16025 X35.94 Y68.667 Z-0.459
N16030 X35.92 Y68.686 Z-0.468
N16035 X35.892 Y68.691 Z-0.477
N16040 X35.866 Y68.68 Z-0.486
N16045 X35.85 Y68.657 Z-0.495
N16050 X35.849 Y68.629 Z-0.504
N16055 X35.863 Y68.605 Z-0.513
N16060 X35.887 Y68.592 Z-0.522
N16065 X35.915 Y68.594 Z-0.531
N16070 X35.938 Y68.611 Z-0.54
N16075 X35.947 Y68.638 Z-0.549
N16080 X35.941 Y68.665 Z-0.558
N16085 X35.921 Y68.685 Z-0.567
N16090 X35.894 Y68.691 Z-0.576
N16095 X35.868 Y68.681 Z-0.585
N16100 X35.851 Y68.659 Z-0.594
N16105 X35.848 Y68.631 Z-0.603
N16110 X35.861 Y68.606 Z-0.612
N16115 X35.885 Y68.592 Z-0.621
N16120 X35.913 Y68.594 Z-0.63
N16125 X35.936 Y68.61 Z-0.639
N16130 X35.947 Y68.636 Z-0.648
N16135 X35.942 Y68.663 Z-0.657
N16140 X35.923 Y68.684 Z-0.666
N16145 X35.896 Y68.691 Z-0.675
N16150 X35.869 Y68.683 Z-0.684
N16155 X35.851 Y68.661 Z-0.693
N16160 X35.848 Y68.633 Z-0.702
N16165 X35.86 Y68.608 Z-0.711
N16170 X35.883 Y68.593 Z-0.721
N16175 X35.911 Z-0.73
N16180 X35.935 Y68.608 Z-0.739
N16185 X35.947 Y68.634 Z-0.748
N16190 X35.943 Y68.661 Z-0.757
N16195 X35.925 Y68.683 Z-0.766
N16200 X35.898 Y68.691 Z-0.775
N16205 X35.871 Y68.684 Z-0.784
N16210 X35.852 Y68.663 Z-0.793
N16215 X35.848 Y68.635 Z-0.802
N16220 X35.858 Y68.61 Z-0.811
N16225 X35.881 Y68.594 Z-0.82
N16230 X35.909 Y68.593 Z-0.829
N16235 X35.934 Y68.607 Z-0.838
N16240 X35.946 Y68.632 Z-0.847
N16245 X35.944 Y68.659 Z-0.856
N16250 X35.927 Y68.682 Z-0.865
N16255 X35.9 Y68.691 Z-0.874
N16260 X35.873 Y68.685 Z-0.883
N16265 X35.853 Y68.665 Z-0.892
N16270 X35.847 Y68.637 Z-0.901
N16275 X35.857 Y68.611 Z-0.91
N16280 X35.88 Y68.594 Z-0.919
N16285 X35.907 Y68.592 Z-0.928
N16290 X35.932 Y68.605 Z-0.937
N16295 X35.946 Y68.63 Z-0.946
N16300 X35.945 Y68.657 Z-0.955
N16305 X35.928 Y68.68 Z-0.964
N16310 X35.902 Y68.691 Z-0.973
N16315 X35.875 Y68.686 Z-0.982
N16320 X35.854 Y68.667 Z-0.991
N16325 X35.847 Y68.639 Z-1
N16330 X35.856 Y68.613 Z-1.01
N16335 X35.878 Y68.595 Z-1.019
N16340 X35.905 Y68.592 Z-1.028
N16345 X35.931 Y68.604 Z-1.037
N16350 X35.945 Y68.628 Z-1.046
N16355 Y68.656 Z-1.055
N16360 X35.93 Y68.679 Z-1.064
N16365 X35.904 Y68.691 Z-1.073
N16370 X35.877 Y68.687 Z-1.082
N16375 X35.855 Y68.668 Z-1.091
N16380 X35.847 Y68.642 Z-1.1
N16385 X35.855 Y68.615 Z-1.109
N16390 X35.876 Y68.596 Z-1.118
N16395 X35.903 Y68.591 Z-1.127
N16400 X35.929 Y68.602 Z-1.136
N16405 X35.945 Y68.626 Z-1.145
N16410 X35.946 Y68.654 Z-1.154
N16415 X35.931 Y68.678 Z-1.163
N16420 X35.906 Y68.69 Z-1.172
N16425 X35.879 Y68.687 Z-1.181
N16430 X35.857 Y68.67 Z-1.19
N16435 X35.847 Y68.644 Z-1.199
N16440 X35.854 Y68.616 Z-1.208
N16445 X35.874 Y68.597 Z-1.217
N16450 X35.901 Y68.591 Z-1.226
N16455 X35.927 Y68.601 Z-1.235
N16460 X35.944 Y68.624 Z-1.244
N16465 X35.946 Y68.652 Z-1.253
N16470 X35.933 Y68.676 Z-1.262
N16475 X35.908 Y68.69 Z-1.271
N16480 X35.88 Y68.688 Z-1.28
N16485 X35.858 Y68.672 Z-1.289
N16490 X35.848 Y68.646 Z-1.299
N16495 X35.853 Y68.618 Z-1.308
N16500 X35.872 Y68.598 Z-1.317
N16505 X35.899 Y68.591 Z-1.326
N16510 X35.926 Y68.6 Z-1.335
N16515 X35.943 Y68.622 Z-1.344
N16520 X35.947 Y68.649 Z-1.353
N16525 X35.934 Y68.675 Z-1.362
N16530 X35.91 Y68.689 Z-1.371
N16535 X35.882 Z-1.38
N16540 X35.859 Y68.673 Z-1.389
N16545 X35.848 Y68.648 Z-1.398
N16550 X35.852 Y68.62 Z-1.407
N16555 X35.87 Y68.599 Z-1.416
N16560 X35.897 Y68.591 Z-1.425
N16565 X35.924 Y68.599 Z-1.434
N16570 X35.943 Y68.62 Z-1.443
N16575 X35.947 Y68.647 Z-1.452
N16580 X35.936 Y68.673 Z-1.461
N16585 X35.912 Y68.689 Z-1.47
N16590 X35.884 Z-1.479
N16595 X35.86 Y68.675 Z-1.488
N16600 X35.848 Y68.65 Z-1.497
N16605 X35.851 Y68.622 Z-1.506
N16610 X35.869 Y68.6 Z-1.515
N16615 X35.895 Y68.591 Z-1.524
N16620 X35.922 Y68.598 Z-1.533
N16625 X35.942 Y68.618 Z-1.542
N16630 X35.947 Y68.645 Z-1.551
N16635 X35.937 Y68.671 Z-1.56
N16640 X35.914 Y68.688 Z-1.569
N16645 X35.886 Y68.69 Z-1.578
N16650 X35.862 Y68.676 Z-1.588
N16655 X35.848 Y68.652 Z-1.597
N16660 X35.85 Y68.624 Z-1.606
N16665 X35.867 Y68.601 Z-1.615
N16670 X35.893 Y68.591 Z-1.624
N16675 X35.92 Y68.597 Z-1.633
N16680 X35.941 Y68.616 Z-1.642
N16685 X35.947 Y68.643 Z-1.651
N16690 X35.938 Y68.67 Z-1.66
N16695 X35.916 Y68.687 Z-1.669
N16700 X35.888 Y68.69 Z-1.678
N16705 X35.863 Y68.678 Z-1.687
N16710 X35.849 Y68.654 Z-1.696
N16715 X35.85 Y68.626 Z-1.705
N16720 X35.865 Y68.603 Z-1.714
N16725 X35.891 Y68.591 Z-1.723
N16730 X35.919 Y68.596 Z-1.732
N16735 X35.94 Y68.614 Z-1.741
N16740 X35.947 Y68.641 Z-1.75
N16745 X35.939 Y68.668 Z-1.759
N16750 X35.918 Y68.686 Z-1.768
N16755 X35.89 Y68.691 Z-1.777
N16760 X35.865 Y68.679 Z-1.786
N16765 X35.85 Y68.656 Z-1.795
N16770 X35.849 Y68.628 Z-1.804
N16775 X35.864 Y68.604 Z-1.813
N16780 X35.889 Y68.592 Z-1.822
N16785 X35.917 Y68.595 Z-1.831
N16790 X35.938 Y68.613 Z-1.84
N16795 X35.947 Y68.639 Z-1.849
N16800 X35.94 Y68.666 Z-1.858
N16805 X35.92 Y68.686 Z-1.867
N16810 X35.893 Y68.691 Z-1.877
N16815 X35.867 Y68.68 Z-1.886
N16820 X35.85 Y68.658 Z-1.895
N16825 X35.849 Y68.63 Z-1.904
N16830 X35.862 Y68.605 Z-1.913
N16835 X35.887 Y68.592 Z-1.922
N16840 X35.915 Y68.594 Z-1.931
N16845 X35.937 Y68.611 Z-1.94
N16850 X35.947 Y68.637 Z-1.949
N16855 X35.941 Y68.665 Z-1.958
N16860 X35.922 Y68.685 Z-1.967
N16865 X35.895 Y68.691 Z-1.976
N16870 X35.868 Y68.682 Z-1.985
N16875 X35.851 Y68.66 Z-1.994
N16880 X35.848 Y68.632 Z-2.003
N16885 X35.861 Y68.607 Z-2.012
N16890 X35.885 Y68.593 Z-2.021
N16895 X35.913 Y68.594 Z-2.03
N16900 X35.936 Y68.609 Z-2.039
N16905 X35.947 Y68.635 Z-2.048
N16910 X35.942 Y68.663 Z-2.057
