%
(1001)
(T1 D=9.525 CR=0 TAPER=118deg - ZMIN=-1 - center drill)
N10 G90 G94
N15 G17
N20 G21
N25 G28

(???1)
N30 T1 M6
N35 S20000 M3
N40 G54
N45 M8
N50 G0 X194.469 Y338.787
N55 G43 Z2.3
N60 G98 G81 X194.469 Y338.787 Z-1 R2.3 F30
N65 X199.465 Y338.582
N70 X204.46 Y338.378
N75 X209.456 Y338.174
N80 X214.452 Y337.969
N85 X219.448 Y337.765
N90 X224.444 Y337.56
N95 X229.44 Y337.356
N100 X234.435 Y337.151
N105 X239.431 Y336.947
N110 X244.427 Y336.743
N115 X249.423 Y336.538
N120 X254.419 Y336.334
N125 X259.414 Y336.129
N130 X254.078 Y205.715
N135 X249.082 Y205.919
N140 X244.086 Y206.123
N145 X239.091 Y206.328
N150 X234.095 Y206.532
N155 X229.099 Y206.737
N160 X224.103 Y206.941
N165 X219.107 Y207.146
N170 X214.111 Y207.35
N175 X209.116 Y207.554
N180 X204.12 Y207.759
N185 X199.124 Y207.963
N190 X194.128 Y208.168
N195 X189.132 Y208.372
N200 X202.5 Y178.262
N205 X197.5
N210 X192.5
N215 X187.5
N220 X182.5
N225 X177.5
N230 X172.5
N235 X167.5
N240 X162.5
N245 X157.5
N250 X152.5
N255 X147.5
N260 X142.5
N265 X137.5
N270 X202.5 Y47.738
N275 X197.5
N280 X192.5
N285 X187.5
N290 X182.5
N295 X177.5
N300 X172.5
N305 X167.5
N310 X162.5
N315 X157.5
N320 X152.5
N325 X147.5
N330 X142.5
N335 X137.5
N340 X3 Y49.388
N345 X8
N350 X13
N355 X18
N360 X23
N365 X28
N370 X33
N375 X38
N380 X43
N385 X48
N390 X53
N395 X58
N400 X63
N405 Y104.912
N410 X58
N415 X53
N420 X48
N425 X43
N430 X38
N435 X33
N440 X28
N445 X23
N450 X18
N455 X13
N460 X8
N465 X3
N470 X5 Y197.02
N475 X10
N480 X15
N485 X20
N490 X25
N495 X30
N500 X35
N505 X40
N510 X45
N515 X50
N520 X55
N525 X60
N530 X65
N535 Y260.544
N540 X60
N545 X55
N550 X50
N555 X45
N560 X40
N565 X35
N570 X30
N575 X25
N580 X20
N585 X15
N590 X10
N595 X5
N600 G80
N605 G0 Z2.3
N610 M9
N615 G28
N620 M5
N625 M30
%
