%
(1001)
(T3 D=3 CR=0 - ZMIN=-2.2 - flat end mill)
N10 G90 G94
N15 G17
N20 G21
N25 G28

(??1)
N30 T3 M6
N35 S20000 M3
N40 G54
N45 M8
N50 G0 X19.597 Y94.903
N55 G43 Z2.3
N60 Z2
N65 G1 Z0.3 F50
N70 X19.622 Y94.878
N75 X19.639 Y94.886
N80 X19.647 Y94.903
N85 X19.639 Y94.93 Z0.291 F800
N90 X19.618 Y94.949 Z0.282
N95 X19.59 Y94.953 Z0.273
N100 X19.564 Y94.942 Z0.264
N105 X19.549 Y94.919 Z0.255
N110 X19.548 Y94.891 Z0.246
N115 X19.563 Y94.867 Z0.237
N120 X19.588 Y94.854 Z0.228
N125 X19.616 Y94.857 Z0.219
N130 X19.637 Y94.875 Z0.21
N135 X19.647 Y94.901 Z0.201
N140 X19.64 Y94.928 Z0.192
N145 X19.62 Y94.948 Z0.183
N150 X19.592 Y94.953 Z0.174
N155 X19.566 Y94.943 Z0.165
N160 X19.55 Y94.921 Z0.156
N165 X19.548 Y94.893 Z0.147
N170 X19.561 Y94.868 Z0.138
N175 X19.586 Y94.855 Z0.129
N180 X19.614 Y94.856 Z0.119
N185 X19.636 Y94.873 Z0.11
N190 X19.646 Y94.899 Z0.101
N195 X19.641 Y94.926 Z0.092
N200 X19.622 Y94.947 Z0.083
N205 X19.595 Y94.953 Z0.074
N210 X19.568 Y94.945 Z0.065
N215 X19.55 Y94.923 Z0.056
N220 X19.547 Y94.895 Z0.047
N225 X19.56 Y94.87 Z0.038
N230 X19.583 Y94.855 Z0.029
N235 X19.611 Y94.856 Z0.02
N240 X19.635 Y94.871 Z0.011
N245 X19.646 Y94.897 Z0.002
N250 X19.642 Y94.924 Z-0.007
N255 X19.624 Y94.945 Z-0.016
N260 X19.597 Y94.953 Z-0.025
N265 X19.57 Y94.946 Z-0.034
N270 X19.551 Y94.925 Z-0.043
N275 X19.547 Y94.897 Z-0.052
N280 X19.558 Y94.872 Z-0.061
N285 X19.581 Y94.856 Z-0.07
N290 X19.609 Y94.855 Z-0.079
N295 X19.633 Y94.869 Z-0.088
N300 X19.646 Y94.894 Z-0.097
N305 X19.643 Y94.922 Z-0.106
N310 X19.626 Y94.944 Z-0.115
N315 X19.599 Y94.953 Z-0.124
N320 X19.572 Y94.947 Z-0.133
N325 X19.552 Y94.927 Z-0.142
N330 X19.547 Y94.899 Z-0.151
N335 X19.557 Y94.873 Z-0.16
N340 X19.579 Y94.857 Z-0.169
N345 X19.607 Y94.855 Z-0.178
N350 X19.632 Y94.868 Z-0.187
N355 X19.645 Y94.892 Z-0.196
N360 X19.644 Y94.92 Z-0.205
N365 X19.627 Y94.943 Z-0.214
N370 X19.601 Y94.953 Z-0.223
N375 X19.574 Y94.948 Z-0.232
N380 X19.553 Y94.929 Z-0.242
N385 X19.547 Y94.902 Z-0.251
N390 X19.555 Y94.875 Z-0.26
N395 X19.577 Y94.857 Z-0.269
N400 X19.605 Y94.854 Z-0.278
N405 X19.63 Y94.866 Z-0.287
N410 X19.645 Y94.89 Z-0.296
N415 X19.644 Y94.918 Z-0.305
N420 X19.629 Y94.941 Z-0.314
N425 X19.604 Y94.953 Z-0.323
N430 X19.576 Y94.949 Z-0.332
N435 X19.555 Y94.931 Z-0.341
N440 X19.547 Y94.904 Z-0.35
N445 X19.554 Y94.877 Z-0.359
N450 X19.575 Y94.858 Z-0.368
N455 X19.603 Y94.854 Z-0.377
N460 X19.628 Y94.865 Z-0.386
N465 X19.644 Y94.888 Z-0.395
N470 X19.645 Y94.916 Z-0.404
N475 X19.631 Y94.94 Z-0.413
N480 X19.606 Y94.953 Z-0.422
N485 X19.578 Y94.95 Z-0.431
N490 X19.556 Y94.933 Z-0.44
N495 X19.547 Y94.906 Z-0.449
N500 X19.553 Y94.879 Z-0.458
N505 X19.573 Y94.859 Z-0.467
N510 X19.6 Y94.854 Z-0.476
N515 X19.626 Y94.863 Z-0.485
N520 X19.643 Y94.886 Z-0.494
N525 X19.646 Y94.914 Z-0.503
N530 X19.632 Y94.938 Z-0.512
N535 X19.608 Y94.952 Z-0.521
N540 X19.58 Y94.951 Z-0.53
N545 X19.557 Y94.934 Z-0.539
N550 X19.547 Y94.909 Z-0.548
N555 X19.552 Y94.881 Z-0.557
N560 X19.571 Y94.861 Z-0.566
N565 X19.598 Y94.853 Z-0.575
N570 X19.625 Y94.862 Z-0.584
N575 X19.642 Y94.884 Z-0.594
N580 X19.646 Y94.911 Z-0.603
N585 X19.634 Y94.937 Z-0.612
N590 X19.61 Y94.952 Z-0.621
N595 X19.582 Y94.951 Z-0.63
N600 X19.559 Y94.936 Z-0.639
N605 X19.547 Y94.911 Z-0.648
N610 X19.551 Y94.883 Z-0.657
N615 X19.569 Y94.862 Z-0.666
N620 X19.596 Y94.853 Z-0.675
N625 X19.623 Y94.861 Z-0.684
N630 X19.642 Y94.882 Z-0.693
N635 X19.646 Y94.909 Z-0.702
N640 X19.635 Y94.935 Z-0.711
N645 X19.612 Y94.951 Z-0.72
N650 X19.584 Y94.952 Z-0.729
N655 X19.56 Y94.938 Z-0.738
N660 X19.547 Y94.913 Z-0.747
N665 X19.55 Y94.885 Z-0.756
N670 X19.567 Y94.863 Z-0.765
N675 X19.593 Y94.854 Z-0.774
N680 X19.621 Y94.86 Z-0.783
N685 X19.64 Y94.88 Z-0.792
N690 X19.646 Y94.907 Z-0.801
N695 X19.637 Y94.933 Z-0.81
N700 X19.615 Y94.95 Z-0.819
N705 X19.587 Y94.952 Z-0.828
N710 X19.562 Y94.939 Z-0.837
N715 X19.548 Y94.915 Z-0.846
N720 X19.549 Y94.887 Z-0.855
N725 X19.565 Y94.864 Z-0.864
N730 X19.591 Y94.854 Z-0.873
N735 X19.619 Y94.859 Z-0.882
N740 X19.639 Y94.878 Z-0.891
N745 X19.647 Y94.905 Z-0.9
N750 X19.638 Y94.931 Z-0.909
N755 X19.617 Y94.949 Z-0.918
N760 X19.589 Y94.953 Z-0.927
N765 X19.564 Y94.941 Z-0.936
N770 X19.549 Y94.917 Z-0.945
N775 Y94.889 Z-0.955
N780 X19.564 Y94.866 Z-0.964
N785 X19.589 Y94.854 Z-0.973
N790 X19.617 Y94.858 Z-0.982
N795 X19.638 Y94.876 Z-0.991
N800 X19.647 Y94.902 Z-1
N805 X19.639 Y94.929 Z-1.009
N810 X19.619 Y94.948 Z-1.018
N815 X19.591 Y94.953 Z-1.027
N820 X19.565 Y94.942 Z-1.036
N825 X19.549 Y94.92 Z-1.045
N830 X19.548 Y94.892 Z-1.054
N835 X19.562 Y94.867 Z-1.063
N840 X19.587 Y94.854 Z-1.072
N845 X19.615 Y94.857 Z-1.081
N850 X19.637 Y94.874 Z-1.09
N855 X19.646 Y94.9 Z-1.099
N860 X19.64 Y94.927 Z-1.108
N865 X19.621 Y94.947 Z-1.117
N870 X19.593 Y94.953 Z-1.126
N875 X19.567 Y94.944 Z-1.135
N880 X19.55 Y94.922 Z-1.144
N885 X19.547 Y94.894 Z-1.153
N890 X19.56 Y94.869 Z-1.162
N895 X19.584 Y94.855 Z-1.171
N900 X19.612 Y94.856 Z-1.18
N905 X19.635 Y94.872 Z-1.189
N910 X19.646 Y94.898 Z-1.198
N915 X19.642 Y94.925 Z-1.207
N920 X19.623 Y94.946 Z-1.216
N925 X19.596 Y94.953 Z-1.225
N930 X19.569 Y94.945 Z-1.234
N935 X19.551 Y94.924 Z-1.243
N940 X19.547 Y94.896 Z-1.252
N945 X19.559 Y94.871 Z-1.261
N950 X19.582 Y94.856 Z-1.27
N955 X19.61 Y94.855 Z-1.279
N960 X19.634 Y94.87 Z-1.288
N965 X19.646 Y94.896 Z-1.297
N970 X19.642 Y94.923 Z-1.306
N975 X19.625 Y94.945 Z-1.316
N980 X19.598 Y94.953 Z-1.325
N985 X19.571 Y94.946 Z-1.334
N990 X19.552 Y94.926 Z-1.343
N995 X19.547 Y94.898 Z-1.352
N1000 X19.557 Y94.872 Z-1.361
N1005 X19.58 Y94.856 Z-1.37
N1010 X19.608 Y94.855 Z-1.379
N1015 X19.632 Y94.869 Z-1.388
N1020 X19.646 Y94.893 Z-1.397
N1025 X19.643 Y94.921 Z-1.406
N1030 X19.626 Y94.944 Z-1.415
N1035 X19.6 Y94.953 Z-1.424
N1040 X19.573 Y94.947 Z-1.433
N1045 X19.553 Y94.928 Z-1.442
N1050 X19.547 Y94.901 Z-1.451
N1055 X19.556 Y94.874 Z-1.46
N1060 X19.578 Y94.857 Z-1.469
N1065 X19.606 Y94.854 Z-1.478
N1070 X19.631 Y94.867 Z-1.487
N1075 X19.645 Y94.891 Z-1.496
N1080 X19.644 Y94.919 Z-1.505
N1085 X19.628 Y94.942 Z-1.514
N1090 X19.603 Y94.953 Z-1.523
N1095 X19.575 Y94.949 Z-1.532
N1100 X19.554 Y94.93 Z-1.541
N1105 X19.547 Y94.903 Z-1.55
N1110 X19.555 Y94.876 Z-1.559
N1115 X19.576 Y94.858 Z-1.568
N1120 X19.604 Y94.854 Z-1.577
N1125 X19.629 Y94.865 Z-1.586
N1130 X19.644 Y94.889 Z-1.595
N1135 X19.645 Y94.917 Z-1.604
N1140 X19.63 Y94.941 Z-1.613
N1145 X19.605 Y94.953 Z-1.622
N1150 X19.577 Y94.949 Z-1.631
N1155 X19.555 Y94.932 Z-1.64
N1160 X19.547 Y94.905 Z-1.649
N1165 X19.553 Y94.878 Z-1.658
N1170 X19.574 Y94.859 Z-1.668
N1175 X19.601 Y94.854 Z-1.677
N1180 X19.627 Y94.864 Z-1.686
N1185 X19.644 Y94.887 Z-1.695
N1190 X19.645 Y94.915 Z-1.704
N1195 X19.632 Y94.939 Z-1.713
N1200 X19.607 Y94.952 Z-1.722
N1205 X19.579 Y94.95 Z-1.731
N1210 X19.557 Y94.934 Z-1.74
N1215 X19.547 Y94.907 Z-1.749
N1220 X19.552 Y94.88 Z-1.758
N1225 X19.572 Y94.86 Z-1.767
N1230 X19.599 Y94.853 Z-1.776
N1235 X19.626 Y94.863 Z-1.785
N1240 X19.643 Y94.885 Z-1.794
N1245 X19.646 Y94.912 Z-1.803
N1250 X19.633 Y94.937 Z-1.812
N1255 X19.609 Y94.952 Z-1.821
N1260 X19.581 Y94.951 Z-1.83
N1265 X19.558 Y94.935 Z-1.839
N1270 X19.547 Y94.91 Z-1.848
N1275 X19.551 Y94.882 Z-1.857
N1280 X19.57 Y94.861 Z-1.866
N1285 X19.597 Y94.853 Z-1.875
N1290 X19.624 Y94.861 Z-1.884
N1295 X19.642 Y94.883 Z-1.893
N1300 X19.646 Y94.91 Z-1.902
N1305 X19.635 Y94.936 Z-1.911
N1310 X19.611 Y94.951 Z-1.92
N1315 X19.583 Y94.952 Z-1.929
N1320 X19.56 Y94.937 Z-1.938
N1325 X19.547 Y94.912 Z-1.947
N1330 X19.55 Y94.884 Z-1.956
N1335 X19.568 Y94.862 Z-1.965
N1340 X19.595 Y94.853 Z-1.974
N1345 X19.622 Y94.86 Z-1.983
N1350 X19.641 Y94.881 Z-1.992
N1355 X19.646 Y94.908 Z-2.001
N1360 X19.636 Y94.934 Z-2.01
N1365 X19.614 Y94.95 Z-2.019
N1370 X19.586 Y94.952 Z-2.029
N1375 X19.561 Y94.939 Z-2.038
N1380 X19.548 Y94.914 Z-2.047
N1385 X19.55 Y94.886 Z-2.056
N1390 X19.566 Y94.864 Z-2.065
N1395 X19.592 Y94.854 Z-2.074
N1400 X19.62 Y94.859 Z-2.083
N1405 X19.64 Y94.879 Z-2.092
N1410 X19.647 Y94.906 Z-2.101
N1415 X19.637 Y94.932 Z-2.11
N1420 X19.616 Y94.95 Z-2.119
N1425 X19.588 Y94.953 Z-2.128
N1430 X19.563 Y94.94 Z-2.137
N1435 X19.548 Y94.916 Z-2.146
N1440 X19.549 Y94.888 Z-2.155
N1445 X19.564 Y94.865 Z-2.164
N1450 X19.59 Y94.854 Z-2.173
N1455 X19.618 Y94.858 Z-2.182
N1460 X19.639 Y94.877 Z-2.191
N1465 X19.647 Y94.903 Z-2.2
N1470 G3 X19.547 I-0.05
N1475 X19.647 I0.05
N1480 G1 X19.639 Y94.921
N1485 X19.622 Y94.928
N1490 X19.597 Y94.903
N1495 G0 Z2.3
N1500 X94.903
N1505 Z2
N1510 G1 Z0.3 F50
N1515 X94.878 Y94.928
N1520 X94.861 Y94.921
N1525 X94.853 Y94.903
N1530 X94.861 Y94.877 Z0.291 F800
N1535 X94.882 Y94.858 Z0.282
N1540 X94.91 Y94.854 Z0.273
N1545 X94.936 Y94.865 Z0.264
N1550 X94.951 Y94.888 Z0.255
N1555 X94.952 Y94.916 Z0.246
N1560 X94.937 Y94.94 Z0.237
N1565 X94.912 Y94.953 Z0.228
N1570 X94.884 Y94.95 Z0.219
N1575 X94.863 Y94.932 Z0.21
N1580 X94.853 Y94.906 Z0.201
N1585 X94.86 Y94.879 Z0.192
N1590 X94.88 Y94.859 Z0.183
N1595 X94.908 Y94.854 Z0.174
N1600 X94.934 Y94.864 Z0.165
N1605 X94.95 Y94.886 Z0.156
N1610 X94.952 Y94.914 Z0.147
N1615 X94.939 Y94.939 Z0.138
N1620 X94.914 Y94.952 Z0.129
N1625 X94.886 Y94.95 Z0.119
N1630 X94.864 Y94.934 Z0.11
N1635 X94.854 Y94.908 Z0.101
N1640 X94.859 Y94.881 Z0.092
N1645 X94.878 Y94.86 Z0.083
N1650 X94.905 Y94.853 Z0.074
N1655 X94.932 Y94.862 Z0.065
N1660 X94.95 Y94.884 Z0.056
N1665 X94.953 Y94.912 Z0.047
N1670 X94.94 Y94.937 Z0.038
N1675 X94.917 Y94.952 Z0.029
N1680 X94.889 Y94.951 Z0.02
N1685 X94.865 Y94.936 Z0.011
N1690 X94.854 Y94.91 Z0.002
N1695 X94.858 Y94.883 Z-0.007
N1700 X94.876 Y94.861 Z-0.016
N1705 X94.903 Y94.853 Z-0.025
N1710 X94.93 Y94.861 Z-0.034
N1715 X94.949 Y94.882 Z-0.043
N1720 X94.953 Y94.91 Z-0.052
N1725 X94.942 Y94.935 Z-0.061
N1730 X94.919 Y94.951 Z-0.07
N1735 X94.891 Y94.952 Z-0.079
N1740 X94.867 Y94.937 Z-0.088
N1745 X94.854 Y94.912 Z-0.097
N1750 X94.857 Y94.885 Z-0.106
N1755 X94.874 Y94.863 Z-0.115
N1760 X94.901 Y94.854 Z-0.124
N1765 X94.928 Y94.86 Z-0.133
N1770 X94.948 Y94.88 Z-0.142
N1775 X94.953 Y94.907 Z-0.151
N1780 X94.943 Y94.934 Z-0.16
N1785 X94.921 Y94.95 Z-0.169
N1790 X94.893 Y94.952 Z-0.178
N1795 X94.868 Y94.939 Z-0.187
N1800 X94.855 Y94.915 Z-0.196
N1805 X94.856 Y94.887 Z-0.205
N1810 X94.873 Y94.864 Z-0.214
N1815 X94.899 Y94.854 Z-0.223
N1820 X94.926 Y94.859 Z-0.232
N1825 X94.946 Y94.878 Z-0.242
N1830 X94.953 Y94.905 Z-0.251
N1835 X94.945 Y94.932 Z-0.26
N1840 X94.923 Y94.949 Z-0.269
N1845 X94.895 Y94.953 Z-0.278
N1850 X94.87 Y94.941 Z-0.287
N1855 X94.855 Y94.917 Z-0.296
N1860 X94.856 Y94.889 Z-0.305
N1865 X94.871 Y94.865 Z-0.314
N1870 X94.896 Y94.854 Z-0.323
N1875 X94.924 Y94.858 Z-0.332
N1880 X94.945 Y94.876 Z-0.341
N1885 X94.953 Y94.903 Z-0.35
N1890 X94.946 Y94.93 Z-0.359
N1895 X94.925 Y94.948 Z-0.368
N1900 X94.897 Y94.953 Z-0.377
N1905 X94.872 Y94.942 Z-0.386
N1910 X94.856 Y94.919 Z-0.395
N1915 X94.855 Y94.891 Z-0.404
N1920 X94.869 Y94.867 Z-0.413
N1925 X94.894 Y94.854 Z-0.422
N1930 X94.922 Y94.857 Z-0.431
N1935 X94.944 Y94.874 Z-0.44
N1940 X94.953 Y94.901 Z-0.449
N1945 X94.947 Y94.928 Z-0.458
N1950 X94.927 Y94.947 Z-0.467
N1955 X94.9 Y94.953 Z-0.476
N1960 X94.874 Y94.944 Z-0.485
N1965 X94.857 Y94.921 Z-0.494
N1970 X94.854 Y94.893 Z-0.503
N1975 X94.868 Y94.869 Z-0.512
N1980 X94.892 Y94.855 Z-0.521
N1985 X94.92 Y94.856 Z-0.53
N1990 X94.943 Y94.872 Z-0.539
N1995 X94.953 Y94.898 Z-0.548
N2000 X94.948 Y94.926 Z-0.557
N2005 X94.929 Y94.946 Z-0.566
N2010 X94.902 Y94.953 Z-0.575
N2015 X94.875 Y94.945 Z-0.584
N2020 X94.858 Y94.923 Z-0.594
N2025 X94.854 Y94.896 Z-0.603
N2030 X94.866 Y94.87 Z-0.612
N2035 X94.89 Y94.855 Z-0.621
N2040 X94.918 Y94.856 Z-0.63
N2045 X94.941 Y94.871 Z-0.639
N2050 X94.953 Y94.896 Z-0.648
N2055 X94.949 Y94.924 Z-0.657
N2060 X94.931 Y94.945 Z-0.666
N2065 X94.904 Y94.953 Z-0.675
N2070 X94.877 Y94.946 Z-0.684
N2075 X94.858 Y94.925 Z-0.693
N2080 X94.854 Y94.898 Z-0.702
N2085 X94.865 Y94.872 Z-0.711
N2090 X94.888 Y94.856 Z-0.72
N2095 X94.916 Y94.855 Z-0.729
N2100 X94.94 Y94.869 Z-0.738
N2105 X94.953 Y94.894 Z-0.747
N2110 X94.95 Y94.922 Z-0.756
N2115 X94.933 Y94.944 Z-0.765
N2120 X94.907 Y94.953 Z-0.774
N2125 X94.879 Y94.947 Z-0.783
N2130 X94.86 Y94.927 Z-0.792
N2135 X94.854 Y94.9 Z-0.801
N2140 X94.863 Y94.874 Z-0.81
N2145 X94.885 Y94.857 Z-0.819
N2150 X94.913 Y94.854 Z-0.828
N2155 X94.938 Y94.867 Z-0.837
N2160 X94.952 Y94.892 Z-0.846
N2165 X94.951 Y94.92 Z-0.855
N2170 X94.935 Y94.942 Z-0.864
N2175 X94.909 Y94.953 Z-0.873
N2180 X94.881 Y94.948 Z-0.882
N2185 X94.861 Y94.929 Z-0.891
N2190 X94.853 Y94.902 Z-0.9
N2195 X94.862 Y94.876 Z-0.909
N2200 X94.883 Y94.858 Z-0.918
N2205 X94.911 Y94.854 Z-0.927
N2210 X94.936 Y94.866 Z-0.936
N2215 X94.951 Y94.889 Z-0.945
N2220 Y94.917 Z-0.955
N2225 X94.936 Y94.941 Z-0.964
N2230 X94.911 Y94.953 Z-0.973
N2235 X94.883 Y94.949 Z-0.982
N2240 X94.862 Y94.931 Z-0.991
N2245 X94.853 Y94.905 Z-1
N2250 X94.861 Y94.878 Z-1.009
N2255 X94.881 Y94.859 Z-1.018
N2260 X94.909 Y94.854 Z-1.027
N2265 X94.935 Y94.864 Z-1.036
N2270 X94.951 Y94.887 Z-1.045
N2275 X94.952 Y94.915 Z-1.054
N2280 X94.938 Y94.939 Z-1.063
N2285 X94.913 Y94.952 Z-1.072
N2290 X94.885 Y94.95 Z-1.081
N2295 X94.863 Y94.933 Z-1.09
N2300 X94.854 Y94.907 Z-1.099
N2305 X94.86 Y94.88 Z-1.108
N2310 X94.879 Y94.86 Z-1.117
N2315 X94.907 Y94.854 Z-1.126
N2320 X94.933 Y94.863 Z-1.135
N2325 X94.95 Y94.885 Z-1.144
N2330 X94.953 Y94.913 Z-1.153
N2335 X94.94 Y94.938 Z-1.162
N2340 X94.916 Y94.952 Z-1.171
N2345 X94.888 Y94.951 Z-1.18
N2350 X94.865 Y94.935 Z-1.189
N2355 X94.854 Y94.909 Z-1.198
N2360 X94.858 Y94.882 Z-1.207
N2365 X94.877 Y94.861 Z-1.216
N2370 X94.904 Y94.853 Z-1.225
N2375 X94.931 Y94.862 Z-1.234
N2380 X94.949 Y94.883 Z-1.243
N2385 X94.953 Y94.911 Z-1.252
N2390 X94.941 Y94.936 Z-1.261
N2395 X94.918 Y94.951 Z-1.27
N2400 X94.89 Y94.952 Z-1.279
N2405 X94.866 Y94.937 Z-1.288
N2410 X94.854 Y94.911 Z-1.297
N2415 X94.858 Y94.884 Z-1.306
N2420 X94.875 Y94.862 Z-1.316
N2425 X94.902 Y94.853 Z-1.325
N2430 X94.929 Y94.861 Z-1.334
N2435 X94.948 Y94.881 Z-1.343
N2440 X94.953 Y94.909 Z-1.352
N2445 X94.943 Y94.934 Z-1.361
N2450 X94.92 Y94.951 Z-1.37
N2455 X94.892 Y94.952 Z-1.379
N2460 X94.868 Y94.938 Z-1.388
N2465 X94.854 Y94.914 Z-1.397
N2470 X94.857 Y94.886 Z-1.406
N2475 X94.874 Y94.863 Z-1.415
N2480 X94.9 Y94.854 Z-1.424
N2485 X94.927 Y94.859 Z-1.433
N2490 X94.947 Y94.879 Z-1.442
N2495 X94.953 Y94.906 Z-1.451
N2500 X94.944 Y94.933 Z-1.46
N2505 X94.922 Y94.95 Z-1.469
N2510 X94.894 Y94.953 Z-1.478
N2515 X94.869 Y94.94 Z-1.487
N2520 X94.855 Y94.916 Z-1.496
N2525 X94.856 Y94.888 Z-1.505
N2530 X94.872 Y94.865 Z-1.514
N2535 X94.897 Y94.854 Z-1.523
N2540 X94.925 Y94.858 Z-1.532
N2545 X94.946 Y94.877 Z-1.541
N2550 X94.953 Y94.904 Z-1.55
N2555 X94.945 Y94.931 Z-1.559
N2560 X94.924 Y94.949 Z-1.568
N2565 X94.896 Y94.953 Z-1.577
N2570 X94.871 Y94.941 Z-1.586
N2575 X94.856 Y94.918 Z-1.595
N2580 X94.855 Y94.89 Z-1.604
N2585 X94.87 Y94.866 Z-1.613
N2590 X94.895 Y94.854 Z-1.622
N2595 X94.923 Y94.857 Z-1.631
N2600 X94.945 Y94.875 Z-1.64
N2605 X94.953 Y94.902 Z-1.649
N2610 X94.946 Y94.929 Z-1.658
N2615 X94.926 Y94.948 Z-1.668
N2620 X94.899 Y94.953 Z-1.677
N2625 X94.873 Y94.943 Z-1.686
N2630 X94.856 Y94.92 Z-1.695
N2635 X94.855 Y94.892 Z-1.704
N2640 X94.868 Y94.868 Z-1.713
N2645 X94.893 Y94.855 Z-1.722
N2650 X94.921 Y94.857 Z-1.731
N2655 X94.943 Y94.873 Z-1.74
N2660 X94.953 Y94.899 Z-1.749
N2665 X94.948 Y94.927 Z-1.758
N2670 X94.928 Y94.947 Z-1.767
N2675 X94.901 Y94.953 Z-1.776
N2680 X94.874 Y94.944 Z-1.785
N2685 X94.857 Y94.922 Z-1.794
N2690 X94.854 Y94.894 Z-1.803
N2695 X94.867 Y94.869 Z-1.812
N2700 X94.891 Y94.855 Z-1.821
N2705 X94.919 Y94.856 Z-1.83
N2710 X94.942 Y94.872 Z-1.839
N2715 X94.953 Y94.897 Z-1.848
N2720 X94.949 Y94.925 Z-1.857
N2725 X94.93 Y94.946 Z-1.866
N2730 X94.903 Y94.953 Z-1.875
N2735 X94.876 Y94.945 Z-1.884
N2740 X94.858 Y94.924 Z-1.893
N2745 X94.854 Y94.897 Z-1.902
N2750 X94.865 Y94.871 Z-1.911
N2755 X94.889 Y94.856 Z-1.92
N2760 X94.917 Y94.855 Z-1.929
N2765 X94.94 Y94.87 Z-1.938
N2770 X94.953 Y94.895 Z-1.947
N2775 X94.95 Y94.923 Z-1.956
N2780 X94.932 Y94.945 Z-1.965
N2785 X94.905 Y94.953 Z-1.974
N2790 X94.878 Y94.947 Z-1.983
N2795 X94.859 Y94.926 Z-1.992
N2800 X94.854 Y94.899 Z-2.001
N2805 X94.864 Y94.873 Z-2.01
N2810 X94.886 Y94.856 Z-2.019
N2815 X94.914 Y94.855 Z-2.029
N2820 X94.939 Y94.868 Z-2.038
N2825 X94.952 Y94.893 Z-2.047
N2830 X94.95 Y94.921 Z-2.056
N2835 X94.934 Y94.943 Z-2.065
N2840 X94.908 Y94.953 Z-2.074
N2845 X94.88 Y94.948 Z-2.083
N2850 X94.86 Y94.928 Z-2.092
N2855 X94.853 Y94.901 Z-2.101
N2860 X94.863 Y94.875 Z-2.11
N2865 X94.884 Y94.857 Z-2.119
N2870 X94.912 Y94.854 Z-2.128
N2875 X94.937 Y94.867 Z-2.137
N2880 X94.952 Y94.891 Z-2.146
N2885 X94.951 Y94.919 Z-2.155
N2890 X94.936 Y94.942 Z-2.164
N2895 X94.91 Y94.953 Z-2.173
N2900 X94.882 Y94.949 Z-2.182
N2905 X94.861 Y94.93 Z-2.191
N2910 X94.853 Y94.903 Z-2.2
N2915 G3 X94.953 I0.05
N2920 X94.853 I-0.05
N2925 G1 X94.861 Y94.886
N2930 X94.878 Y94.878
N2935 X94.903 Y94.903
N2940 G0 Z2.3
N2945 Y19.597
N2950 Z2
N2955 G1 Z0.3 F50
N2960 X94.928 Y19.572
N2965 X94.946 Y19.579
N2970 X94.953 Y19.597
N2975 X94.946 Y19.623 Z0.291 F800
N2980 X94.925 Y19.642 Z0.282
N2985 X94.897 Y19.646 Z0.273
N2990 X94.871 Y19.635 Z0.264
N2995 X94.856 Y19.612 Z0.255
N3000 X94.855 Y19.584 Z0.246
N3005 X94.87 Y19.56 Z0.237
N3010 X94.895 Y19.547 Z0.228
N3015 X94.923 Y19.55 Z0.219
N3020 X94.944 Y19.568 Z0.21
N3025 X94.953 Y19.594 Z0.201
N3030 X94.947 Y19.621 Z0.192
N3035 X94.927 Y19.641 Z0.183
N3040 X94.899 Y19.646 Z0.174
N3045 X94.873 Y19.636 Z0.165
N3050 X94.856 Y19.614 Z0.156
N3055 X94.855 Y19.586 Z0.147
N3060 X94.868 Y19.561 Z0.138
N3065 X94.892 Y19.548 Z0.129
N3070 X94.92 Y19.55 Z0.119
N3075 X94.943 Y19.566 Z0.11
N3080 X94.953 Y19.592 Z0.101
N3085 X94.948 Y19.619 Z0.092
N3090 X94.929 Y19.64 Z0.083
N3095 X94.901 Y19.647 Z0.074
N3100 X94.875 Y19.638 Z0.065
N3105 X94.857 Y19.616 Z0.056
N3110 X94.854 Y19.588 Z0.047
N3115 X94.866 Y19.563 Z0.038
N3120 X94.89 Y19.548 Z0.029
N3125 X94.918 Y19.549 Z0.02
N3130 X94.942 Y19.564 Z0.011
N3135 X94.953 Y19.59 Z0.002
N3140 X94.949 Y19.617 Z-0.007
N3145 X94.931 Y19.639 Z-0.016
N3150 X94.904 Y19.647 Z-0.025
N3155 X94.877 Y19.639 Z-0.034
N3160 X94.858 Y19.618 Z-0.043
N3165 X94.854 Y19.59 Z-0.052
N3170 X94.865 Y19.565 Z-0.061
N3175 X94.888 Y19.549 Z-0.07
N3180 X94.916 Y19.548 Z-0.079
N3185 X94.94 Y19.563 Z-0.088
N3190 X94.953 Y19.588 Z-0.097
N3195 X94.95 Y19.615 Z-0.106
N3200 X94.932 Y19.637 Z-0.115
N3205 X94.906 Y19.647 Z-0.124
N3210 X94.879 Y19.64 Z-0.133
N3215 X94.859 Y19.62 Z-0.142
N3220 X94.854 Y19.593 Z-0.151
N3225 X94.864 Y19.566 Z-0.16
N3230 X94.886 Y19.55 Z-0.169
N3235 X94.914 Y19.548 Z-0.178
N3240 X94.938 Y19.561 Z-0.187
N3245 X94.952 Y19.585 Z-0.196
N3250 X94.951 Y19.613 Z-0.205
N3255 X94.934 Y19.636 Z-0.214
N3260 X94.908 Y19.646 Z-0.223
N3265 X94.881 Y19.641 Z-0.232
N3270 X94.86 Y19.622 Z-0.242
N3275 X94.853 Y19.595 Z-0.251
N3280 X94.862 Y19.568 Z-0.26
N3285 X94.884 Y19.551 Z-0.269
N3290 X94.912 Y19.547 Z-0.278
N3295 X94.937 Y19.559 Z-0.287
N3300 X94.952 Y19.583 Z-0.296
N3305 X94.951 Y19.611 Z-0.305
N3310 X94.936 Y19.635 Z-0.314
N3315 X94.91 Y19.646 Z-0.323
N3320 X94.883 Y19.642 Z-0.332
N3325 X94.862 Y19.624 Z-0.341
N3330 X94.853 Y19.597 Z-0.35
N3335 X94.861 Y19.57 Z-0.359
N3340 X94.882 Y19.551 Z-0.368
N3345 X94.909 Y19.547 Z-0.377
N3350 X94.935 Y19.558 Z-0.386
N3355 X94.951 Y19.581 Z-0.395
N3360 X94.952 Y19.609 Z-0.404
N3365 X94.938 Y19.633 Z-0.413
N3370 X94.913 Y19.646 Z-0.422
N3375 X94.885 Y19.643 Z-0.431
N3380 X94.863 Y19.626 Z-0.44
N3385 X94.854 Y19.599 Z-0.449
N3390 X94.86 Y19.572 Z-0.458
N3395 X94.88 Y19.553 Z-0.467
N3400 X94.907 Y19.547 Z-0.476
N3405 X94.933 Y19.556 Z-0.485
N3410 X94.95 Y19.579 Z-0.494
N3415 X94.952 Y19.607 Z-0.503
N3420 X94.939 Y19.631 Z-0.512
N3425 X94.915 Y19.645 Z-0.521
N3430 X94.887 Y19.644 Z-0.53
N3435 X94.864 Y19.628 Z-0.539
N3440 X94.854 Y19.602 Z-0.548
N3445 X94.859 Y19.574 Z-0.557
N3450 X94.878 Y19.554 Z-0.566
N3455 X94.905 Y19.547 Z-0.575
N3460 X94.931 Y19.555 Z-0.584
N3465 X94.949 Y19.577 Z-0.594
N3470 X94.953 Y19.604 Z-0.603
N3475 X94.941 Y19.63 Z-0.612
N3480 X94.917 Y19.645 Z-0.621
N3485 X94.889 Y19.644 Z-0.63
N3490 X94.866 Y19.629 Z-0.639
N3495 X94.854 Y19.604 Z-0.648
N3500 X94.858 Y19.576 Z-0.657
N3505 X94.876 Y19.555 Z-0.666
N3510 X94.903 Y19.547 Z-0.675
N3515 X94.93 Y19.554 Z-0.684
N3520 X94.948 Y19.575 Z-0.693
N3525 X94.953 Y19.602 Z-0.702
N3530 X94.942 Y19.628 Z-0.711
N3535 X94.919 Y19.644 Z-0.72
N3540 X94.891 Y19.645 Z-0.729
N3545 X94.867 Y19.631 Z-0.738
N3550 X94.854 Y19.606 Z-0.747
N3555 X94.857 Y19.578 Z-0.756
N3560 X94.874 Y19.556 Z-0.765
N3565 X94.9 Y19.547 Z-0.774
N3570 X94.928 Y19.553 Z-0.783
N3575 X94.947 Y19.573 Z-0.792
N3580 X94.953 Y19.6 Z-0.801
N3585 X94.944 Y19.626 Z-0.81
N3590 X94.921 Y19.643 Z-0.819
N3595 X94.894 Y19.646 Z-0.828
N3600 X94.869 Y19.633 Z-0.837
N3605 X94.855 Y19.608 Z-0.846
N3610 X94.856 Y19.58 Z-0.855
N3615 X94.872 Y19.558 Z-0.864
N3620 X94.898 Y19.547 Z-0.873
N3625 X94.926 Y19.552 Z-0.882
N3630 X94.946 Y19.571 Z-0.891
N3635 X94.953 Y19.598 Z-0.9
N3640 X94.945 Y19.624 Z-0.909
N3645 X94.924 Y19.642 Z-0.918
N3650 X94.896 Y19.646 Z-0.927
N3655 X94.87 Y19.634 Z-0.936
N3660 X94.855 Y19.611 Z-0.945
N3665 Y19.583 Z-0.955
N3670 X94.87 Y19.559 Z-0.964
N3675 X94.896 Y19.547 Z-0.973
N3680 X94.924 Y19.551 Z-0.982
N3685 X94.945 Y19.569 Z-0.991
N3690 X94.953 Y19.595 Z-1
N3695 X94.946 Y19.622 Z-1.009
N3700 X94.926 Y19.641 Z-1.018
N3705 X94.898 Y19.646 Z-1.027
N3710 X94.872 Y19.636 Z-1.036
N3715 X94.856 Y19.613 Z-1.045
N3720 X94.855 Y19.585 Z-1.054
N3725 X94.869 Y19.561 Z-1.063
N3730 X94.894 Y19.548 Z-1.072
N3735 X94.921 Y19.55 Z-1.081
N3740 X94.944 Y19.567 Z-1.09
N3745 X94.953 Y19.593 Z-1.099
N3750 X94.947 Y19.62 Z-1.108
N3755 X94.928 Y19.64 Z-1.117
N3760 X94.9 Y19.646 Z-1.126
N3765 X94.874 Y19.637 Z-1.135
N3770 X94.857 Y19.615 Z-1.144
N3775 X94.854 Y19.587 Z-1.153
N3780 X94.867 Y19.562 Z-1.162
N3785 X94.891 Y19.548 Z-1.171
N3790 X94.919 Y19.549 Z-1.18
N3795 X94.942 Y19.565 Z-1.189
N3800 X94.953 Y19.591 Z-1.198
N3805 X94.948 Y19.618 Z-1.207
N3810 X94.93 Y19.639 Z-1.216
N3815 X94.903 Y19.647 Z-1.225
N3820 X94.876 Y19.638 Z-1.234
N3825 X94.858 Y19.617 Z-1.243
N3830 X94.854 Y19.589 Z-1.252
N3835 X94.866 Y19.564 Z-1.261
N3840 X94.889 Y19.549 Z-1.27
N3845 X94.917 Y19.548 Z-1.279
N3850 X94.941 Y19.563 Z-1.288
N3855 X94.953 Y19.589 Z-1.297
N3860 X94.949 Y19.616 Z-1.306
N3865 X94.931 Y19.638 Z-1.316
N3870 X94.905 Y19.647 Z-1.325
N3875 X94.878 Y19.639 Z-1.334
N3880 X94.859 Y19.619 Z-1.343
N3885 X94.854 Y19.591 Z-1.352
N3890 X94.864 Y19.566 Z-1.361
N3895 X94.887 Y19.549 Z-1.37
N3900 X94.915 Y19.548 Z-1.379
N3905 X94.939 Y19.562 Z-1.388
N3910 X94.952 Y19.586 Z-1.397
N3915 X94.95 Y19.614 Z-1.406
N3920 X94.933 Y19.637 Z-1.415
N3925 X94.907 Y19.646 Z-1.424
N3930 X94.88 Y19.641 Z-1.433
N3935 X94.86 Y19.621 Z-1.442
N3940 X94.854 Y19.594 Z-1.451
N3945 X94.863 Y19.567 Z-1.46
N3950 X94.885 Y19.55 Z-1.469
N3955 X94.913 Y19.547 Z-1.478
N3960 X94.938 Y19.56 Z-1.487
N3965 X94.952 Y19.584 Z-1.496
N3970 X94.951 Y19.612 Z-1.505
N3975 X94.935 Y19.635 Z-1.514
N3980 X94.909 Y19.646 Z-1.523
N3985 X94.882 Y19.642 Z-1.532
N3990 X94.861 Y19.623 Z-1.541
N3995 X94.853 Y19.596 Z-1.55
N4000 X94.862 Y19.569 Z-1.559
N4005 X94.883 Y19.551 Z-1.568
N4010 X94.91 Y19.547 Z-1.577
N4015 X94.936 Y19.559 Z-1.586
N4020 X94.951 Y19.582 Z-1.595
N4025 X94.952 Y19.61 Z-1.604
N4030 X94.937 Y19.634 Z-1.613
N4035 X94.912 Y19.646 Z-1.622
N4040 X94.884 Y19.643 Z-1.631
N4045 X94.862 Y19.625 Z-1.64
N4050 X94.853 Y19.598 Z-1.649
N4055 X94.86 Y19.571 Z-1.658
N4060 X94.881 Y19.552 Z-1.668
N4065 X94.908 Y19.547 Z-1.677
N4070 X94.934 Y19.557 Z-1.686
N4075 X94.951 Y19.58 Z-1.695
N4080 X94.952 Y19.608 Z-1.704
N4085 X94.938 Y19.632 Z-1.713
N4090 X94.914 Y19.645 Z-1.722
N4095 X94.886 Y19.643 Z-1.731
N4100 X94.864 Y19.627 Z-1.74
N4105 X94.854 Y19.601 Z-1.749
N4110 X94.859 Y19.573 Z-1.758
N4115 X94.879 Y19.553 Z-1.767
N4120 X94.906 Y19.547 Z-1.776
N4125 X94.932 Y19.556 Z-1.785
N4130 X94.95 Y19.578 Z-1.794
N4135 X94.953 Y19.606 Z-1.803
N4140 X94.94 Y19.631 Z-1.812
N4145 X94.916 Y19.645 Z-1.821
N4150 X94.888 Y19.644 Z-1.83
N4155 X94.865 Y19.628 Z-1.839
N4160 X94.854 Y19.603 Z-1.848
N4165 X94.858 Y19.575 Z-1.857
N4170 X94.877 Y19.554 Z-1.866
N4175 X94.904 Y19.547 Z-1.875
N4180 X94.931 Y19.555 Z-1.884
N4185 X94.949 Y19.576 Z-1.893
N4190 X94.953 Y19.603 Z-1.902
N4195 X94.942 Y19.629 Z-1.911
N4200 X94.918 Y19.644 Z-1.92
N4205 X94.89 Y19.645 Z-1.929
N4210 X94.866 Y19.63 Z-1.938
N4215 X94.854 Y19.605 Z-1.947
N4220 X94.857 Y19.577 Z-1.956
N4225 X94.875 Y19.555 Z-1.965
N4230 X94.901 Y19.547 Z-1.974
N4235 X94.929 Y19.553 Z-1.983
N4240 X94.948 Y19.574 Z-1.992
N4245 X94.953 Y19.601 Z-2.001
N4250 X94.943 Y19.627 Z-2.01
N4255 X94.92 Y19.644 Z-2.019
N4260 X94.892 Y19.645 Z-2.029
N4265 X94.868 Y19.632 Z-2.038
N4270 X94.855 Y19.607 Z-2.047
N4275 X94.856 Y19.579 Z-2.056
N4280 X94.873 Y19.557 Z-2.065
N4285 X94.899 Y19.547 Z-2.074
N4290 X94.927 Y19.552 Z-2.083
N4295 X94.947 Y19.572 Z-2.092
N4300 X94.953 Y19.599 Z-2.101
N4305 X94.944 Y19.625 Z-2.11
N4310 X94.923 Y19.643 Z-2.119
N4315 X94.895 Y19.646 Z-2.128
N4320 X94.87 Y19.633 Z-2.137
N4325 X94.855 Y19.609 Z-2.146
N4330 X94.856 Y19.581 Z-2.155
N4335 X94.871 Y19.558 Z-2.164
N4340 X94.897 Y19.547 Z-2.173
N4345 X94.925 Y19.551 Z-2.182
N4350 X94.946 Y19.57 Z-2.191
N4355 X94.953 Y19.597 Z-2.2
N4360 G3 X94.853 I-0.05
N4365 X94.953 I0.05
N4370 G1 X94.946 Y19.614
N4375 X94.928 Y19.622
N4380 X94.903 Y19.597
N4385 G0 Z2.3
N4390 X19.597
N4395 Z2
N4400 G1 Z0.3 F50
N4405 X19.622 Y19.572
N4410 X19.639 Y19.579
N4415 X19.647 Y19.597
N4420 X19.639 Y19.623 Z0.291 F800
N4425 X19.618 Y19.642 Z0.282
N4430 X19.59 Y19.646 Z0.273
N4435 X19.564 Y19.635 Z0.264
N4440 X19.549 Y19.612 Z0.255
N4445 X19.548 Y19.584 Z0.246
N4450 X19.563 Y19.56 Z0.237
N4455 X19.588 Y19.547 Z0.228
N4460 X19.616 Y19.55 Z0.219
N4465 X19.637 Y19.568 Z0.21
N4470 X19.647 Y19.594 Z0.201
N4475 X19.64 Y19.621 Z0.192
N4480 X19.62 Y19.641 Z0.183
N4485 X19.592 Y19.646 Z0.174
N4490 X19.566 Y19.636 Z0.165
N4495 X19.55 Y19.614 Z0.156
N4500 X19.548 Y19.586 Z0.147
N4505 X19.561 Y19.561 Z0.138
N4510 X19.586 Y19.548 Z0.129
N4515 X19.614 Y19.55 Z0.119
N4520 X19.636 Y19.566 Z0.11
N4525 X19.646 Y19.592 Z0.101
N4530 X19.641 Y19.619 Z0.092
N4535 X19.622 Y19.64 Z0.083
N4540 X19.595 Y19.647 Z0.074
N4545 X19.568 Y19.638 Z0.065
N4550 X19.55 Y19.616 Z0.056
N4555 X19.547 Y19.588 Z0.047
N4560 X19.56 Y19.563 Z0.038
N4565 X19.583 Y19.548 Z0.029
N4570 X19.611 Y19.549 Z0.02
N4575 X19.635 Y19.564 Z0.011
N4580 X19.646 Y19.59 Z0.002
N4585 X19.642 Y19.617 Z-0.007
N4590 X19.624 Y19.639 Z-0.016
N4595 X19.597 Y19.647 Z-0.025
N4600 X19.57 Y19.639 Z-0.034
N4605 X19.551 Y19.618 Z-0.043
N4610 X19.547 Y19.59 Z-0.052
N4615 X19.558 Y19.565 Z-0.061
N4620 X19.581 Y19.549 Z-0.07
N4625 X19.609 Y19.548 Z-0.079
N4630 X19.633 Y19.563 Z-0.088
N4635 X19.646 Y19.588 Z-0.097
N4640 X19.643 Y19.615 Z-0.106
N4645 X19.626 Y19.637 Z-0.115
N4650 X19.599 Y19.646 Z-0.124
N4655 X19.572 Y19.64 Z-0.133
N4660 X19.552 Y19.62 Z-0.142
N4665 X19.547 Y19.593 Z-0.151
N4670 X19.557 Y19.566 Z-0.16
N4675 X19.579 Y19.55 Z-0.169
N4680 X19.607 Y19.548 Z-0.178
N4685 X19.632 Y19.561 Z-0.187
N4690 X19.645 Y19.585 Z-0.196
N4695 X19.644 Y19.613 Z-0.205
N4700 X19.627 Y19.636 Z-0.214
N4705 X19.601 Y19.646 Z-0.223
N4710 X19.574 Y19.641 Z-0.232
N4715 X19.553 Y19.622 Z-0.242
N4720 X19.547 Y19.595 Z-0.251
N4725 X19.555 Y19.568 Z-0.26
N4730 X19.577 Y19.551 Z-0.269
N4735 X19.605 Y19.547 Z-0.278
N4740 X19.63 Y19.559 Z-0.287
N4745 X19.645 Y19.583 Z-0.296
N4750 X19.644 Y19.611 Z-0.305
N4755 X19.629 Y19.635 Z-0.314
N4760 X19.604 Y19.646 Z-0.323
N4765 X19.576 Y19.642 Z-0.332
N4770 X19.555 Y19.624 Z-0.341
N4775 X19.547 Y19.597 Z-0.35
N4780 X19.554 Y19.57 Z-0.359
N4785 X19.575 Y19.551 Z-0.368
N4790 X19.603 Y19.547 Z-0.377
N4795 X19.628 Y19.558 Z-0.386
N4800 X19.644 Y19.581 Z-0.395
N4805 X19.645 Y19.609 Z-0.404
N4810 X19.631 Y19.633 Z-0.413
N4815 X19.606 Y19.646 Z-0.422
N4820 X19.578 Y19.643 Z-0.431
N4825 X19.556 Y19.626 Z-0.44
N4830 X19.547 Y19.599 Z-0.449
N4835 X19.553 Y19.572 Z-0.458
N4840 X19.573 Y19.553 Z-0.467
N4845 X19.6 Y19.547 Z-0.476
N4850 X19.626 Y19.556 Z-0.485
N4855 X19.643 Y19.579 Z-0.494
N4860 X19.646 Y19.607 Z-0.503
N4865 X19.632 Y19.631 Z-0.512
N4870 X19.608 Y19.645 Z-0.521
N4875 X19.58 Y19.644 Z-0.53
N4880 X19.557 Y19.628 Z-0.539
N4885 X19.547 Y19.602 Z-0.548
N4890 X19.552 Y19.574 Z-0.557
N4895 X19.571 Y19.554 Z-0.566
N4900 X19.598 Y19.547 Z-0.575
N4905 X19.625 Y19.555 Z-0.584
N4910 X19.642 Y19.577 Z-0.594
N4915 X19.646 Y19.604 Z-0.603
N4920 X19.634 Y19.63 Z-0.612
N4925 X19.61 Y19.645 Z-0.621
N4930 X19.582 Y19.644 Z-0.63
N4935 X19.559 Y19.629 Z-0.639
N4940 X19.547 Y19.604 Z-0.648
N4945 X19.551 Y19.576 Z-0.657
N4950 X19.569 Y19.555 Z-0.666
N4955 X19.596 Y19.547 Z-0.675
N4960 X19.623 Y19.554 Z-0.684
N4965 X19.642 Y19.575 Z-0.693
N4970 X19.646 Y19.602 Z-0.702
N4975 X19.635 Y19.628 Z-0.711
N4980 X19.612 Y19.644 Z-0.72
N4985 X19.584 Y19.645 Z-0.729
N4990 X19.56 Y19.631 Z-0.738
N4995 X19.547 Y19.606 Z-0.747
N5000 X19.55 Y19.578 Z-0.756
N5005 X19.567 Y19.556 Z-0.765
N5010 X19.593 Y19.547 Z-0.774
N5015 X19.621 Y19.553 Z-0.783
N5020 X19.64 Y19.573 Z-0.792
N5025 X19.646 Y19.6 Z-0.801
N5030 X19.637 Y19.626 Z-0.81
N5035 X19.615 Y19.643 Z-0.819
N5040 X19.587 Y19.646 Z-0.828
N5045 X19.562 Y19.633 Z-0.837
N5050 X19.548 Y19.608 Z-0.846
N5055 X19.549 Y19.58 Z-0.855
N5060 X19.565 Y19.558 Z-0.864
N5065 X19.591 Y19.547 Z-0.873
N5070 X19.619 Y19.552 Z-0.882
N5075 X19.639 Y19.571 Z-0.891
N5080 X19.647 Y19.598 Z-0.9
N5085 X19.638 Y19.624 Z-0.909
N5090 X19.617 Y19.642 Z-0.918
N5095 X19.589 Y19.646 Z-0.927
N5100 X19.564 Y19.634 Z-0.936
N5105 X19.549 Y19.611 Z-0.945
N5110 Y19.583 Z-0.955
N5115 X19.564 Y19.559 Z-0.964
N5120 X19.589 Y19.547 Z-0.973
N5125 X19.617 Y19.551 Z-0.982
N5130 X19.638 Y19.569 Z-0.991
N5135 X19.647 Y19.595 Z-1
N5140 X19.639 Y19.622 Z-1.009
N5145 X19.619 Y19.641 Z-1.018
N5150 X19.591 Y19.646 Z-1.027
N5155 X19.565 Y19.636 Z-1.036
N5160 X19.549 Y19.613 Z-1.045
N5165 X19.548 Y19.585 Z-1.054
N5170 X19.562 Y19.561 Z-1.063
N5175 X19.587 Y19.548 Z-1.072
N5180 X19.615 Y19.55 Z-1.081
N5185 X19.637 Y19.567 Z-1.09
N5190 X19.646 Y19.593 Z-1.099
N5195 X19.64 Y19.62 Z-1.108
N5200 X19.621 Y19.64 Z-1.117
N5205 X19.593 Y19.646 Z-1.126
N5210 X19.567 Y19.637 Z-1.135
N5215 X19.55 Y19.615 Z-1.144
N5220 X19.547 Y19.587 Z-1.153
N5225 X19.56 Y19.562 Z-1.162
N5230 X19.584 Y19.548 Z-1.171
N5235 X19.612 Y19.549 Z-1.18
N5240 X19.635 Y19.565 Z-1.189
N5245 X19.646 Y19.591 Z-1.198
N5250 X19.642 Y19.618 Z-1.207
N5255 X19.623 Y19.639 Z-1.216
N5260 X19.596 Y19.647 Z-1.225
N5265 X19.569 Y19.638 Z-1.234
N5270 X19.551 Y19.617 Z-1.243
N5275 X19.547 Y19.589 Z-1.252
N5280 X19.559 Y19.564 Z-1.261
N5285 X19.582 Y19.549 Z-1.27
N5290 X19.61 Y19.548 Z-1.279
N5295 X19.634 Y19.563 Z-1.288
N5300 X19.646 Y19.589 Z-1.297
N5305 X19.642 Y19.616 Z-1.306
N5310 X19.625 Y19.638 Z-1.316
N5315 X19.598 Y19.647 Z-1.325
N5320 X19.571 Y19.639 Z-1.334
N5325 X19.552 Y19.619 Z-1.343
N5330 X19.547 Y19.591 Z-1.352
N5335 X19.557 Y19.566 Z-1.361
N5340 X19.58 Y19.549 Z-1.37
N5345 X19.608 Y19.548 Z-1.379
N5350 X19.632 Y19.562 Z-1.388
N5355 X19.646 Y19.586 Z-1.397
N5360 X19.643 Y19.614 Z-1.406
N5365 X19.626 Y19.637 Z-1.415
N5370 X19.6 Y19.646 Z-1.424
N5375 X19.573 Y19.641 Z-1.433
N5380 X19.553 Y19.621 Z-1.442
N5385 X19.547 Y19.594 Z-1.451
N5390 X19.556 Y19.567 Z-1.46
N5395 X19.578 Y19.55 Z-1.469
N5400 X19.606 Y19.547 Z-1.478
N5405 X19.631 Y19.56 Z-1.487
N5410 X19.645 Y19.584 Z-1.496
N5415 X19.644 Y19.612 Z-1.505
N5420 X19.628 Y19.635 Z-1.514
N5425 X19.603 Y19.646 Z-1.523
N5430 X19.575 Y19.642 Z-1.532
N5435 X19.554 Y19.623 Z-1.541
N5440 X19.547 Y19.596 Z-1.55
N5445 X19.555 Y19.569 Z-1.559
N5450 X19.576 Y19.551 Z-1.568
N5455 X19.604 Y19.547 Z-1.577
N5460 X19.629 Y19.559 Z-1.586
N5465 X19.644 Y19.582 Z-1.595
N5470 X19.645 Y19.61 Z-1.604
N5475 X19.63 Y19.634 Z-1.613
N5480 X19.605 Y19.646 Z-1.622
N5485 X19.577 Y19.643 Z-1.631
N5490 X19.555 Y19.625 Z-1.64
N5495 X19.547 Y19.598 Z-1.649
N5500 X19.553 Y19.571 Z-1.658
N5505 X19.574 Y19.552 Z-1.668
N5510 X19.601 Y19.547 Z-1.677
N5515 X19.627 Y19.557 Z-1.686
N5520 X19.644 Y19.58 Z-1.695
N5525 X19.645 Y19.608 Z-1.704
N5530 X19.632 Y19.632 Z-1.713
N5535 X19.607 Y19.645 Z-1.722
N5540 X19.579 Y19.643 Z-1.731
N5545 X19.557 Y19.627 Z-1.74
N5550 X19.547 Y19.601 Z-1.749
N5555 X19.552 Y19.573 Z-1.758
N5560 X19.572 Y19.553 Z-1.767
N5565 X19.599 Y19.547 Z-1.776
N5570 X19.626 Y19.556 Z-1.785
N5575 X19.643 Y19.578 Z-1.794
N5580 X19.646 Y19.606 Z-1.803
N5585 X19.633 Y19.631 Z-1.812
N5590 X19.609 Y19.645 Z-1.821
N5595 X19.581 Y19.644 Z-1.83
N5600 X19.558 Y19.628 Z-1.839
N5605 X19.547 Y19.603 Z-1.848
N5610 X19.551 Y19.575 Z-1.857
N5615 X19.57 Y19.554 Z-1.866
N5620 X19.597 Y19.547 Z-1.875
N5625 X19.624 Y19.555 Z-1.884
N5630 X19.642 Y19.576 Z-1.893
N5635 X19.646 Y19.603 Z-1.902
N5640 X19.635 Y19.629 Z-1.911
N5645 X19.611 Y19.644 Z-1.92
N5650 X19.583 Y19.645 Z-1.929
N5655 X19.56 Y19.63 Z-1.938
N5660 X19.547 Y19.605 Z-1.947
N5665 X19.55 Y19.577 Z-1.956
N5670 X19.568 Y19.555 Z-1.965
N5675 X19.595 Y19.547 Z-1.974
N5680 X19.622 Y19.553 Z-1.983
N5685 X19.641 Y19.574 Z-1.992
N5690 X19.646 Y19.601 Z-2.001
N5695 X19.636 Y19.627 Z-2.01
N5700 X19.614 Y19.644 Z-2.019
N5705 X19.586 Y19.645 Z-2.029
N5710 X19.561 Y19.632 Z-2.038
N5715 X19.548 Y19.607 Z-2.047
N5720 X19.55 Y19.579 Z-2.056
N5725 X19.566 Y19.557 Z-2.065
N5730 X19.592 Y19.547 Z-2.074
N5735 X19.62 Y19.552 Z-2.083
N5740 X19.64 Y19.572 Z-2.092
N5745 X19.647 Y19.599 Z-2.101
N5750 X19.637 Y19.625 Z-2.11
N5755 X19.616 Y19.643 Z-2.119
N5760 X19.588 Y19.646 Z-2.128
N5765 X19.563 Y19.633 Z-2.137
N5770 X19.548 Y19.609 Z-2.146
N5775 X19.549 Y19.581 Z-2.155
N5780 X19.564 Y19.558 Z-2.164
N5785 X19.59 Y19.547 Z-2.173
N5790 X19.618 Y19.551 Z-2.182
N5795 X19.639 Y19.57 Z-2.191
N5800 X19.647 Y19.597 Z-2.2
N5805 G3 X19.547 I-0.05
N5810 X19.647 I0.05
N5815 G1 X19.639 Y19.614
N5820 X19.622 Y19.622
N5825 X19.597 Y19.597
N5830 G0 Z2.3

(2D ??1)
N5835 X63.002 Y47.17
N5840 G1 Z2.3 F100
N5845 Z0.5
N5850 G18 G2 X63.302 Z0.2 I0.3 F50
N5855 G1 X63.602
N5860 G17 G3 X63.902 Y47.47 J0.3
N5865 X56.902 I-3.5 F800
N5870 X63.902 I3.5
N5875 X63.602 Y47.77 I-0.3
N5880 G1 X63.302
N5885 G18 G3 X63.002 Z0.5 K0.3
N5890 G0 Z2.3
N5895 Y47.17
N5900 G1 Z0.4 F100
N5905 G2 X63.302 Z0.1 I0.3 F50
N5910 G1 X63.602
N5915 G17 G3 X63.902 Y47.47 J0.3
N5920 X56.902 I-3.5 F800
N5925 X63.902 I3.5
N5930 X63.602 Y47.77 I-0.3
N5935 G1 X63.302
N5940 G18 G3 X63.002 Z0.4 K0.3
N5945 G0 Z2.3
N5950 Y47.17
N5955 G1 Z0.3 F100
N5960 G2 X63.302 Z0 I0.3 F50
N5965 G1 X63.602
N5970 G17 G3 X63.902 Y47.47 J0.3
N5975 X56.902 I-3.5 F800
N5980 X63.902 I3.5
N5985 X63.602 Y47.77 I-0.3
N5990 G1 X63.302
N5995 G18 G3 X63.002 Z0.3 K0.3
N6000 G0 Z2.3
N6005 Y47.17
N6010 G1 Z0.2 F100
N6015 G2 X63.302 Z-0.1 I0.3 F50
N6020 G1 X63.602
N6025 G17 G3 X63.902 Y47.47 J0.3
N6030 X56.902 I-3.5 F800
N6035 X63.902 I3.5
N6040 X63.602 Y47.77 I-0.3
N6045 G1 X63.302
N6050 G18 G3 X63.002 Z0.2 K0.3
N6055 G0 Z2.3
N6060 Y47.17
N6065 G1 Z0.1 F100
N6070 G2 X63.302 Z-0.2 I0.3 F50
N6075 G1 X63.602
N6080 G17 G3 X63.902 Y47.47 J0.3
N6085 X56.902 I-3.5 F800
N6090 X63.902 I3.5
N6095 X63.602 Y47.77 I-0.3
N6100 G1 X63.302
N6105 G18 G3 X63.002 Z0.1 K0.3
N6110 G0 Z2.3
N6115 Y47.17
N6120 G1 Z0 F100
N6125 G2 X63.302 Z-0.3 I0.3 F50
N6130 G1 X63.602
N6135 G17 G3 X63.902 Y47.47 J0.3
N6140 X56.902 I-3.5 F800
N6145 X63.902 I3.5
N6150 X63.602 Y47.77 I-0.3
N6155 G1 X63.302
N6160 G18 G3 X63.002 Z0 K0.3
N6165 G0 Z2.3
N6170 Y47.17
N6175 G1 Z-0.1 F100
N6180 G2 X63.302 Z-0.4 I0.3 F50
N6185 G1 X63.602
N6190 G17 G3 X63.902 Y47.47 J0.3
N6195 X56.902 I-3.5 F800
N6200 X63.902 I3.5
N6205 X63.602 Y47.77 I-0.3
N6210 G1 X63.302
N6215 G18 G3 X63.002 Z-0.1 K0.3
N6220 G0 Z2.3
N6225 Y47.17
N6230 G1 Z-0.2 F100
N6235 G2 X63.302 Z-0.5 I0.3 F50
N6240 G1 X63.602
N6245 G17 G3 X63.902 Y47.47 J0.3
N6250 X56.902 I-3.5 F800
N6255 X63.902 I3.5
N6260 X63.602 Y47.77 I-0.3
N6265 G1 X63.302
N6270 G18 G3 X63.002 Z-0.2 K0.3
N6275 G0 Z2.3
N6280 Y47.17
N6285 G1 Z-0.3 F100
N6290 G2 X63.302 Z-0.6 I0.3 F50
N6295 G1 X63.602
N6300 G17 G3 X63.902 Y47.47 J0.3
N6305 X56.902 I-3.5 F800
N6310 X63.902 I3.5
N6315 X63.602 Y47.77 I-0.3
N6320 G1 X63.302
N6325 G18 G3 X63.002 Z-0.3 K0.3
N6330 G0 Z2.3
N6335 Y47.17
N6340 G1 Z-0.4 F100
N6345 G2 X63.302 Z-0.7 I0.3 F50
N6350 G1 X63.602
N6355 G17 G3 X63.902 Y47.47 J0.3
N6360 X56.902 I-3.5 F800
N6365 X63.902 I3.5
N6370 X63.602 Y47.77 I-0.3
N6375 G1 X63.302
N6380 G18 G3 X63.002 Z-0.4 K0.3
N6385 G0 Z2.3
N6390 Y47.17
N6395 G1 Z-0.5 F100
N6400 G2 X63.302 Z-0.8 I0.3 F50
N6405 G1 X63.602
N6410 G17 G3 X63.902 Y47.47 J0.3
N6415 X56.902 I-3.5 F800
N6420 X63.902 I3.5
N6425 X63.602 Y47.77 I-0.3
N6430 G1 X63.302
N6435 G18 G3 X63.002 Z-0.5 K0.3
N6440 G0 Z2.3
N6445 Y47.17
N6450 G1 Z-0.6 F100
N6455 G2 X63.302 Z-0.9 I0.3 F50
N6460 G1 X63.602
N6465 G17 G3 X63.902 Y47.47 J0.3
N6470 X56.902 I-3.5 F800
N6475 X63.902 I3.5
N6480 X63.602 Y47.77 I-0.3
N6485 G1 X63.302
N6490 G18 G3 X63.002 Z-0.6 K0.3
N6495 G0 Z2.3
N6500 Y47.17
N6505 G1 Z-0.7 F100
N6510 G2 X63.302 Z-1 I0.3 F50
N6515 G1 X63.602
N6520 G17 G3 X63.902 Y47.47 J0.3
N6525 X56.902 I-3.5 F800
N6530 X63.902 I3.5
N6535 X63.602 Y47.77 I-0.3
N6540 G1 X63.302
N6545 G18 G3 X63.002 Z-0.7 K0.3
N6550 G0 Z2.3
N6555 Y47.17
N6560 G1 Z-0.8 F100
N6565 G2 X63.302 Z-1.1 I0.3 F50
N6570 G1 X63.602
N6575 G17 G3 X63.902 Y47.47 J0.3
N6580 X56.902 I-3.5 F800
N6585 X63.902 I3.5
N6590 X63.602 Y47.77 I-0.3
N6595 G1 X63.302
N6600 G18 G3 X63.002 Z-0.8 K0.3
N6605 G0 Z2.3
N6610 Y47.17
N6615 G1 Z-0.9 F100
N6620 G2 X63.302 Z-1.2 I0.3 F50
N6625 G1 X63.602
N6630 G17 G3 X63.902 Y47.47 J0.3
N6635 X56.902 I-3.5 F800
N6640 X63.902 I3.5
N6645 X63.602 Y47.77 I-0.3
N6650 G1 X63.302
N6655 G18 G3 X63.002 Z-0.9 K0.3
N6660 G0 Z2.3
N6665 Y47.17
N6670 G1 Z-1 F100
N6675 G2 X63.302 Z-1.3 I0.3 F50
N6680 G1 X63.602
N6685 G17 G3 X63.902 Y47.47 J0.3
N6690 X56.902 I-3.5 F800
N6695 X63.902 I3.5
N6700 X63.602 Y47.77 I-0.3
N6705 G1 X63.302
N6710 G18 G3 X63.002 Z-1 K0.3
N6715 G0 Z2.3
N6720 Y47.17
N6725 G1 Z-1.1 F100
N6730 G2 X63.302 Z-1.4 I0.3 F50
N6735 G1 X63.602
N6740 G17 G3 X63.902 Y47.47 J0.3
N6745 X56.902 I-3.5 F800
N6750 X63.902 I3.5
N6755 X63.602 Y47.77 I-0.3
N6760 G1 X63.302
N6765 G18 G3 X63.002 Z-1.1 K0.3
N6770 G0 Z2.3
N6775 Y47.17
N6780 G1 Z-1.2 F100
N6785 G2 X63.302 Z-1.5 I0.3 F50
N6790 G1 X63.602
N6795 G17 G3 X63.902 Y47.47 J0.3
N6800 X56.902 I-3.5 F800
N6805 X63.902 I3.5
N6810 X63.602 Y47.77 I-0.3
N6815 G1 X63.302
N6820 G18 G3 X63.002 Z-1.2 K0.3
N6825 G0 Z2.3
N6830 Y47.17
N6835 G1 Z-1.3 F100
N6840 G2 X63.302 Z-1.6 I0.3 F50
N6845 G1 X63.602
N6850 G17 G3 X63.902 Y47.47 J0.3
N6855 X56.902 I-3.5 F800
N6860 X63.902 I3.5
N6865 X63.602 Y47.77 I-0.3
N6870 G1 X63.302
N6875 G18 G3 X63.002 Z-1.3 K0.3
N6880 G0 Z2.3
N6885 Y47.17
N6890 G1 Z-1.4 F100
N6895 G2 X63.302 Z-1.7 I0.3 F50
N6900 G1 X63.602
N6905 G17 G3 X63.902 Y47.47 J0.3
N6910 X56.902 I-3.5 F800
N6915 X63.902 I3.5
N6920 X63.602 Y47.77 I-0.3
N6925 G1 X63.302
N6930 G18 G3 X63.002 Z-1.4 K0.3
N6935 G0 Z2.3
N6940 Y47.17
N6945 G1 Z-1.5 F100
N6950 G2 X63.302 Z-1.8 I0.3 F50
N6955 G1 X63.602
N6960 G17 G3 X63.902 Y47.47 J0.3
N6965 X62.102 Y50.529 I-3.5 F800
N6970 G1 X61.902 Y50.632 Z-1.7
N6975 G3 X58.902 I-1.5 J-3.162
N6980 G1 X58.702 Y50.529 Z-1.8 F100
N6985 G3 X62.102 Y44.41 I1.7 J-3.059 F800
N6990 X63.902 Y47.47 I-1.7 J3.059
N6995 X63.602 Y47.77 I-0.3
N7000 G1 X63.302
N7005 G18 G3 X63.002 Z-1.5 K0.3
N7010 G0 Z2.3
N7015 Y47.17
N7020 G1 Z-1.6 F100
N7025 G2 X63.302 Z-1.9 I0.3 F50
N7030 G1 X63.602
N7035 G17 G3 X63.902 Y47.47 J0.3
N7040 X62.302 Y50.409 I-3.5 F800
N7045 X61.902 Y50.632 Z-1.7 I-1.9 J-2.939
N7050 X58.902 I-1.5 J-3.162
N7055 X58.502 Y50.409 Z-1.9 I1.5 J-3.162 F100
N7060 X62.302 Y44.531 I1.9 J-2.939 F800
N7065 X63.902 Y47.47 I-1.9 J2.939
N7070 X63.602 Y47.77 I-0.3
N7075 G1 X63.302
N7080 G18 G3 X63.002 Z-1.6 K0.3
N7085 G0 Z2.3
N7090 Y47.17
N7095 G1 Z-1.7 F100
N7100 G2 X63.302 Z-2 I0.3 F50
N7105 G1 X63.602
N7110 G17 G3 X63.902 Y47.47 J0.3
N7115 X62.502 Y50.27 I-3.5 F800
N7120 X62.056 Y50.554 Z-1.777 I-2.1 J-2.8
N7125 G1 X61.902 Y50.632 Z-1.7
N7130 G3 X58.902 I-1.5 J-3.162
N7135 X58.442 Y50.37 Z-1.93 I1.5 J-3.162 F100
N7140 G1 X58.302 Y50.27 Z-2
N7145 G3 X62.502 Y44.67 I2.1 J-2.8 F800
N7150 X63.902 Y47.47 I-2.1 J2.8
N7155 X63.602 Y47.77 I-0.3
N7160 G1 X63.302
N7165 G18 G3 X63.002 Z-1.7 K0.3
N7170 G0 Z2.3
N7175 Y47.17
N7180 G1 Z-1.8 F100
N7185 G2 X63.302 Z-2.1 I0.3 F50
N7190 G1 X63.602
N7195 G17 G3 X63.902 Y47.47 J0.3
N7200 X62.702 Y50.108 I-3.5 F800
N7205 X62.278 Y50.424 Z-1.888 I-2.3 J-2.638
N7210 X61.902 Y50.632 Z-1.7 I-1.876 J-2.955
N7215 X58.902 I-1.5 J-3.162
N7220 X58.442 Y50.37 Z-1.93 I1.5 J-3.162 F100
N7225 X58.102 Y50.108 Z-2.1 I1.959 J-2.9
N7230 X62.702 Y44.832 I2.3 J-2.638 F800
N7235 X63.902 Y47.47 I-2.3 J2.638
N7240 X63.602 Y47.77 I-0.3
N7245 G1 X63.302
N7250 G18 G3 X63.002 Z-1.8 K0.3
N7255 G0 Z2.3
N7260 Y47.17
N7265 G1 Z-1.9 F100
N7270 G2 X63.302 Z-2.2 I0.3 F50
N7275 G1 X63.602
N7280 G17 G3 X63.902 Y47.47 J0.3
N7285 X62.902 Y49.919 I-3.5 F800
N7290 X62.504 Y50.268 Z-2.001 I-2.5 J-2.449
N7295 X62.059 Y50.553 Z-1.778 I-2.102 J-2.798
N7300 G1 X61.902 Y50.632 Z-1.7
N7305 G3 X58.902 I-1.5 J-3.162
N7310 X58.442 Y50.37 Z-1.93 I1.5 J-3.162 F100
N7315 X58.028 Y50.042 Z-2.137 I1.959 J-2.9
N7320 G1 X57.902 Y49.919 Z-2.2
N7325 G3 X62.902 Y45.02 I2.5 J-2.449 F800
N7330 X63.902 Y47.47 I-2.5 J2.449
N7335 X63.602 Y47.77 I-0.3
N7340 G1 X63.302
N7345 G18 G3 X63.002 Z-1.9 K0.3
N7350 G0 Z2.3
N7355 X45.784 Y47.439
N7360 G1 Z0.5 F100
N7365 G2 X46.084 Z0.2 I0.3 F50
N7370 G1 X46.384
N7375 G17 G3 X46.684 Y47.739 J0.3
N7380 X39.684 I-3.5 F800
N7385 X46.684 I3.5
N7390 X46.384 Y48.039 I-0.3
N7395 G1 X46.084
N7400 G18 G3 X45.784 Z0.5 K0.3
N7405 G0 Z2.3
N7410 Y47.439
N7415 G1 Z0.4 F100
N7420 G2 X46.084 Z0.1 I0.3 F50
N7425 G1 X46.384
N7430 G17 G3 X46.684 Y47.739 J0.3
N7435 X39.684 I-3.5 F800
N7440 X46.684 I3.5
N7445 X46.384 Y48.039 I-0.3
N7450 G1 X46.084
N7455 G18 G3 X45.784 Z0.4 K0.3
N7460 G0 Z2.3
N7465 Y47.439
N7470 G1 Z0.3 F100
N7475 G2 X46.084 Z0 I0.3 F50
N7480 G1 X46.384
N7485 G17 G3 X46.684 Y47.739 J0.3
N7490 X39.684 I-3.5 F800
N7495 X46.684 I3.5
N7500 X46.384 Y48.039 I-0.3
N7505 G1 X46.084
N7510 G18 G3 X45.784 Z0.3 K0.3
N7515 G0 Z2.3
N7520 Y47.439
N7525 G1 Z0.2 F100
N7530 G2 X46.084 Z-0.1 I0.3 F50
N7535 G1 X46.384
N7540 G17 G3 X46.684 Y47.739 J0.3
N7545 X39.684 I-3.5 F800
N7550 X46.684 I3.5
N7555 X46.384 Y48.039 I-0.3
N7560 G1 X46.084
N7565 G18 G3 X45.784 Z0.2 K0.3
N7570 G0 Z2.3
N7575 Y47.439
N7580 G1 Z0.1 F100
N7585 G2 X46.084 Z-0.2 I0.3 F50
N7590 G1 X46.384
N7595 G17 G3 X46.684 Y47.739 J0.3
N7600 X39.684 I-3.5 F800
N7605 X46.684 I3.5
N7610 X46.384 Y48.039 I-0.3
N7615 G1 X46.084
N7620 G18 G3 X45.784 Z0.1 K0.3
N7625 G0 Z2.3
N7630 Y47.439
N7635 G1 Z0 F100
N7640 G2 X46.084 Z-0.3 I0.3 F50
N7645 G1 X46.384
N7650 G17 G3 X46.684 Y47.739 J0.3
N7655 X39.684 I-3.5 F800
N7660 X46.684 I3.5
N7665 X46.384 Y48.039 I-0.3
N7670 G1 X46.084
N7675 G18 G3 X45.784 Z0 K0.3
N7680 G0 Z2.3
N7685 Y47.439
N7690 G1 Z-0.1 F100
N7695 G2 X46.084 Z-0.4 I0.3 F50
N7700 G1 X46.384
N7705 G17 G3 X46.684 Y47.739 J0.3
N7710 X39.684 I-3.5 F800
N7715 X46.684 I3.5
N7720 X46.384 Y48.039 I-0.3
N7725 G1 X46.084
N7730 G18 G3 X45.784 Z-0.1 K0.3
N7735 G0 Z2.3
N7740 Y47.439
N7745 G1 Z-0.2 F100
N7750 G2 X46.084 Z-0.5 I0.3 F50
N7755 G1 X46.384
N7760 G17 G3 X46.684 Y47.739 J0.3
N7765 X39.684 I-3.5 F800
N7770 X46.684 I3.5
N7775 X46.384 Y48.039 I-0.3
N7780 G1 X46.084
N7785 G18 G3 X45.784 Z-0.2 K0.3
N7790 G0 Z2.3
N7795 Y47.439
N7800 G1 Z-0.3 F100
N7805 G2 X46.084 Z-0.6 I0.3 F50
N7810 G1 X46.384
N7815 G17 G3 X46.684 Y47.739 J0.3
N7820 X39.684 I-3.5 F800
N7825 X46.684 I3.5
N7830 X46.384 Y48.039 I-0.3
N7835 G1 X46.084
N7840 G18 G3 X45.784 Z-0.3 K0.3
N7845 G0 Z2.3
N7850 Y47.439
N7855 G1 Z-0.4 F100
N7860 G2 X46.084 Z-0.7 I0.3 F50
N7865 G1 X46.384
N7870 G17 G3 X46.684 Y47.739 J0.3
N7875 X39.684 I-3.5 F800
N7880 X46.684 I3.5
N7885 X46.384 Y48.039 I-0.3
N7890 G1 X46.084
N7895 G18 G3 X45.784 Z-0.4 K0.3
N7900 G0 Z2.3
N7905 Y47.439
N7910 G1 Z-0.5 F100
N7915 G2 X46.084 Z-0.8 I0.3 F50
N7920 G1 X46.384
N7925 G17 G3 X46.684 Y47.739 J0.3
N7930 X39.684 I-3.5 F800
N7935 X46.684 I3.5
N7940 X46.384 Y48.039 I-0.3
N7945 G1 X46.084
N7950 G18 G3 X45.784 Z-0.5 K0.3
N7955 G0 Z2.3
N7960 Y47.439
N7965 G1 Z-0.6 F100
N7970 G2 X46.084 Z-0.9 I0.3 F50
N7975 G1 X46.384
N7980 G17 G3 X46.684 Y47.739 J0.3
N7985 X39.684 I-3.5 F800
N7990 X46.684 I3.5
N7995 X46.384 Y48.039 I-0.3
N8000 G1 X46.084
N8005 G18 G3 X45.784 Z-0.6 K0.3
N8010 G0 Z2.3
N8015 Y47.439
N8020 G1 Z-0.7 F100
N8025 G2 X46.084 Z-1 I0.3 F50
N8030 G1 X46.384
N8035 G17 G3 X46.684 Y47.739 J0.3
N8040 X39.684 I-3.5 F800
N8045 X46.684 I3.5
N8050 X46.384 Y48.039 I-0.3
N8055 G1 X46.084
N8060 G18 G3 X45.784 Z-0.7 K0.3
N8065 G0 Z2.3
N8070 Y47.439
N8075 G1 Z-0.8 F100
N8080 G2 X46.084 Z-1.1 I0.3 F50
N8085 G1 X46.384
N8090 G17 G3 X46.684 Y47.739 J0.3
N8095 X39.684 I-3.5 F800
N8100 X46.684 I3.5
N8105 X46.384 Y48.039 I-0.3
N8110 G1 X46.084
N8115 G18 G3 X45.784 Z-0.8 K0.3
N8120 G0 Z2.3
N8125 Y47.439
N8130 G1 Z-0.9 F100
N8135 G2 X46.084 Z-1.2 I0.3 F50
N8140 G1 X46.384
N8145 G17 G3 X46.684 Y47.739 J0.3
N8150 X39.684 I-3.5 F800
N8155 X46.684 I3.5
N8160 X46.384 Y48.039 I-0.3
N8165 G1 X46.084
N8170 G18 G3 X45.784 Z-0.9 K0.3
N8175 G0 Z2.3
N8180 Y47.439
N8185 G1 Z-1 F100
N8190 G2 X46.084 Z-1.3 I0.3 F50
N8195 G1 X46.384
N8200 G17 G3 X46.684 Y47.739 J0.3
N8205 X39.684 I-3.5 F800
N8210 X46.684 I3.5
N8215 X46.384 Y48.039 I-0.3
N8220 G1 X46.084
N8225 G18 G3 X45.784 Z-1 K0.3
N8230 G0 Z2.3
N8235 Y47.439
N8240 G1 Z-1.1 F100
N8245 G2 X46.084 Z-1.4 I0.3 F50
N8250 G1 X46.384
N8255 G17 G3 X46.684 Y47.739 J0.3
N8260 X39.684 I-3.5 F800
N8265 X46.684 I3.5
N8270 X46.384 Y48.039 I-0.3
N8275 G1 X46.084
N8280 G18 G3 X45.784 Z-1.1 K0.3
N8285 G0 Z2.3
N8290 Y47.439
N8295 G1 Z-1.2 F100
N8300 G2 X46.084 Z-1.5 I0.3 F50
N8305 G1 X46.384
N8310 G17 G3 X46.684 Y47.739 J0.3
N8315 X39.684 I-3.5 F800
N8320 X46.684 I3.5
N8325 X46.384 Y48.039 I-0.3
N8330 G1 X46.084
N8335 G18 G3 X45.784 Z-1.2 K0.3
N8340 G0 Z2.3
N8345 Y47.439
N8350 G1 Z-1.3 F100
N8355 G2 X46.084 Z-1.6 I0.3 F50
N8360 G1 X46.384
N8365 G17 G3 X46.684 Y47.739 J0.3
N8370 X39.684 I-3.5 F800
N8375 X46.684 I3.5
N8380 X46.384 Y48.039 I-0.3
N8385 G1 X46.084
N8390 G18 G3 X45.784 Z-1.3 K0.3
N8395 G0 Z2.3
N8400 Y47.439
N8405 G1 Z-1.4 F100
N8410 G2 X46.084 Z-1.7 I0.3 F50
N8415 G1 X46.384
N8420 G17 G3 X46.684 Y47.739 J0.3
N8425 X39.684 I-3.5 F800
N8430 X46.684 I3.5
N8435 X46.384 Y48.039 I-0.3
N8440 G1 X46.084
N8445 G18 G3 X45.784 Z-1.4 K0.3
N8450 G0 Z2.3
N8455 Y47.439
N8460 G1 Z-1.5 F100
N8465 G2 X46.084 Z-1.8 I0.3 F50
N8470 G1 X46.384
N8475 G17 G3 X46.684 Y47.739 J0.3
N8480 X44.884 Y50.798 I-3.5 F800
N8485 G1 X44.684 Y50.901 Z-1.7
N8490 G3 X41.684 I-1.5 J-3.162
N8495 G1 X41.484 Y50.798 Z-1.8 F100
N8500 G3 X44.884 Y44.679 I1.7 J-3.059 F800
N8505 X46.684 Y47.739 I-1.7 J3.059
N8510 X46.384 Y48.039 I-0.3
N8515 G1 X46.084
N8520 G18 G3 X45.784 Z-1.5 K0.3
N8525 G0 Z2.3
N8530 Y47.439
N8535 G1 Z-1.6 F100
N8540 G2 X46.084 Z-1.9 I0.3 F50
N8545 G1 X46.384
N8550 G17 G3 X46.684 Y47.739 J0.3
N8555 X45.084 Y50.678 I-3.5 F800
N8560 X44.684 Y50.901 Z-1.7 I-1.9 J-2.939
N8565 X41.684 I-1.5 J-3.162
N8570 X41.284 Y50.678 Z-1.9 I1.5 J-3.162 F100
N8575 X45.084 Y44.8 I1.9 J-2.939 F800
N8580 X46.684 Y47.739 I-1.9 J2.939
N8585 X46.384 Y48.039 I-0.3
N8590 G1 X46.084
N8595 G18 G3 X45.784 Z-1.6 K0.3
N8600 G0 Z2.3
N8605 Y47.439
N8610 G1 Z-1.7 F100
N8615 G2 X46.084 Z-2 I0.3 F50
N8620 G1 X46.384
N8625 G17 G3 X46.684 Y47.739 J0.3
N8630 X45.284 Y50.539 I-3.5 F800
N8635 X44.838 Y50.823 Z-1.777 I-2.1 J-2.8
N8640 G1 X44.684 Y50.901 Z-1.7
N8645 G3 X41.684 I-1.5 J-3.162
N8650 X41.224 Y50.639 Z-1.93 I1.5 J-3.162 F100
N8655 G1 X41.084 Y50.539 Z-2
N8660 G3 X45.284 Y44.939 I2.1 J-2.8 F800
N8665 X46.684 Y47.739 I-2.1 J2.8
N8670 X46.384 Y48.039 I-0.3
N8675 G1 X46.084
N8680 G18 G3 X45.784 Z-1.7 K0.3
N8685 G0 Z2.3
N8690 Y47.439
N8695 G1 Z-1.8 F100
N8700 G2 X46.084 Z-2.1 I0.3 F50
N8705 G1 X46.384
N8710 G17 G3 X46.684 Y47.739 J0.3
N8715 X45.484 Y50.377 I-3.5 F800
N8720 X45.06 Y50.693 Z-1.888 I-2.3 J-2.638
N8725 X44.684 Y50.901 Z-1.7 I-1.876 J-2.955
N8730 X41.684 I-1.5 J-3.162
N8735 X41.224 Y50.639 Z-1.93 I1.5 J-3.162 F100
N8740 X40.884 Y50.377 Z-2.1 I1.959 J-2.9
N8745 X45.484 Y45.101 I2.3 J-2.638 F800
N8750 X46.684 Y47.739 I-2.3 J2.638
N8755 X46.384 Y48.039 I-0.3
N8760 G1 X46.084
N8765 G18 G3 X45.784 Z-1.8 K0.3
N8770 G0 Z2.3
N8775 Y47.439
N8780 G1 Z-1.9 F100
N8785 G2 X46.084 Z-2.2 I0.3 F50
N8790 G1 X46.384
N8795 G17 G3 X46.684 Y47.739 J0.3
N8800 X45.684 Y50.188 I-3.5 F800
N8805 X45.286 Y50.537 Z-2.001 I-2.5 J-2.449
N8810 X44.841 Y50.822 Z-1.778 I-2.102 J-2.798
N8815 G1 X44.684 Y50.901 Z-1.7
N8820 G3 X41.684 I-1.5 J-3.162
N8825 X41.224 Y50.639 Z-1.93 I1.5 J-3.162 F100
N8830 X40.81 Y50.311 Z-2.137 I1.959 J-2.9
N8835 G1 X40.684 Y50.188 Z-2.2
N8840 G3 X45.684 Y45.289 I2.5 J-2.449 F800
N8845 X46.684 Y47.739 I-2.5 J2.449
N8850 X46.384 Y48.039 I-0.3
N8855 G1 X46.084
N8860 G18 G3 X45.784 Z-1.9 K0.3
N8865 G0 Z2.3
N8870 G17

(2D ??2)
N8875 G0 X60.702 Y38.57
N8880 G1 Z2.3 F100
N8885 Z0.5
N8890 G19 G3 Y38.87 Z0.2 J0.3 F50
N8895 G1 Y39.17
N8900 G17 G3 X60.402 Y39.47 I-0.3
N8905 G2 Y55.47 J8 F800
N8910 Y39.47 J-8
N8915 G3 X60.102 Y39.17 J-0.3
N8920 G1 Y38.87
N8925 G19 G2 Y38.57 Z0.5 K0.3
N8930 G0 Z2.3
N8935 X44.345 Y38.91
N8940 G1 Z0.5 F100
N8945 X44.344 Y38.917 Z0.433 F50
N8950 X44.342 Y38.939 Z0.37
N8955 X44.338 Y38.975 Z0.313
N8960 X44.334 Y39.022 Z0.265
N8965 X44.328 Y39.079 Z0.23
N8970 X44.322 Y39.142 Z0.208
N8975 X44.315 Y39.208 Z0.2
N8980 X44.286 Y39.507
N8985 G17 G3 X43.959 Y39.777 I-0.299 J-0.029
N8990 G2 X42.409 Y55.701 I-0.775 J7.962 F800
N8995 X43.959 Y39.777 I0.775 J-7.962
N9000 G3 X43.689 Y39.449 I0.029 J-0.299
N9005 G1 X43.718 Y39.15
N9010 X43.725 Y39.084 Z0.208
N9015 X43.731 Y39.021 Z0.23
N9020 X43.736 Y38.964 Z0.265
N9025 X43.741 Y38.917 Z0.313
N9030 X43.744 Y38.881 Z0.37
N9035 X43.747 Y38.859 Z0.433
N9040 Y38.852 Z0.5
N9045 G0 Z2.3
N9050 X44.345 Y38.91
N9055 G1 Z0.4 F100
N9060 X44.344 Y38.917 Z0.333 F50
N9065 X44.342 Y38.939 Z0.27
N9070 X44.338 Y38.975 Z0.213
N9075 X44.334 Y39.022 Z0.165
N9080 X44.328 Y39.079 Z0.13
N9085 X44.322 Y39.142 Z0.108
N9090 X44.315 Y39.208 Z0.1
N9095 X44.286 Y39.507
N9100 G3 X43.959 Y39.777 I-0.299 J-0.029
N9105 G2 X42.409 Y55.701 I-0.775 J7.962 F800
N9110 X43.959 Y39.777 I0.775 J-7.962
N9115 G3 X43.689 Y39.449 I0.029 J-0.299
N9120 G1 X43.718 Y39.15
N9125 X43.725 Y39.084 Z0.108
N9130 X43.731 Y39.021 Z0.13
N9135 X43.736 Y38.964 Z0.165
N9140 X43.741 Y38.917 Z0.213
N9145 X43.744 Y38.881 Z0.27
N9150 X43.747 Y38.859 Z0.333
N9155 Y38.852 Z0.4
N9160 G0 Z2.3
N9165 X60.702 Y38.57
N9170 G1 Z0.4 F100
N9175 G19 G3 Y38.87 Z0.1 J0.3 F50
N9180 G1 Y39.17
N9185 G17 G3 X60.402 Y39.47 I-0.3
N9190 G2 Y55.47 J8 F800
N9195 Y39.47 J-8
N9200 G3 X60.102 Y39.17 J-0.3
N9205 G1 Y38.87
N9210 G19 G2 Y38.57 Z0.4 K0.3
N9215 G0 Z2.3
N9220 X60.702
N9225 G1 Z0.3 F100
N9230 G3 Y38.87 Z0 J0.3 F50
N9235 G1 Y39.17
N9240 G17 G3 X60.402 Y39.47 I-0.3
N9245 G2 Y55.47 J8 F800
N9250 Y39.47 J-8
N9255 G3 X60.102 Y39.17 J-0.3
N9260 G1 Y38.87
N9265 G19 G2 Y38.57 Z0.3 K0.3
N9270 G0 Z2.3
N9275 X44.345 Y38.91
N9280 G1 Z0.3 F100
N9285 X44.344 Y38.917 Z0.233 F50
N9290 X44.342 Y38.939 Z0.17
N9295 X44.338 Y38.975 Z0.113
N9300 X44.334 Y39.022 Z0.065
N9305 X44.328 Y39.079 Z0.03
N9310 X44.322 Y39.142 Z0.008
N9315 X44.315 Y39.208 Z0
N9320 X44.286 Y39.507
N9325 G17 G3 X43.959 Y39.777 I-0.299 J-0.029
N9330 G2 X42.409 Y55.701 I-0.775 J7.962 F800
N9335 X43.959 Y39.777 I0.775 J-7.962
N9340 G3 X43.689 Y39.449 I0.029 J-0.299
N9345 G1 X43.718 Y39.15
N9350 X43.725 Y39.084 Z0.008
N9355 X43.731 Y39.021 Z0.03
N9360 X43.736 Y38.964 Z0.065
N9365 X43.741 Y38.917 Z0.113
N9370 X43.744 Y38.881 Z0.17
N9375 X43.747 Y38.859 Z0.233
N9380 Y38.852 Z0.3
N9385 G0 Z2.3
N9390 X44.345 Y38.91
N9395 G1 Z0.2 F100
N9400 X44.344 Y38.917 Z0.133 F50
N9405 X44.342 Y38.939 Z0.07
N9410 X44.338 Y38.975 Z0.013
N9415 X44.334 Y39.022 Z-0.035
N9420 X44.328 Y39.079 Z-0.07
N9425 X44.322 Y39.142 Z-0.092
N9430 X44.315 Y39.208 Z-0.1
N9435 X44.286 Y39.507
N9440 G3 X43.959 Y39.777 I-0.299 J-0.029
N9445 G2 X42.409 Y55.701 I-0.775 J7.962 F800
N9450 X43.959 Y39.777 I0.775 J-7.962
N9455 G3 X43.689 Y39.449 I0.029 J-0.299
N9460 G1 X43.718 Y39.15
N9465 X43.725 Y39.084 Z-0.092
N9470 X43.731 Y39.021 Z-0.07
N9475 X43.736 Y38.964 Z-0.035
N9480 X43.741 Y38.917 Z0.013
N9485 X43.744 Y38.881 Z0.07
N9490 X43.747 Y38.859 Z0.133
N9495 Y38.852 Z0.2
N9500 G0 Z2.3
N9505 X60.702 Y38.57
N9510 G1 Z0.2 F100
N9515 G19 G3 Y38.87 Z-0.1 J0.3 F50
N9520 G1 Y39.17
N9525 G17 G3 X60.402 Y39.47 I-0.3
N9530 G2 Y55.47 J8 F800
N9535 Y39.47 J-8
N9540 G3 X60.102 Y39.17 J-0.3
N9545 G1 Y38.87
N9550 G19 G2 Y38.57 Z0.2 K0.3
N9555 G0 Z2.3
N9560 X60.702
N9565 G1 Z0.1 F100
N9570 G3 Y38.87 Z-0.2 J0.3 F50
N9575 G1 Y39.17
N9580 G17 G3 X60.402 Y39.47 I-0.3
N9585 G2 Y55.47 J8 F800
N9590 Y39.47 J-8
N9595 G3 X60.102 Y39.17 J-0.3
N9600 G1 Y38.87
N9605 G19 G2 Y38.57 Z0.1 K0.3
N9610 G0 Z2.3
N9615 X44.345 Y38.91
N9620 G1 Z0.1 F100
N9625 X44.344 Y38.917 Z0.033 F50
N9630 X44.342 Y38.939 Z-0.03
N9635 X44.338 Y38.975 Z-0.087
N9640 X44.334 Y39.022 Z-0.135
N9645 X44.328 Y39.079 Z-0.17
N9650 X44.322 Y39.142 Z-0.192
N9655 X44.315 Y39.208 Z-0.2
N9660 X44.286 Y39.507
N9665 G17 G3 X43.959 Y39.777 I-0.299 J-0.029
N9670 G2 X42.409 Y55.701 I-0.775 J7.962 F800
N9675 X43.959 Y39.777 I0.775 J-7.962
N9680 G3 X43.689 Y39.449 I0.029 J-0.299
N9685 G1 X43.718 Y39.15
N9690 X43.725 Y39.084 Z-0.192
N9695 X43.731 Y39.021 Z-0.17
N9700 X43.736 Y38.964 Z-0.135
N9705 X43.741 Y38.917 Z-0.087
N9710 X43.744 Y38.881 Z-0.03
N9715 X43.747 Y38.859 Z0.033
N9720 Y38.852 Z0.1
N9725 G0 Z2.3
N9730 X44.345 Y38.91
N9735 G1 Z0 F100
N9740 X44.344 Y38.917 Z-0.067 F50
N9745 X44.342 Y38.939 Z-0.13
N9750 X44.338 Y38.975 Z-0.187
N9755 X44.334 Y39.022 Z-0.235
N9760 X44.328 Y39.079 Z-0.27
N9765 X44.322 Y39.142 Z-0.292
N9770 X44.315 Y39.208 Z-0.3
N9775 X44.286 Y39.507
N9780 G3 X43.959 Y39.777 I-0.299 J-0.029
N9785 G2 X42.409 Y55.701 I-0.775 J7.962 F800
N9790 X43.959 Y39.777 I0.775 J-7.962
N9795 G3 X43.689 Y39.449 I0.029 J-0.299
N9800 G1 X43.718 Y39.15
N9805 X43.725 Y39.084 Z-0.292
N9810 X43.731 Y39.021 Z-0.27
N9815 X43.736 Y38.964 Z-0.235
N9820 X43.741 Y38.917 Z-0.187
N9825 X43.744 Y38.881 Z-0.13
N9830 X43.747 Y38.859 Z-0.067
N9835 Y38.852 Z0
N9840 G0 Z2.3
N9845 X60.702 Y38.57
N9850 G1 Z0 F100
N9855 G19 G3 Y38.87 Z-0.3 J0.3 F50
N9860 G1 Y39.17
N9865 G17 G3 X60.402 Y39.47 I-0.3
N9870 G2 Y55.47 J8 F800
N9875 Y39.47 J-8
N9880 G3 X60.102 Y39.17 J-0.3
N9885 G1 Y38.87
N9890 G19 G2 Y38.57 Z0 K0.3
N9895 G0 Z2.3
N9900 X60.702
N9905 G1 Z-0.1 F100
N9910 G3 Y38.87 Z-0.4 J0.3 F50
N9915 G1 Y39.17
N9920 G17 G3 X60.402 Y39.47 I-0.3
N9925 G2 Y55.47 J8 F800
N9930 Y39.47 J-8
N9935 G3 X60.102 Y39.17 J-0.3
N9940 G1 Y38.87
N9945 G19 G2 Y38.57 Z-0.1 K0.3
N9950 G0 Z2.3
N9955 X44.345 Y38.91
N9960 G1 Z-0.1 F100
N9965 X44.344 Y38.917 Z-0.167 F50
N9970 X44.342 Y38.939 Z-0.23
N9975 X44.338 Y38.975 Z-0.287
N9980 X44.334 Y39.022 Z-0.335
N9985 X44.328 Y39.079 Z-0.37
N9990 X44.322 Y39.142 Z-0.392
N9995 X44.315 Y39.208 Z-0.4
N10000 X44.286 Y39.507
N10005 G17 G3 X43.959 Y39.777 I-0.299 J-0.029
N10010 G2 X42.409 Y55.701 I-0.775 J7.962 F800
N10015 X43.959 Y39.777 I0.775 J-7.962
N10020 G3 X43.689 Y39.449 I0.029 J-0.299
N10025 G1 X43.718 Y39.15
N10030 X43.725 Y39.084 Z-0.392
N10035 X43.731 Y39.021 Z-0.37
N10040 X43.736 Y38.964 Z-0.335
N10045 X43.741 Y38.917 Z-0.287
N10050 X43.744 Y38.881 Z-0.23
N10055 X43.747 Y38.859 Z-0.167
N10060 Y38.852 Z-0.1
N10065 G0 Z2.3
N10070 X44.345 Y38.91
N10075 G1 Z-0.2 F100
N10080 X44.344 Y38.917 Z-0.267 F50
N10085 X44.342 Y38.939 Z-0.33
N10090 X44.338 Y38.975 Z-0.387
N10095 X44.334 Y39.022 Z-0.435
N10100 X44.328 Y39.079 Z-0.47
N10105 X44.322 Y39.142 Z-0.492
N10110 X44.315 Y39.208 Z-0.5
N10115 X44.286 Y39.507
N10120 G3 X43.959 Y39.777 I-0.299 J-0.029
N10125 G2 X42.409 Y55.701 I-0.775 J7.962 F800
N10130 X43.959 Y39.777 I0.775 J-7.962
N10135 G3 X43.689 Y39.449 I0.029 J-0.299
N10140 G1 X43.718 Y39.15
N10145 X43.725 Y39.084 Z-0.492
N10150 X43.731 Y39.021 Z-0.47
N10155 X43.736 Y38.964 Z-0.435
N10160 X43.741 Y38.917 Z-0.387
N10165 X43.744 Y38.881 Z-0.33
N10170 X43.747 Y38.859 Z-0.267
N10175 Y38.852 Z-0.2
N10180 G0 Z2.3
N10185 X60.702 Y38.57
N10190 G1 Z-0.2 F100
N10195 G19 G3 Y38.87 Z-0.5 J0.3 F50
N10200 G1 Y39.17
N10205 G17 G3 X60.402 Y39.47 I-0.3
N10210 G2 Y55.47 J8 F800
N10215 Y39.47 J-8
N10220 G3 X60.102 Y39.17 J-0.3
N10225 G1 Y38.87
N10230 G19 G2 Y38.57 Z-0.2 K0.3
N10235 G0 Z2.3
N10240 X60.702
N10245 G1 Z-0.3 F100
N10250 G3 Y38.87 Z-0.6 J0.3 F50
N10255 G1 Y39.17
N10260 G17 G3 X60.402 Y39.47 I-0.3
N10265 G2 Y55.47 J8 F800
N10270 Y39.47 J-8
N10275 G3 X60.102 Y39.17 J-0.3
N10280 G1 Y38.87
N10285 G19 G2 Y38.57 Z-0.3 K0.3
N10290 G0 Z2.3
N10295 X44.345 Y38.91
N10300 G1 Z-0.3 F100
N10305 X44.344 Y38.917 Z-0.367 F50
N10310 X44.342 Y38.939 Z-0.43
N10315 X44.338 Y38.975 Z-0.487
N10320 X44.334 Y39.022 Z-0.535
N10325 X44.328 Y39.079 Z-0.57
N10330 X44.322 Y39.142 Z-0.592
N10335 X44.315 Y39.208 Z-0.6
N10340 X44.286 Y39.507
N10345 G17 G3 X43.959 Y39.777 I-0.299 J-0.029
N10350 G2 X42.409 Y55.701 I-0.775 J7.962 F800
N10355 X43.959 Y39.777 I0.775 J-7.962
N10360 G3 X43.689 Y39.449 I0.029 J-0.299
N10365 G1 X43.718 Y39.15
N10370 X43.725 Y39.084 Z-0.592
N10375 X43.731 Y39.021 Z-0.57
N10380 X43.736 Y38.964 Z-0.535
N10385 X43.741 Y38.917 Z-0.487
N10390 X43.744 Y38.881 Z-0.43
N10395 X43.747 Y38.859 Z-0.367
N10400 Y38.852 Z-0.3
N10405 G0 Z2.3
N10410 X44.345 Y38.91
N10415 G1 Z-0.4 F100
N10420 X44.344 Y38.917 Z-0.467 F50
N10425 X44.342 Y38.939 Z-0.53
N10430 X44.338 Y38.975 Z-0.587
N10435 X44.334 Y39.022 Z-0.635
N10440 X44.328 Y39.079 Z-0.67
N10445 X44.322 Y39.142 Z-0.692
N10450 X44.315 Y39.208 Z-0.7
N10455 X44.286 Y39.507
N10460 G3 X43.959 Y39.777 I-0.299 J-0.029
N10465 G2 X42.409 Y55.701 I-0.775 J7.962 F800
N10470 X43.959 Y39.777 I0.775 J-7.962
N10475 G3 X43.689 Y39.449 I0.029 J-0.299
N10480 G1 X43.718 Y39.15
N10485 X43.725 Y39.084 Z-0.692
N10490 X43.731 Y39.021 Z-0.67
N10495 X43.736 Y38.964 Z-0.635
N10500 X43.741 Y38.917 Z-0.587
N10505 X43.744 Y38.881 Z-0.53
N10510 X43.747 Y38.859 Z-0.467
N10515 Y38.852 Z-0.4
N10520 G0 Z2.3
N10525 X60.702 Y38.57
N10530 G1 Z-0.4 F100
N10535 G19 G3 Y38.87 Z-0.7 J0.3 F50
N10540 G1 Y39.17
N10545 G17 G3 X60.402 Y39.47 I-0.3
N10550 G2 Y55.47 J8 F800
N10555 Y39.47 J-8
N10560 G3 X60.102 Y39.17 J-0.3
N10565 G1 Y38.87
N10570 G19 G2 Y38.57 Z-0.4 K0.3
N10575 G0 Z2.3
N10580 X60.702
N10585 G1 Z-0.5 F100
N10590 G3 Y38.87 Z-0.8 J0.3 F50
N10595 G1 Y39.17
N10600 G17 G3 X60.402 Y39.47 I-0.3
N10605 G2 Y55.47 J8 F800
N10610 Y39.47 J-8
N10615 G3 X60.102 Y39.17 J-0.3
N10620 G1 Y38.87
N10625 G19 G2 Y38.57 Z-0.5 K0.3
N10630 G0 Z2.3
N10635 X44.345 Y38.91
N10640 G1 Z-0.5 F100
N10645 X44.344 Y38.917 Z-0.567 F50
N10650 X44.342 Y38.939 Z-0.63
N10655 X44.338 Y38.975 Z-0.687
N10660 X44.334 Y39.022 Z-0.735
N10665 X44.328 Y39.079 Z-0.77
N10670 X44.322 Y39.142 Z-0.792
N10675 X44.315 Y39.208 Z-0.8
N10680 X44.286 Y39.507
N10685 G17 G3 X43.959 Y39.777 I-0.299 J-0.029
N10690 G2 X42.409 Y55.701 I-0.775 J7.962 F800
N10695 X43.959 Y39.777 I0.775 J-7.962
N10700 G3 X43.689 Y39.449 I0.029 J-0.299
N10705 G1 X43.718 Y39.15
N10710 X43.725 Y39.084 Z-0.792
N10715 X43.731 Y39.021 Z-0.77
N10720 X43.736 Y38.964 Z-0.735
N10725 X43.741 Y38.917 Z-0.687
N10730 X43.744 Y38.881 Z-0.63
N10735 X43.747 Y38.859 Z-0.567
N10740 Y38.852 Z-0.5
N10745 G0 Z2.3
N10750 X44.345 Y38.91
N10755 G1 Z-0.6 F100
N10760 X44.344 Y38.917 Z-0.667 F50
N10765 X44.342 Y38.939 Z-0.73
N10770 X44.338 Y38.975 Z-0.787
N10775 X44.334 Y39.022 Z-0.835
N10780 X44.328 Y39.079 Z-0.87
N10785 X44.322 Y39.142 Z-0.892
N10790 X44.315 Y39.208 Z-0.9
N10795 X44.286 Y39.507
N10800 G3 X43.959 Y39.777 I-0.299 J-0.029
N10805 G2 X42.409 Y55.701 I-0.775 J7.962 F800
N10810 X43.959 Y39.777 I0.775 J-7.962
N10815 G3 X43.689 Y39.449 I0.029 J-0.299
N10820 G1 X43.718 Y39.15
N10825 X43.725 Y39.084 Z-0.892
N10830 X43.731 Y39.021 Z-0.87
N10835 X43.736 Y38.964 Z-0.835
N10840 X43.741 Y38.917 Z-0.787
N10845 X43.744 Y38.881 Z-0.73
N10850 X43.747 Y38.859 Z-0.667
N10855 Y38.852 Z-0.6
N10860 G0 Z2.3
N10865 X60.702 Y38.57
N10870 G1 Z-0.6 F100
N10875 G19 G3 Y38.87 Z-0.9 J0.3 F50
N10880 G1 Y39.17
N10885 G17 G3 X60.402 Y39.47 I-0.3
N10890 G2 Y55.47 J8 F800
N10895 Y39.47 J-8
N10900 G3 X60.102 Y39.17 J-0.3
N10905 G1 Y38.87
N10910 G19 G2 Y38.57 Z-0.6 K0.3
N10915 G0 Z2.3
N10920 X60.702
N10925 G1 Z-0.7 F100
N10930 G3 Y38.87 Z-1 J0.3 F50
N10935 G1 Y39.17
N10940 G17 G3 X60.402 Y39.47 I-0.3
N10945 G2 Y55.47 J8 F800
N10950 Y39.47 J-8
N10955 G3 X60.102 Y39.17 J-0.3
N10960 G1 Y38.87
N10965 G19 G2 Y38.57 Z-0.7 K0.3
N10970 G0 Z2.3
N10975 X44.345 Y38.91
N10980 G1 Z-0.7 F100
N10985 X44.344 Y38.917 Z-0.767 F50
N10990 X44.342 Y38.939 Z-0.83
N10995 X44.338 Y38.975 Z-0.887
N11000 X44.334 Y39.022 Z-0.935
N11005 X44.328 Y39.079 Z-0.97
N11010 X44.322 Y39.142 Z-0.992
N11015 X44.315 Y39.208 Z-1
N11020 X44.286 Y39.507
N11025 G17 G3 X43.959 Y39.777 I-0.299 J-0.029
N11030 G2 X42.409 Y55.701 I-0.775 J7.962 F800
N11035 X43.959 Y39.777 I0.775 J-7.962
N11040 G3 X43.689 Y39.449 I0.029 J-0.299
N11045 G1 X43.718 Y39.15
N11050 X43.725 Y39.084 Z-0.992
N11055 X43.731 Y39.021 Z-0.97
N11060 X43.736 Y38.964 Z-0.935
N11065 X43.741 Y38.917 Z-0.887
N11070 X43.744 Y38.881 Z-0.83
N11075 X43.747 Y38.859 Z-0.767
N11080 Y38.852 Z-0.7
N11085 G0 Z2.3
N11090 X44.345 Y38.91
N11095 G1 Z-0.8 F100
N11100 X44.344 Y38.917 Z-0.867 F50
N11105 X44.342 Y38.939 Z-0.93
N11110 X44.338 Y38.975 Z-0.987
N11115 X44.334 Y39.022 Z-1.035
N11120 X44.328 Y39.079 Z-1.07
N11125 X44.322 Y39.142 Z-1.092
N11130 X44.315 Y39.208 Z-1.1
N11135 X44.286 Y39.507
N11140 G3 X43.959 Y39.777 I-0.299 J-0.029
N11145 G2 X42.409 Y55.701 I-0.775 J7.962 F800
N11150 X43.959 Y39.777 I0.775 J-7.962
N11155 G3 X43.689 Y39.449 I0.029 J-0.299
N11160 G1 X43.718 Y39.15
N11165 X43.725 Y39.084 Z-1.092
N11170 X43.731 Y39.021 Z-1.07
N11175 X43.736 Y38.964 Z-1.035
N11180 X43.741 Y38.917 Z-0.987
N11185 X43.744 Y38.881 Z-0.93
N11190 X43.747 Y38.859 Z-0.867
N11195 Y38.852 Z-0.8
N11200 G0 Z2.3
N11205 X60.702 Y38.57
N11210 G1 Z-0.8 F100
N11215 G19 G3 Y38.87 Z-1.1 J0.3 F50
N11220 G1 Y39.17
N11225 G17 G3 X60.402 Y39.47 I-0.3
N11230 G2 Y55.47 J8 F800
N11235 Y39.47 J-8
N11240 G3 X60.102 Y39.17 J-0.3
N11245 G1 Y38.87
N11250 G19 G2 Y38.57 Z-0.8 K0.3
N11255 G0 Z2.3
N11260 X60.702
N11265 G1 Z-0.9 F100
N11270 G3 Y38.87 Z-1.2 J0.3 F50
N11275 G1 Y39.17
N11280 G17 G3 X60.402 Y39.47 I-0.3
N11285 G2 Y55.47 J8 F800
N11290 Y39.47 J-8
N11295 G3 X60.102 Y39.17 J-0.3
N11300 G1 Y38.87
N11305 G19 G2 Y38.57 Z-0.9 K0.3
N11310 G0 Z2.3
N11315 X44.345 Y38.91
N11320 G1 Z-0.9 F100
N11325 X44.344 Y38.917 Z-0.967 F50
N11330 X44.342 Y38.939 Z-1.03
N11335 X44.338 Y38.975 Z-1.087
N11340 X44.334 Y39.022 Z-1.135
N11345 X44.328 Y39.079 Z-1.17
N11350 X44.322 Y39.142 Z-1.192
N11355 X44.315 Y39.208 Z-1.2
N11360 X44.286 Y39.507
N11365 G17 G3 X43.959 Y39.777 I-0.299 J-0.029
N11370 G2 X42.409 Y55.701 I-0.775 J7.962 F800
N11375 X43.959 Y39.777 I0.775 J-7.962
N11380 G3 X43.689 Y39.449 I0.029 J-0.299
N11385 G1 X43.718 Y39.15
N11390 X43.725 Y39.084 Z-1.192
N11395 X43.731 Y39.021 Z-1.17
N11400 X43.736 Y38.964 Z-1.135
N11405 X43.741 Y38.917 Z-1.087
N11410 X43.744 Y38.881 Z-1.03
N11415 X43.747 Y38.859 Z-0.967
N11420 Y38.852 Z-0.9
N11425 G0 Z2.3
N11430 X44.345 Y38.91
N11435 G1 Z-1 F100
N11440 X44.344 Y38.917 Z-1.067 F50
N11445 X44.342 Y38.939 Z-1.13
N11450 X44.338 Y38.975 Z-1.187
N11455 X44.334 Y39.022 Z-1.235
N11460 X44.328 Y39.079 Z-1.27
N11465 X44.322 Y39.142 Z-1.292
N11470 X44.315 Y39.208 Z-1.3
N11475 X44.286 Y39.507
N11480 G3 X43.959 Y39.777 I-0.299 J-0.029
N11485 G2 X42.409 Y55.701 I-0.775 J7.962 F800
N11490 X43.959 Y39.777 I0.775 J-7.962
N11495 G3 X43.689 Y39.449 I0.029 J-0.299
N11500 G1 X43.718 Y39.15
N11505 X43.725 Y39.084 Z-1.292
N11510 X43.731 Y39.021 Z-1.27
N11515 X43.736 Y38.964 Z-1.235
N11520 X43.741 Y38.917 Z-1.187
N11525 X43.744 Y38.881 Z-1.13
N11530 X43.747 Y38.859 Z-1.067
N11535 Y38.852 Z-1
N11540 G0 Z2.3
N11545 X60.702 Y38.57
N11550 G1 Z-1 F100
N11555 G19 G3 Y38.87 Z-1.3 J0.3 F50
N11560 G1 Y39.17
N11565 G17 G3 X60.402 Y39.47 I-0.3
N11570 G2 Y55.47 J8 F800
N11575 Y39.47 J-8
N11580 G3 X60.102 Y39.17 J-0.3
N11585 G1 Y38.87
N11590 G19 G2 Y38.57 Z-1 K0.3
N11595 G0 Z2.3
N11600 X60.702
N11605 G1 Z-1.1 F100
N11610 G3 Y38.87 Z-1.4 J0.3 F50
N11615 G1 Y39.17
N11620 G17 G3 X60.402 Y39.47 I-0.3
N11625 G2 Y55.47 J8 F800
N11630 Y39.47 J-8
N11635 G3 X60.102 Y39.17 J-0.3
N11640 G1 Y38.87
N11645 G19 G2 Y38.57 Z-1.1 K0.3
N11650 G0 Z2.3
N11655 X44.345 Y38.91
N11660 G1 Z-1.1 F100
N11665 X44.344 Y38.917 Z-1.167 F50
N11670 X44.342 Y38.939 Z-1.23
N11675 X44.338 Y38.975 Z-1.287
N11680 X44.334 Y39.022 Z-1.335
N11685 X44.328 Y39.079 Z-1.37
N11690 X44.322 Y39.142 Z-1.392
N11695 X44.315 Y39.208 Z-1.4
N11700 X44.286 Y39.507
N11705 G17 G3 X43.959 Y39.777 I-0.299 J-0.029
N11710 G2 X42.409 Y55.701 I-0.775 J7.962 F800
N11715 X43.959 Y39.777 I0.775 J-7.962
N11720 G3 X43.689 Y39.449 I0.029 J-0.299
N11725 G1 X43.718 Y39.15
N11730 X43.725 Y39.084 Z-1.392
N11735 X43.731 Y39.021 Z-1.37
N11740 X43.736 Y38.964 Z-1.335
N11745 X43.741 Y38.917 Z-1.287
N11750 X43.744 Y38.881 Z-1.23
N11755 X43.747 Y38.859 Z-1.167
N11760 Y38.852 Z-1.1
N11765 G0 Z2.3
N11770 X44.345 Y38.91
N11775 G1 Z-1.2 F100
N11780 X44.344 Y38.917 Z-1.267 F50
N11785 X44.342 Y38.939 Z-1.33
N11790 X44.338 Y38.975 Z-1.387
N11795 X44.334 Y39.022 Z-1.435
N11800 X44.328 Y39.079 Z-1.47
N11805 X44.322 Y39.142 Z-1.492
N11810 X44.315 Y39.208 Z-1.5
N11815 X44.286 Y39.507
N11820 G3 X43.959 Y39.777 I-0.299 J-0.029
N11825 G2 X42.409 Y55.701 I-0.775 J7.962 F800
N11830 X43.959 Y39.777 I0.775 J-7.962
N11835 G3 X43.689 Y39.449 I0.029 J-0.299
N11840 G1 X43.718 Y39.15
N11845 X43.725 Y39.084 Z-1.492
N11850 X43.731 Y39.021 Z-1.47
N11855 X43.736 Y38.964 Z-1.435
N11860 X43.741 Y38.917 Z-1.387
N11865 X43.744 Y38.881 Z-1.33
N11870 X43.747 Y38.859 Z-1.267
N11875 Y38.852 Z-1.2
N11880 G0 Z2.3
N11885 X60.702 Y38.57
N11890 G1 Z-1.2 F100
N11895 G19 G3 Y38.87 Z-1.5 J0.3 F50
N11900 G1 Y39.17
N11905 G17 G3 X60.402 Y39.47 I-0.3
N11910 G2 Y55.47 J8 F800
N11915 Y39.47 J-8
N11920 G3 X60.102 Y39.17 J-0.3
N11925 G1 Y38.87
N11930 G19 G2 Y38.57 Z-1.2 K0.3
N11935 G0 Z2.3
N11940 X60.702
N11945 G1 Z-1.3 F100
N11950 G3 Y38.87 Z-1.6 J0.3 F50
N11955 G1 Y39.17
N11960 G17 G3 X60.402 Y39.47 I-0.3
N11965 G2 Y55.47 J8 F800
N11970 Y39.47 J-8
N11975 G3 X60.102 Y39.17 J-0.3
N11980 G1 Y38.87
N11985 G19 G2 Y38.57 Z-1.3 K0.3
N11990 G0 Z2.3
N11995 X44.345 Y38.91
N12000 G1 Z-1.3 F100
N12005 X44.344 Y38.917 Z-1.367 F50
N12010 X44.342 Y38.939 Z-1.43
N12015 X44.338 Y38.975 Z-1.487
N12020 X44.334 Y39.022 Z-1.535
N12025 X44.328 Y39.079 Z-1.57
N12030 X44.322 Y39.142 Z-1.592
N12035 X44.315 Y39.208 Z-1.6
N12040 X44.286 Y39.507
N12045 G17 G3 X43.959 Y39.777 I-0.299 J-0.029
N12050 G2 X42.409 Y55.701 I-0.775 J7.962 F800
N12055 X43.959 Y39.777 I0.775 J-7.962
N12060 G3 X43.689 Y39.449 I0.029 J-0.299
N12065 G1 X43.718 Y39.15
N12070 X43.725 Y39.084 Z-1.592
N12075 X43.731 Y39.021 Z-1.57
N12080 X43.736 Y38.964 Z-1.535
N12085 X43.741 Y38.917 Z-1.487
N12090 X43.744 Y38.881 Z-1.43
N12095 X43.747 Y38.859 Z-1.367
N12100 Y38.852 Z-1.3
N12105 G0 Z2.3
N12110 X44.345 Y38.91
N12115 G1 Z-1.4 F100
N12120 X44.344 Y38.917 Z-1.467 F50
N12125 X44.342 Y38.939 Z-1.53
N12130 X44.338 Y38.975 Z-1.587
N12135 X44.334 Y39.022 Z-1.635
N12140 X44.328 Y39.079 Z-1.67
N12145 X44.322 Y39.142 Z-1.692
N12150 X44.315 Y39.208 Z-1.7
N12155 Z2.3 F800
N12160 Z-1.7 F100
N12165 X44.286 Y39.507
N12170 G3 X43.959 Y39.777 I-0.299 J-0.029 F50
N12175 G1 Z2.3 F800
N12180 Z-1.7 F100
N12185 G2 X42.409 Y55.701 I-0.775 J7.962 F800
N12190 X43.959 Y39.777 I0.775 J-7.962
N12195 G3 X43.689 Y39.449 I0.029 J-0.299
N12200 G1 X43.718 Y39.15 F100
N12205 X43.725 Y39.084 Z-1.692 F800
N12210 X43.731 Y39.021 Z-1.67
N12215 X43.736 Y38.964 Z-1.635
N12220 X43.741 Y38.917 Z-1.587
N12225 X43.744 Y38.881 Z-1.53
N12230 X43.747 Y38.859 Z-1.467
N12235 Y38.852 Z-1.4
N12240 G0 Z2.3
N12245 X60.702 Y38.57
N12250 G1 Z-1.4 F100
N12255 G19 G3 Y38.87 Z-1.7 J0.3 F50
N12260 G1 Z2.3 F800
N12265 Z-1.7 F100
N12270 Y39.17
N12275 G17 G3 X60.402 Y39.47 I-0.3 F50
N12280 G1 Z2.3 F800
N12285 Z-1.7 F100
N12290 G2 Y55.47 J8 F800
N12295 Y39.47 J-8
N12300 G3 X60.102 Y39.17 J-0.3
N12305 G1 Y38.87 F100
N12310 G19 G2 Y38.57 Z-1.4 K0.3 F800
N12315 G0 Z2.3
N12320 X60.702
N12325 G1 Z-1.5 F100
N12330 Y38.575 Z-1.554 F50
N12335 Y38.59 Z-1.607
N12340 Y38.614 Z-1.656
N12345 Y38.646 Z-1.7
N12350 Y39.17
N12355 G17 G3 X60.402 Y39.47 I-0.3
N12360 G2 X58.902 Y39.612 J8 F800
N12365 G1 X58.702 Y39.653 Z-1.8 F100
N12370 G2 X62.102 Y55.287 I1.7 J7.817 F800
N12375 Y39.653 I-1.7 J-7.817
N12380 G1 X61.902 Y39.612 Z-1.7
N12385 G2 X60.402 Y39.47 I-1.5 J7.858
N12390 G3 X60.102 Y39.17 J-0.3
N12395 G1 Y38.87
N12400 Y38.646 F100
N12405 Y38.614 Z-1.656 F800
N12410 Y38.59 Z-1.607
N12415 Y38.575 Z-1.554
N12420 Y38.57 Z-1.5
N12425 G0 Z2.3
N12430 X44.345 Y38.91
N12435 G1 Z-1.5 F100
N12440 X44.344 Y38.915 Z-1.554 F50
N12445 X44.343 Y38.929 Z-1.607
N12450 X44.34 Y38.953 Z-1.656
N12455 X44.337 Y38.986 Z-1.7
N12460 X44.286 Y39.507
N12465 G3 X43.959 Y39.777 I-0.299 J-0.029
N12470 G2 X41.684 Y39.881 I-0.775 J7.962 F800
N12475 G1 X41.484 Y39.922 Z-1.8 F100
N12480 G2 X44.884 Y55.556 I1.7 J7.817 F800
N12485 Y39.922 I-1.7 J-7.817
N12490 G1 X44.684 Y39.881 Z-1.7
N12495 G2 X43.959 Y39.777 I-1.5 J7.858
N12500 G3 X43.689 Y39.449 I0.029 J-0.299
N12505 G1 X43.718 Y39.15
N12510 X43.74 Y38.928 F100
N12515 X43.743 Y38.895 Z-1.656 F800
N12520 X43.745 Y38.871 Z-1.607
N12525 X43.747 Y38.857 Z-1.554
N12530 Y38.852 Z-1.5
N12535 G0 Z2.3
N12540 X44.345 Y38.91
N12545 G1 Z-1.6 F100
N12550 X44.344 Y38.914 Z-1.651 F50
N12555 X44.343 Y38.927 Z-1.7
N12560 X44.286 Y39.507
N12565 G3 X43.959 Y39.777 I-0.299 J-0.029
N12570 G2 X41.684 Y39.881 I-0.775 J7.962 F800
N12575 X41.284 Y39.968 Z-1.9 I1.5 J7.858 F100
N12580 X45.084 Y55.51 I1.9 J7.771 F800
N12585 Y39.968 I-1.9 J-7.771
N12590 X44.684 Y39.881 Z-1.7 I-1.9 J7.771
N12595 X43.959 Y39.777 I-1.5 J7.858
N12600 G3 X43.689 Y39.449 I0.029 J-0.299
N12605 G1 X43.718 Y39.15
N12610 X43.746 Y38.869 F100
N12615 X43.747 Y38.856 Z-1.651 F800
N12620 Y38.852 Z-1.6
N12625 G0 Z2.3
N12630 X60.702 Y38.57
N12635 G1 Z-1.6 F100
N12640 Y38.574 Z-1.651 F50
N12645 Y38.587 Z-1.7
N12650 Y39.17
N12655 G3 X60.402 Y39.47 I-0.3
N12660 G2 X58.902 Y39.612 J8 F800
N12665 X58.502 Y39.699 Z-1.9 I1.5 J7.858 F100
N12670 X62.302 Y55.241 I1.9 J7.771 F800
N12675 Y39.699 I-1.9 J-7.771
N12680 X61.902 Y39.612 Z-1.7 I-1.9 J7.771
N12685 X60.402 Y39.47 I-1.5 J7.858
N12690 G3 X60.102 Y39.17 J-0.3
N12695 G1 Y38.87
N12700 Y38.587 F100
N12705 Y38.574 Z-1.651 F800
N12710 Y38.57 Z-1.6
N12715 G0 Z2.3
N12720 X60.702
N12725 G1 Z-1.7 F100
N12730 Y39.17 F50
N12735 G3 X60.402 Y39.47 I-0.3
N12740 G2 X58.902 Y39.612 J8 F800
N12745 X58.302 Y39.75 Z-2 I1.5 J7.858 F100
N12750 X62.502 Y55.189 I2.1 J7.719 F800
N12755 Y39.75 I-2.1 J-7.719
N12760 X61.902 Y39.612 Z-1.7 I-2.1 J7.719
N12765 X60.402 Y39.47 I-1.5 J7.858
N12770 G3 X60.102 Y39.17 J-0.3
N12775 G1 Y38.57
N12780 G0 Z2.3
N12785 X44.345 Y38.91
N12790 G1 Z-1.7 F100
N12795 X44.286 Y39.507 F50
N12800 G3 X43.959 Y39.777 I-0.299 J-0.029
N12805 G2 X41.684 Y39.881 I-0.775 J7.962 F800
N12810 X41.084 Y40.019 Z-2 I1.5 J7.858 F100
N12815 X45.284 Y55.458 I2.1 J7.719 F800
N12820 Y40.019 I-2.1 J-7.719
N12825 X44.684 Y39.881 Z-1.7 I-2.1 J7.719
N12830 X43.959 Y39.777 I-1.5 J7.858
N12835 G3 X43.689 Y39.449 I0.029 J-0.299
N12840 G1 X43.747 Y38.852
N12845 G0 Z2.3
N12850 X44.345 Y38.91
N12855 G1 Z-1.7 F100
N12860 X44.286 Y39.507 F50
N12865 G3 X43.959 Y39.777 I-0.299 J-0.029
N12870 G2 X41.684 Y39.881 I-0.775 J7.962 F800
N12875 X40.907 Y40.07 Z-2.089 I1.5 J7.858 F100
N12880 G1 X40.884 Y40.077 Z-2.1
N12885 G2 X45.484 Y55.401 I2.3 J7.662 F800
N12890 Y40.077 I-2.3 J-7.662
N12895 X44.707 Y39.885 Z-1.712 I-2.3 J7.662
N12900 G1 X44.684 Y39.881 Z-1.7
N12905 G2 X43.959 Y39.777 I-1.5 J7.858
N12910 G3 X43.689 Y39.449 I0.029 J-0.299
N12915 G1 X43.747 Y38.852
N12920 G0 Z2.3
N12925 X60.702 Y38.57
N12930 G1 Z-1.7 F100
N12935 Y39.17 F50
N12940 G3 X60.402 Y39.47 I-0.3
N12945 G2 X58.902 Y39.612 J8 F800
N12950 X58.125 Y39.801 Z-2.089 I1.5 J7.858 F100
N12955 G1 X58.102 Y39.808 Z-2.1
N12960 G2 X62.702 Y55.132 I2.3 J7.662 F800
N12965 Y39.808 I-2.3 J-7.662
N12970 X61.925 Y39.616 Z-1.712 I-2.3 J7.662
N12975 G1 X61.902 Y39.612 Z-1.7
N12980 G2 X60.402 Y39.47 I-1.5 J7.858
N12985 G3 X60.102 Y39.17 J-0.3
N12990 G1 Y38.57
N12995 G0 Z2.3
N13000 X60.702
N13005 G1 Z-1.7 F100
N13010 Y39.17 F50
N13015 G3 X60.402 Y39.47 I-0.3
N13020 G2 X58.902 Y39.612 J8 F800
N13025 X58.125 Y39.801 Z-2.089 I1.5 J7.858 F100
N13030 G1 X57.902 Y39.871 Z-2.2
N13035 G2 X62.902 Y55.069 I2.5 J7.599 F800
N13040 Y39.871 I-2.5 J-7.599
N13045 X62.13 Y39.659 Z-1.814 I-2.5 J7.599
N13050 G1 X61.902 Y39.612 Z-1.7
N13055 G2 X60.402 Y39.47 I-1.5 J7.858
N13060 G3 X60.102 Y39.17 J-0.3
N13065 G1 Y38.57
N13070 G0 Z2.3
N13075 X44.345 Y38.91
N13080 G1 Z-1.7 F100
N13085 X44.286 Y39.507 F50
N13090 G3 X43.959 Y39.777 I-0.299 J-0.029
N13095 G2 X41.684 Y39.881 I-0.775 J7.962 F800
N13100 X40.907 Y40.07 Z-2.089 I1.5 J7.858 F100
N13105 G1 X40.684 Y40.14 Z-2.2
N13110 G2 X45.684 Y55.338 I2.5 J7.599 F800
N13115 Y40.14 I-2.5 J-7.599
N13120 X44.912 Y39.928 Z-1.814 I-2.5 J7.599
N13125 G1 X44.684 Y39.881 Z-1.7
N13130 G2 X43.959 Y39.777 I-1.5 J7.858
N13135 G3 X43.689 Y39.449 I0.029 J-0.299
N13140 G1 X43.747 Y38.852
N13145 G0 Z2.3

(2D ??3)
N13150 X104.1 Y56.95
N13155 G1 Z2.3 F100
N13160 Z0.5
N13165 G18 G2 X104.4 Z0.2 I0.3 F50
N13170 G1 X104.7
N13175 G17 G3 X105 Y57.25 J0.3
N13180 X9.5 I-47.75 F800
N13185 X105 I47.75
N13190 X104.7 Y57.55 I-0.3
N13195 G1 X104.4
N13200 G18 G3 X104.1 Z0.5 K0.3
N13205 G0 Z2.3
N13210 Y56.95
N13215 G1 Z0.4 F100
N13220 G2 X104.4 Z0.1 I0.3 F50
N13225 G1 X104.7
N13230 G17 G3 X105 Y57.25 J0.3
N13235 X9.5 I-47.75 F800
N13240 X105 I47.75
N13245 X104.7 Y57.55 I-0.3
N13250 G1 X104.4
N13255 G18 G3 X104.1 Z0.4 K0.3
N13260 G0 Z2.3
N13265 Y56.95
N13270 G1 Z0.3 F100
N13275 G2 X104.4 Z0 I0.3 F50
N13280 G1 X104.7
N13285 G17 G3 X105 Y57.25 J0.3
N13290 X9.5 I-47.75 F800
N13295 X105 I47.75
N13300 X104.7 Y57.55 I-0.3
N13305 G1 X104.4
N13310 G18 G3 X104.1 Z0.3 K0.3
N13315 G0 Z2.3
N13320 Y56.95
N13325 G1 Z0.2 F100
N13330 G2 X104.4 Z-0.1 I0.3 F50
N13335 G1 X104.7
N13340 G17 G3 X105 Y57.25 J0.3
N13345 X9.5 I-47.75 F800
N13350 X105 I47.75
N13355 X104.7 Y57.55 I-0.3
N13360 G1 X104.4
N13365 G18 G3 X104.1 Z0.2 K0.3
N13370 G0 Z2.3
N13375 Y56.95
N13380 G1 Z0.1 F100
N13385 G2 X104.4 Z-0.2 I0.3 F50
N13390 G1 X104.7
N13395 G17 G3 X105 Y57.25 J0.3
N13400 X9.5 I-47.75 F800
N13405 X105 I47.75
N13410 X104.7 Y57.55 I-0.3
N13415 G1 X104.4
N13420 G18 G3 X104.1 Z0.1 K0.3
N13425 G0 Z2.3
N13430 Y56.95
N13435 G1 Z0 F100
N13440 G2 X104.4 Z-0.3 I0.3 F50
N13445 G1 X104.7
N13450 G17 G3 X105 Y57.25 J0.3
N13455 X9.5 I-47.75 F800
N13460 X105 I47.75
N13465 X104.7 Y57.55 I-0.3
N13470 G1 X104.4
N13475 G18 G3 X104.1 Z0 K0.3
N13480 G0 Z2.3
N13485 Y56.95
N13490 G1 Z-0.1 F100
N13495 G2 X104.4 Z-0.4 I0.3 F50
N13500 G1 X104.7
N13505 G17 G3 X105 Y57.25 J0.3
N13510 X9.5 I-47.75 F800
N13515 X105 I47.75
N13520 X104.7 Y57.55 I-0.3
N13525 G1 X104.4
N13530 G18 G3 X104.1 Z-0.1 K0.3
N13535 G0 Z2.3
N13540 Y56.95
N13545 G1 Z-0.2 F100
N13550 G2 X104.4 Z-0.5 I0.3 F50
N13555 G1 X104.7
N13560 G17 G3 X105 Y57.25 J0.3
N13565 X9.5 I-47.75 F800
N13570 X105 I47.75
N13575 X104.7 Y57.55 I-0.3
N13580 G1 X104.4
N13585 G18 G3 X104.1 Z-0.2 K0.3
N13590 G0 Z2.3
N13595 Y56.95
N13600 G1 Z-0.3 F100
N13605 G2 X104.4 Z-0.6 I0.3 F50
N13610 G1 X104.7
N13615 G17 G3 X105 Y57.25 J0.3
N13620 X9.5 I-47.75 F800
N13625 X105 I47.75
N13630 X104.7 Y57.55 I-0.3
N13635 G1 X104.4
N13640 G18 G3 X104.1 Z-0.3 K0.3
N13645 G0 Z2.3
N13650 Y56.95
N13655 G1 Z-0.4 F100
N13660 G2 X104.4 Z-0.7 I0.3 F50
N13665 G1 X104.7
N13670 G17 G3 X105 Y57.25 J0.3
N13675 X9.5 I-47.75 F800
N13680 X105 I47.75
N13685 X104.7 Y57.55 I-0.3
N13690 G1 X104.4
N13695 G18 G3 X104.1 Z-0.4 K0.3
N13700 G0 Z2.3
N13705 Y56.95
N13710 G1 Z-0.5 F100
N13715 G2 X104.4 Z-0.8 I0.3 F50
N13720 G1 X104.7
N13725 G17 G3 X105 Y57.25 J0.3
N13730 X9.5 I-47.75 F800
N13735 X105 I47.75
N13740 X104.7 Y57.55 I-0.3
N13745 G1 X104.4
N13750 G18 G3 X104.1 Z-0.5 K0.3
N13755 G0 Z2.3
N13760 Y56.95
N13765 G1 Z-0.6 F100
N13770 G2 X104.4 Z-0.9 I0.3 F50
N13775 G1 X104.7
N13780 G17 G3 X105 Y57.25 J0.3
N13785 X9.5 I-47.75 F800
N13790 X105 I47.75
N13795 X104.7 Y57.55 I-0.3
N13800 G1 X104.4
N13805 G18 G3 X104.1 Z-0.6 K0.3
N13810 G0 Z2.3
N13815 Y56.95
N13820 G1 Z-0.7 F100
N13825 G2 X104.4 Z-1 I0.3 F50
N13830 G1 X104.7
N13835 G17 G3 X105 Y57.25 J0.3
N13840 X9.5 I-47.75 F800
N13845 X105 I47.75
N13850 X104.7 Y57.55 I-0.3
N13855 G1 X104.4
N13860 G18 G3 X104.1 Z-0.7 K0.3
N13865 G0 Z2.3
N13870 Y56.95
N13875 G1 Z-0.8 F100
N13880 G2 X104.4 Z-1.1 I0.3 F50
N13885 G1 X104.7
N13890 G17 G3 X105 Y57.25 J0.3
N13895 X9.5 I-47.75 F800
N13900 X105 I47.75
N13905 X104.7 Y57.55 I-0.3
N13910 G1 X104.4
N13915 G18 G3 X104.1 Z-0.8 K0.3
N13920 G0 Z2.3
N13925 Y56.95
N13930 G1 Z-0.9 F100
N13935 G2 X104.4 Z-1.2 I0.3 F50
N13940 G1 X104.7
N13945 G17 G3 X105 Y57.25 J0.3
N13950 X9.5 I-47.75 F800
N13955 X105 I47.75
N13960 X104.7 Y57.55 I-0.3
N13965 G1 X104.4
N13970 G18 G3 X104.1 Z-0.9 K0.3
N13975 G0 Z2.3
N13980 Y56.95
N13985 G1 Z-1 F100
N13990 G2 X104.4 Z-1.3 I0.3 F50
N13995 G1 X104.7
N14000 G17 G3 X105 Y57.25 J0.3
N14005 X9.5 I-47.75 F800
N14010 X105 I47.75
N14015 X104.7 Y57.55 I-0.3
N14020 G1 X104.4
N14025 G18 G3 X104.1 Z-1 K0.3
N14030 G0 Z2.3
N14035 Y56.95
N14040 G1 Z-1.1 F100
N14045 G2 X104.4 Z-1.4 I0.3 F50
N14050 G1 X104.7
N14055 G17 G3 X105 Y57.25 J0.3
N14060 X9.5 I-47.75 F800
N14065 X105 I47.75
N14070 X104.7 Y57.55 I-0.3
N14075 G1 X104.4
N14080 G18 G3 X104.1 Z-1.1 K0.3
N14085 G0 Z2.3
N14090 Y56.95
N14095 G1 Z-1.2 F100
N14100 G2 X104.4 Z-1.5 I0.3 F50
N14105 G1 X104.7
N14110 G17 G3 X105 Y57.25 J0.3
N14115 X9.5 I-47.75 F800
N14120 X105 I47.75
N14125 X104.7 Y57.55 I-0.3
N14130 G1 X104.4
N14135 G18 G3 X104.1 Z-1.2 K0.3
N14140 G0 Z2.3
N14145 Y56.95
N14150 G1 Z-1.3 F100
N14155 G2 X104.4 Z-1.6 I0.3 F50
N14160 G1 X104.7
N14165 G17 G3 X105 Y57.25 J0.3
N14170 X9.5 I-47.75 F800
N14175 X105 I47.75
N14180 X104.7 Y57.55 I-0.3
N14185 G1 X104.4
N14190 G18 G3 X104.1 Z-1.3 K0.3
N14195 G0 Z2.3
N14200 Y56.95
N14205 G1 Z-1.4 F100
N14210 G2 X104.4 Z-1.7 I0.3 F50
N14215 G1 Z2.3 F800
N14220 Z-1.7 F100
N14225 X104.7
N14230 G17 G3 X105 Y57.25 J0.3 F50
N14235 G1 Z2.3 F800
N14240 Z-1.7 F100
N14245 G3 X9.5 I-47.75 F800
N14250 X105 I47.75
N14255 X104.7 Y57.55 I-0.3
N14260 G1 X104.4 F100
N14265 G18 G3 X104.1 Z-1.4 K0.3 F800
N14270 G0 Z2.3
N14275 Y56.95
N14280 G1 Z-1.5 F100
N14285 X104.105 Z-1.554 F50
N14290 X104.12 Z-1.607
N14295 X104.144 Z-1.656
N14300 X104.176 Z-1.7
N14305 X104.7
N14310 G17 G3 X105 Y57.25 J0.3
N14315 X104.976 Y58.75 I-47.75 F800
N14320 G1 X104.97 Y58.95 Z-1.8 F100
N14325 G3 X83.089 Y97.405 I-47.72 J-1.7 F800
N14330 X82.582 Y97.727 I-25.839 J-40.155 F200
N14335 G1 X82.412 Y97.832 Z-1.7 F800
N14340 G3 X79.814 Y99.332 I-25.162 J-40.582
N14345 G1 X79.638 Y99.427 Z-1.8 F100
N14350 G3 X35.394 Y99.704 I-22.388 J-42.177 F800
N14355 X34.862 Y99.427 I21.856 J-42.454 F200
N14360 G1 X34.686 Y99.332 Z-1.7 F800
N14365 G3 X32.088 Y97.832 I22.564 J-42.082
N14370 G1 X31.918 Y97.727 Z-1.8 F100
N14375 G3 X9.555 Y59.549 I25.332 J-40.477 F800
N14380 X9.53 Y58.95 I47.695 J-2.299 F200
N14385 G1 X9.524 Y58.75 Z-1.7 F800
N14390 G3 Y55.75 I47.726 J-1.5
N14395 G1 X9.53 Y55.55 Z-1.8 F100
N14400 G3 X31.411 Y17.095 I47.72 J1.7 F800
N14405 X31.918 Y16.773 I25.839 J40.155 F200
N14410 G1 X32.088 Y16.668 Z-1.7 F800
N14415 G3 X34.686 Y15.168 I25.162 J40.582
N14420 G1 X34.862 Y15.073 Z-1.8 F100
N14425 G3 X79.106 Y14.796 I22.388 J42.177 F800
N14430 X79.638 Y15.073 I-21.856 J42.454 F200
N14435 G1 X79.814 Y15.168 Z-1.7 F800
N14440 G3 X82.412 Y16.668 I-22.564 J42.082
N14445 G1 X82.582 Y16.773 Z-1.8 F100
N14450 G3 X104.945 Y54.951 I-25.332 J40.477 F800
N14455 X104.97 Y55.55 I-47.695 J2.299 F200
N14460 G1 X104.976 Y55.75 Z-1.7 F800
N14465 G3 X105 Y57.25 I-47.726 J1.5
N14470 X104.7 Y57.55 I-0.3
N14475 G1 X104.4
N14480 X104.176 F100
N14485 X104.144 Z-1.656 F800
N14490 X104.12 Z-1.607
N14495 X104.105 Z-1.554
N14500 X104.1 Z-1.5
N14505 G0 Z2.3
N14510 Y56.95
N14515 G1 Z-1.6 F100
N14520 X104.104 Z-1.651 F50
N14525 X104.117 Z-1.7
N14530 X104.7
N14535 G3 X105 Y57.25 J0.3
N14540 X104.976 Y58.75 I-47.75 F800
N14545 X104.962 Y59.15 Z-1.9 I-47.726 J-1.5 F100
N14550 X82.752 Y97.62 I-47.712 J-1.9 F800
N14555 X82.412 Y97.832 Z-1.7 I-25.502 J-40.37
N14560 X79.814 Y99.332 I-25.162 J-40.582
N14565 X79.461 Y99.52 Z-1.9 I-22.564 J-42.082 F100
N14570 X35.039 I-22.211 J-42.27 F800
N14575 X34.686 Y99.332 Z-1.7 I22.211 J-42.27
N14580 X32.088 Y97.832 I22.564 J-42.082
N14585 X31.748 Y97.62 Z-1.9 I25.162 J-40.582 F100
N14590 X9.538 Y59.15 I25.502 J-40.37 F800
N14595 X9.524 Y58.75 Z-1.7 I47.712 J-1.9
N14600 Y55.75 I47.726 J-1.5
N14605 X9.538 Y55.35 Z-1.9 I47.726 J1.5 F100
N14610 X31.748 Y16.88 I47.712 J1.9 F800
N14615 X32.088 Y16.668 Z-1.7 I25.502 J40.37
N14620 X34.686 Y15.168 I25.162 J40.582
N14625 X35.039 Y14.98 Z-1.9 I22.564 J42.082 F100
N14630 X79.461 I22.211 J42.27 F800
N14635 X79.814 Y15.168 Z-1.7 I-22.211 J42.27
N14640 X82.412 Y16.668 I-22.564 J42.082
N14645 X82.752 Y16.88 Z-1.9 I-25.162 J40.582 F100
N14650 X104.962 Y55.35 I-25.502 J40.37 F800
N14655 X104.976 Y55.75 Z-1.7 I-47.712 J1.9
N14660 X105 Y57.25 I-47.726 J1.5
N14665 X104.7 Y57.55 I-0.3
N14670 G1 X104.4
N14675 X104.117 F100
N14680 X104.104 Z-1.651 F800
N14685 X104.1 Z-1.6
N14690 G0 Z2.3
N14695 Y56.95
N14700 G1 Z-1.7 F100
N14705 X104.7 F50
N14710 G3 X105 Y57.25 J0.3
N14715 X104.976 Y58.75 I-47.75 F800
N14720 X104.954 Y59.35 Z-2 I-47.726 J-1.5 F100
N14725 X82.921 Y97.513 I-47.704 J-2.1 F800
N14730 X82.412 Y97.832 Z-1.7 I-25.671 J-40.263
N14735 X79.814 Y99.332 I-25.162 J-40.582
N14740 X79.283 Y99.613 Z-2 I-22.564 J-42.082 F100
N14745 X35.217 I-22.033 J-42.363 F800
N14750 X34.686 Y99.332 Z-1.7 I22.033 J-42.363
N14755 X32.088 Y97.832 I22.564 J-42.082
N14760 X31.579 Y97.513 Z-2 I25.162 J-40.582 F100
N14765 X9.546 Y59.35 I25.671 J-40.263 F800
N14770 X9.524 Y58.75 Z-1.7 I47.704 J-2.1
N14775 Y55.75 I47.726 J-1.5
N14780 X9.546 Y55.15 Z-2 I47.726 J1.5 F100
N14785 X31.579 Y16.987 I47.704 J2.1 F800
N14790 X32.088 Y16.668 Z-1.7 I25.671 J40.263
N14795 X34.686 Y15.168 I25.162 J40.582
N14800 X35.217 Y14.887 Z-2 I22.564 J42.082 F100
N14805 X79.283 I22.033 J42.363 F800
N14810 X79.814 Y15.168 Z-1.7 I-22.033 J42.363
N14815 X82.412 Y16.668 I-22.564 J42.082
N14820 X82.921 Y16.987 Z-2 I-25.162 J40.582 F100
N14825 X104.954 Y55.15 I-25.671 J40.263 F800
N14830 X104.976 Y55.75 Z-1.7 I-47.704 J2.1
N14835 X105 Y57.25 I-47.726 J1.5
N14840 X104.7 Y57.55 I-0.3
N14845 G1 X104.1
N14850 G0 Z2.3
N14855 Y56.95
N14860 G1 Z-1.7 F100
N14865 X104.7 F50
N14870 G3 X105 Y57.25 J0.3
N14875 X104.976 Y58.75 I-47.75 F800
N14880 X104.945 Y59.55 Z-2.1 I-47.726 J-1.5 F100
N14885 X83.089 Y97.405 I-47.695 J-2.3 F800
N14890 X82.412 Y97.832 Z-1.7 I-25.839 J-40.155
N14895 X79.814 Y99.332 I-25.162 J-40.582
N14900 X79.105 Y99.705 Z-2.1 I-22.564 J-42.082 F100
N14905 X35.395 I-21.855 J-42.455 F800
N14910 X34.686 Y99.332 Z-1.7 I21.855 J-42.455
N14915 X32.088 Y97.832 I22.564 J-42.082
N14920 X31.411 Y97.405 Z-2.1 I25.162 J-40.582 F100
N14925 X9.555 Y59.55 I25.839 J-40.155 F800
N14930 X9.524 Y58.75 Z-1.7 I47.695 J-2.3
N14935 Y55.75 I47.726 J-1.5
N14940 X9.555 Y54.95 Z-2.1 I47.726 J1.5 F100
N14945 X31.411 Y17.095 I47.695 J2.3 F800
N14950 X32.088 Y16.668 Z-1.7 I25.839 J40.155
N14955 X34.686 Y15.168 I25.162 J40.582
N14960 X35.395 Y14.795 Z-2.1 I22.564 J42.082 F100
N14965 X79.105 I21.855 J42.455 F800
N14970 X79.814 Y15.168 Z-1.7 I-21.855 J42.455
N14975 X82.412 Y16.668 I-22.564 J42.082
N14980 X83.089 Y17.095 Z-2.1 I-25.162 J40.582 F100
N14985 X104.945 Y54.95 I-25.839 J40.155 F800
N14990 X104.976 Y55.75 Z-1.7 I-47.695 J2.3
N14995 X105 Y57.25 I-47.726 J1.5
N15000 X104.7 Y57.55 I-0.3
N15005 G1 X104.1
N15010 G0 Z2.3
N15015 Y56.95
N15020 G1 Z-1.7 F100
N15025 X104.7 F50
N15030 G3 X105 Y57.25 J0.3
N15035 X104.976 Y58.75 I-47.75 F800
N15040 X104.935 Y59.75 Z-2.2 I-47.726 J-1.5 F100
N15045 X83.257 Y97.296 I-47.685 J-2.5 F800
N15050 X82.412 Y97.832 Z-1.7 I-26.007 J-40.046
N15055 X79.814 Y99.332 I-25.162 J-40.582
N15060 X78.927 Y99.796 Z-2.2 I-22.564 J-42.082 F100
N15065 X35.573 I-21.677 J-42.546 F800
N15070 X34.686 Y99.332 Z-1.7 I21.677 J-42.546
N15075 X32.088 Y97.832 I22.564 J-42.082
N15080 X31.243 Y97.296 Z-2.2 I25.162 J-40.582 F100
N15085 X9.565 Y59.75 I26.007 J-40.046 F800
N15090 X9.524 Y58.75 Z-1.7 I47.685 J-2.5
N15095 Y55.75 I47.726 J-1.5
N15100 X9.565 Y54.75 Z-2.2 I47.726 J1.5 F100
N15105 X31.243 Y17.204 I47.685 J2.5 F800
N15110 X32.088 Y16.668 Z-1.7 I26.007 J40.046
N15115 X34.686 Y15.168 I25.162 J40.582
N15120 X35.573 Y14.704 Z-2.2 I22.564 J42.082 F100
N15125 X78.927 I21.677 J42.546 F800
N15130 X79.814 Y15.168 Z-1.7 I-21.677 J42.546
N15135 X82.412 Y16.668 I-22.564 J42.082
N15140 X83.257 Y17.204 Z-2.2 I-25.162 J40.582 F100
N15145 X104.935 Y54.75 I-26.007 J40.046 F800
N15150 X104.976 Y55.75 Z-1.7 I-47.685 J2.5
N15155 X105 Y57.25 I-47.726 J1.5
N15160 X104.7 Y57.55 I-0.3
N15165 G1 X104.1
N15170 G0 Z2.3

(2D ??4)
N15175 X-2.4 Y56.95
N15180 G1 Z2.3 F100
N15185 Z0.5
N15190 G18 G2 X-2.1 Z0.2 I0.3 F50
N15195 G1 X-1.8
N15200 G17 G3 X-1.5 Y57.25 J0.3
N15205 G2 X116 I58.75 F800
N15210 X-1.5 I-58.75
N15215 G3 X-1.8 Y57.55 I-0.3
N15220 G1 X-2.1
N15225 G18 G3 X-2.4 Z0.5 K0.3
N15230 G0 Z2.3
N15235 Y56.95
N15240 G1 Z0.4 F100
N15245 G2 X-2.1 Z0.1 I0.3 F50
N15250 G1 X-1.8
N15255 G17 G3 X-1.5 Y57.25 J0.3
N15260 G2 X116 I58.75 F800
N15265 X-1.5 I-58.75
N15270 G3 X-1.8 Y57.55 I-0.3
N15275 G1 X-2.1
N15280 G18 G3 X-2.4 Z0.4 K0.3
N15285 G0 Z2.3
N15290 Y56.95
N15295 G1 Z0.3 F100
N15300 G2 X-2.1 Z0 I0.3 F50
N15305 G1 X-1.8
N15310 G17 G3 X-1.5 Y57.25 J0.3
N15315 G2 X116 I58.75 F800
N15320 X-1.5 I-58.75
N15325 G3 X-1.8 Y57.55 I-0.3
N15330 G1 X-2.1
N15335 G18 G3 X-2.4 Z0.3 K0.3
N15340 G0 Z2.3
N15345 Y56.95
N15350 G1 Z0.2 F100
N15355 G2 X-2.1 Z-0.1 I0.3 F50
N15360 G1 X-1.8
N15365 G17 G3 X-1.5 Y57.25 J0.3
N15370 G2 X116 I58.75 F800
N15375 X-1.5 I-58.75
N15380 G3 X-1.8 Y57.55 I-0.3
N15385 G1 X-2.1
N15390 G18 G3 X-2.4 Z0.2 K0.3
N15395 G0 Z2.3
N15400 Y56.95
N15405 G1 Z0.1 F100
N15410 G2 X-2.1 Z-0.2 I0.3 F50
N15415 G1 X-1.8
N15420 G17 G3 X-1.5 Y57.25 J0.3
N15425 G2 X116 I58.75 F800
N15430 X-1.5 I-58.75
N15435 G3 X-1.8 Y57.55 I-0.3
N15440 G1 X-2.1
N15445 G18 G3 X-2.4 Z0.1 K0.3
N15450 G0 Z2.3
N15455 Y56.95
N15460 G1 Z0 F100
N15465 G2 X-2.1 Z-0.3 I0.3 F50
N15470 G1 X-1.8
N15475 G17 G3 X-1.5 Y57.25 J0.3
N15480 G2 X116 I58.75 F800
N15485 X-1.5 I-58.75
N15490 G3 X-1.8 Y57.55 I-0.3
N15495 G1 X-2.1
N15500 G18 G3 X-2.4 Z0 K0.3
N15505 G0 Z2.3
N15510 Y56.95
N15515 G1 Z-0.1 F100
N15520 G2 X-2.1 Z-0.4 I0.3 F50
N15525 G1 X-1.8
N15530 G17 G3 X-1.5 Y57.25 J0.3
N15535 G2 X116 I58.75 F800
N15540 X-1.5 I-58.75
N15545 G3 X-1.8 Y57.55 I-0.3
N15550 G1 X-2.1
N15555 G18 G3 X-2.4 Z-0.1 K0.3
N15560 G0 Z2.3
N15565 Y56.95
N15570 G1 Z-0.2 F100
N15575 G2 X-2.1 Z-0.5 I0.3 F50
N15580 G1 X-1.8
N15585 G17 G3 X-1.5 Y57.25 J0.3
N15590 G2 X116 I58.75 F800
N15595 X-1.5 I-58.75
N15600 G3 X-1.8 Y57.55 I-0.3
N15605 G1 X-2.1
N15610 G18 G3 X-2.4 Z-0.2 K0.3
N15615 G0 Z2.3
N15620 Y56.95
N15625 G1 Z-0.3 F100
N15630 G2 X-2.1 Z-0.6 I0.3 F50
N15635 G1 X-1.8
N15640 G17 G3 X-1.5 Y57.25 J0.3
N15645 G2 X116 I58.75 F800
N15650 X-1.5 I-58.75
N15655 G3 X-1.8 Y57.55 I-0.3
N15660 G1 X-2.1
N15665 G18 G3 X-2.4 Z-0.3 K0.3
N15670 G0 Z2.3
N15675 Y56.95
N15680 G1 Z-0.4 F100
N15685 G2 X-2.1 Z-0.7 I0.3 F50
N15690 G1 X-1.8
N15695 G17 G3 X-1.5 Y57.25 J0.3
N15700 G2 X116 I58.75 F800
N15705 X-1.5 I-58.75
N15710 G3 X-1.8 Y57.55 I-0.3
N15715 G1 X-2.1
N15720 G18 G3 X-2.4 Z-0.4 K0.3
N15725 G0 Z2.3
N15730 Y56.95
N15735 G1 Z-0.5 F100
N15740 G2 X-2.1 Z-0.8 I0.3 F50
N15745 G1 X-1.8
N15750 G17 G3 X-1.5 Y57.25 J0.3
N15755 G2 X116 I58.75 F800
N15760 X-1.5 I-58.75
N15765 G3 X-1.8 Y57.55 I-0.3
N15770 G1 X-2.1
N15775 G18 G3 X-2.4 Z-0.5 K0.3
N15780 G0 Z2.3
N15785 Y56.95
N15790 G1 Z-0.6 F100
N15795 G2 X-2.1 Z-0.9 I0.3 F50
N15800 G1 X-1.8
N15805 G17 G3 X-1.5 Y57.25 J0.3
N15810 G2 X116 I58.75 F800
N15815 X-1.5 I-58.75
N15820 G3 X-1.8 Y57.55 I-0.3
N15825 G1 X-2.1
N15830 G18 G3 X-2.4 Z-0.6 K0.3
N15835 G0 Z2.3
N15840 Y56.95
N15845 G1 Z-0.7 F100
N15850 G2 X-2.1 Z-1 I0.3 F50
N15855 G1 X-1.8
N15860 G17 G3 X-1.5 Y57.25 J0.3
N15865 G2 X116 I58.75 F800
N15870 X-1.5 I-58.75
N15875 G3 X-1.8 Y57.55 I-0.3
N15880 G1 X-2.1
N15885 G18 G3 X-2.4 Z-0.7 K0.3
N15890 G0 Z2.3
N15895 Y56.95
N15900 G1 Z-0.8 F100
N15905 G2 X-2.1 Z-1.1 I0.3 F50
N15910 G1 X-1.8
N15915 G17 G3 X-1.5 Y57.25 J0.3
N15920 G2 X116 I58.75 F800
N15925 X-1.5 I-58.75
N15930 G3 X-1.8 Y57.55 I-0.3
N15935 G1 X-2.1
N15940 G18 G3 X-2.4 Z-0.8 K0.3
N15945 G0 Z2.3
N15950 Y56.95
N15955 G1 Z-0.9 F100
N15960 G2 X-2.1 Z-1.2 I0.3 F50
N15965 G1 X-1.8
N15970 G17 G3 X-1.5 Y57.25 J0.3
N15975 G2 X116 I58.75 F800
N15980 X-1.5 I-58.75
N15985 G3 X-1.8 Y57.55 I-0.3
N15990 G1 X-2.1
N15995 G18 G3 X-2.4 Z-0.9 K0.3
N16000 G0 Z2.3
N16005 Y56.95
N16010 G1 Z-1 F100
N16015 G2 X-2.1 Z-1.3 I0.3 F50
N16020 G1 X-1.8
N16025 G17 G3 X-1.5 Y57.25 J0.3
N16030 G2 X116 I58.75 F800
N16035 X-1.5 I-58.75
N16040 G3 X-1.8 Y57.55 I-0.3
N16045 G1 X-2.1
N16050 G18 G3 X-2.4 Z-1 K0.3
N16055 G0 Z2.3
N16060 Y56.95
N16065 G1 Z-1.1 F100
N16070 G2 X-2.1 Z-1.4 I0.3 F50
N16075 G1 X-1.8
N16080 G17 G3 X-1.5 Y57.25 J0.3
N16085 G2 X116 I58.75 F800
N16090 X-1.5 I-58.75
N16095 G3 X-1.8 Y57.55 I-0.3
N16100 G1 X-2.1
N16105 G18 G3 X-2.4 Z-1.1 K0.3
N16110 G0 Z2.3
N16115 Y56.95
N16120 G1 Z-1.2 F100
N16125 G2 X-2.1 Z-1.5 I0.3 F50
N16130 G1 X-1.8
N16135 G17 G3 X-1.5 Y57.25 J0.3
N16140 G2 X116 I58.75 F800
N16145 X-1.5 I-58.75
N16150 G3 X-1.8 Y57.55 I-0.3
N16155 G1 X-2.1
N16160 G18 G3 X-2.4 Z-1.2 K0.3
N16165 G0 Z2.3
N16170 Y56.95
N16175 G1 Z-1.3 F100
N16180 G2 X-2.1 Z-1.6 I0.3 F50
N16185 G1 X-1.8
N16190 G17 G3 X-1.5 Y57.25 J0.3
N16195 G2 X116 I58.75 F800
N16200 X-1.5 I-58.75
N16205 G3 X-1.8 Y57.55 I-0.3
N16210 G1 X-2.1
N16215 G18 G3 X-2.4 Z-1.3 K0.3
N16220 G0 Z2.3
N16225 Y56.95
N16230 G1 Z-1.4 F100
N16235 G2 X-2.1 Z-1.7 I0.3 F50
N16240 G1 X-1.8
N16245 G17 G3 X-1.5 Y57.25 J0.3
N16250 G2 X116 I58.75 F800
N16255 X-1.5 I-58.75
N16260 G3 X-1.8 Y57.55 I-0.3
N16265 G1 X-2.1
N16270 G18 G3 X-2.4 Z-1.4 K0.3
N16275 G0 Z2.3
N16280 Y56.95
N16285 G1 Z-1.5 F100
N16290 G2 X-2.1 Z-1.8 I0.3 F50
N16295 G1 X-1.8
N16300 G17 G3 X-1.5 Y57.25 J0.3
N16305 G2 X14.113 Y97.135 I58.75 F800
N16310 X14.523 Y97.573 I43.137 J-39.885 F200
N16315 G1 X14.66 Y97.718 Z-1.7 F800
N16320 G2 X16.782 Y99.84 I42.59 J-40.468
N16325 G1 X16.927 Y99.977 Z-1.8 F100
N16330 G2 X97.135 Y100.387 I40.323 J-42.727 F800
N16335 X97.573 Y99.977 I-39.885 J-43.137 F200
N16340 G1 X97.718 Y99.84 Z-1.7 F800
N16345 G2 X99.84 Y97.718 I-40.468 J-42.59
N16350 G1 X99.977 Y97.573 Z-1.8 F100
N16355 G2 X100.387 Y17.365 I-42.727 J-40.323 F800
N16360 X99.977 Y16.927 I-43.137 J39.885 F200
N16365 G1 X99.84 Y16.782 Z-1.7 F800
N16370 G2 X97.718 Y14.66 I-42.59 J40.468
N16375 G1 X97.573 Y14.523 Z-1.8 F100
N16380 G2 X17.365 Y14.113 I-40.323 J42.727 F800
N16385 X16.927 Y14.523 I39.885 J43.137 F200
N16390 G1 X16.782 Y14.66 Z-1.7 F800
N16395 G2 X14.66 Y16.782 I40.468 J42.59
N16400 G1 X14.523 Y16.927 Z-1.8 F100
N16405 G2 X-1.5 Y57.25 I42.727 J40.323 F800
N16410 G3 X-1.8 Y57.55 I-0.3
N16415 G1 X-2.1
N16420 G18 G3 X-2.4 Z-1.5 K0.3
N16425 G0 Z2.3
N16430 Y56.95
N16435 G1 Z-1.6 F100
N16440 G2 X-2.1 Z-1.9 I0.3 F50
N16445 G1 X-1.8
N16450 G17 G3 X-1.5 Y57.25 J0.3
N16455 G2 X14.386 Y97.427 I58.75 F800
N16460 X14.66 Y97.718 Z-1.7 I42.864 J-40.177
N16465 X16.782 Y99.84 I42.59 J-40.468
N16470 X17.073 Y100.114 Z-1.9 I40.468 J-42.59 F100
N16475 X97.427 I40.177 J-42.864 F800
N16480 X97.718 Y99.84 Z-1.7 I-40.177 J-42.864
N16485 X99.84 Y97.718 I-40.468 J-42.59
N16490 X100.114 Y97.427 Z-1.9 I-42.59 J-40.468 F100
N16495 Y17.073 I-42.864 J-40.177 F800
N16500 X99.84 Y16.782 Z-1.7 I-42.864 J40.177
N16505 X97.718 Y14.66 I-42.59 J40.468
N16510 X97.427 Y14.386 Z-1.9 I-40.468 J42.59 F100
N16515 X17.073 I-40.177 J42.864 F800
N16520 X16.782 Y14.66 Z-1.7 I40.177 J42.864
N16525 X14.66 Y16.782 I40.468 J42.59
N16530 X14.386 Y17.073 Z-1.9 I42.59 J40.468 F100
N16535 X-1.5 Y57.25 I42.864 J40.177 F800
N16540 G3 X-1.8 Y57.55 I-0.3
N16545 G1 X-2.1
N16550 G18 G3 X-2.4 Z-1.6 K0.3
N16555 G0 Z2.3
N16560 Y56.95
N16565 G1 Z-1.7 F100
N16570 G2 X-2.1 Z-2 I0.3 F50
N16575 G1 X-1.8
N16580 G17 G3 X-1.5 Y57.25 J0.3
N16585 G2 X14.249 Y97.281 I58.75 F800
N16590 X14.66 Y97.718 Z-1.7 I43.001 J-40.031
N16595 X16.782 Y99.84 I42.59 J-40.468
N16600 X17.219 Y100.251 Z-2 I40.468 J-42.59 F100
N16605 X97.281 I40.031 J-43.001 F800
N16610 X97.718 Y99.84 Z-1.7 I-40.031 J-43.001
N16615 X99.84 Y97.718 I-40.468 J-42.59
N16620 X100.251 Y97.281 Z-2 I-42.59 J-40.468 F100
N16625 Y17.219 I-43.001 J-40.031 F800
N16630 X99.84 Y16.782 Z-1.7 I-43.001 J40.031
N16635 X97.718 Y14.66 I-42.59 J40.468
N16640 X97.281 Y14.249 Z-2 I-40.468 J42.59 F100
N16645 X17.219 I-40.031 J43.001 F800
N16650 X16.782 Y14.66 Z-1.7 I40.031 J43.001
N16655 X14.66 Y16.782 I40.468 J42.59
N16660 X14.249 Y17.219 Z-2 I42.59 J40.468 F100
N16665 X-1.5 Y57.25 I43.001 J40.031 F800
N16670 G3 X-1.8 Y57.55 I-0.3
N16675 G1 X-2.1
N16680 G18 G3 X-2.4 Z-1.7 K0.3
N16685 G0 Z2.3
N16690 Y56.95
N16695 G1 Z-1.8 F100
N16700 G2 X-2.1 Z-2.1 I0.3 F50
N16705 G1 X-1.8
N16710 G17 G3 X-1.5 Y57.25 J0.3
N16715 G2 X14.113 Y97.134 I58.75 F800
N16720 X14.66 Y97.718 Z-1.7 I43.137 J-39.884
N16725 X16.782 Y99.84 I42.59 J-40.468
N16730 X17.366 Y100.387 Z-2.1 I40.468 J-42.59 F100
N16735 X97.134 I39.884 J-43.137 F800
N16740 X97.718 Y99.84 Z-1.7 I-39.884 J-43.137
N16745 X99.84 Y97.718 I-40.468 J-42.59
N16750 X100.387 Y97.134 Z-2.1 I-42.59 J-40.468 F100
N16755 Y17.366 I-43.137 J-39.884 F800
N16760 X99.84 Y16.782 Z-1.7 I-43.137 J39.884
N16765 X97.718 Y14.66 I-42.59 J40.468
N16770 X97.134 Y14.113 Z-2.1 I-40.468 J42.59 F100
N16775 X17.366 I-39.884 J43.137 F800
N16780 X16.782 Y14.66 Z-1.7 I39.884 J43.137
N16785 X14.66 Y16.782 I40.468 J42.59
N16790 X14.113 Y17.366 Z-2.1 I42.59 J40.468 F100
N16795 X-1.5 Y57.25 I43.137 J39.884 F800
N16800 G3 X-1.8 Y57.55 I-0.3
N16805 G1 X-2.1
N16810 G18 G3 X-2.4 Z-1.8 K0.3
N16815 G0 Z2.3
N16820 Y56.95
N16825 G1 Z-1.9 F100
N16830 G2 X-2.1 Z-2.2 I0.3 F50
N16835 G1 X-1.8
N16840 G17 G3 X-1.5 Y57.25 J0.3
N16845 G2 X13.977 Y96.987 I58.75 F800
N16850 X14.66 Y97.718 Z-1.7 I43.273 J-39.737
N16855 X16.782 Y99.84 I42.59 J-40.468
N16860 X17.513 Y100.523 Z-2.2 I40.468 J-42.59 F100
N16865 X96.987 I39.737 J-43.273 F800
N16870 X97.718 Y99.84 Z-1.7 I-39.737 J-43.273
N16875 X99.84 Y97.718 I-40.468 J-42.59
N16880 X100.523 Y96.987 Z-2.2 I-42.59 J-40.468 F100
N16885 Y17.513 I-43.273 J-39.737 F800
N16890 X99.84 Y16.782 Z-1.7 I-43.273 J39.737
N16895 X97.718 Y14.66 I-42.59 J40.468
N16900 X96.987 Y13.977 Z-2.2 I-40.468 J42.59 F100
N16905 X17.513 I-39.737 J43.273 F800
N16910 X16.782 Y14.66 Z-1.7 I39.737 J43.273
N16915 X14.66 Y16.782 I40.468 J42.59
N16920 X13.977 Y17.513 Z-2.2 I42.59 J40.468 F100
N16925 X-1.5 Y57.25 I43.273 J39.737 F800
N16930 G3 X-1.8 Y57.55 I-0.3
N16935 G1 X-2.1
N16940 G18 G3 X-2.4 Z-1.9 K0.3
N16945 G0 Z2.3
N16950 G17
N16955 M9
N16960 G28
N16965 M5
N16970 M30
%
