%
(1001)
(T3 D=3 CR=0 - ZMIN=-1.4 - flat end mill)
N10 G90 G94
N15 G17
N20 G21
N25 G28

(??2)
N30 T3 M6
N35 S20000 M3
N40 G54
N45 M8
N50 G0 X-7.5 Y7.5
N55 G43 Z2.3
N60 Z2
N65 G1 Z0.3 F50
N70 X-7.525 Y7.475
N75 X-7.518 Y7.457
N80 X-7.5 Y7.45
N85 X-7.473 Y7.458 Z0.291 F800
N90 X-7.455 Y7.479 Z0.282
N95 X-7.45 Y7.506 Z0.273
N100 X-7.461 Y7.532 Z0.264
N105 X-7.484 Y7.548 Z0.255
N110 X-7.512 Z0.246
N115 X-7.536 Y7.534 Z0.237
N120 X-7.549 Y7.509 Z0.228
N125 X-7.547 Y7.482 Z0.219
N130 X-7.53 Y7.46 Z0.21
N135 X-7.503 Y7.45 Z0.201
N140 X-7.476 Y7.456 Z0.192
N145 X-7.456 Y7.476 Z0.183
N150 X-7.45 Y7.503 Z0.174
N155 X-7.459 Y7.529 Z0.165
N160 X-7.481 Y7.546 Z0.156
N165 X-7.509 Y7.549 Z0.147
N170 X-7.534 Y7.537 Z0.138
N175 X-7.548 Y7.513 Z0.129
N180 Y7.485 Z0.12
N185 X-7.532 Y7.462 Z0.111
N190 X-7.507 Y7.45 Z0.102
N195 X-7.479 Y7.455 Z0.093
N200 X-7.458 Y7.473 Z0.084
N205 X-7.45 Y7.5 Z0.075
N210 X-7.458 Y7.526 Z0.066
N215 X-7.478 Y7.545 Z0.057
N220 X-7.506 Y7.55 Z0.048
N225 X-7.531 Y7.539 Z0.039
N230 X-7.547 Y7.516 Z0.03
N235 X-7.549 Y7.488 Z0.021
N240 X-7.535 Y7.464 Z0.012
N245 X-7.51 Y7.451 Z0.003
N250 X-7.482 Y7.453 Z-0.006
N255 X-7.46 Y7.47 Z-0.015
N260 X-7.45 Y7.496 Z-0.024
N265 X-7.456 Y7.524 Z-0.033
N270 X-7.475 Y7.544 Z-0.042
N275 X-7.502 Y7.55 Z-0.051
N280 X-7.529 Y7.541 Z-0.06
N285 X-7.546 Y7.519 Z-0.069
N290 X-7.549 Y7.491 Z-0.078
N295 X-7.537 Y7.466 Z-0.087
N300 X-7.513 Y7.452 Z-0.096
N305 X-7.485 Z-0.105
N310 X-7.462 Y7.468 Z-0.114
N315 X-7.45 Y7.493 Z-0.123
N320 X-7.454 Y7.521 Z-0.132
N325 X-7.473 Y7.542 Z-0.141
N330 X-7.499 Y7.55 Z-0.15
N335 X-7.526 Y7.543 Z-0.159
N340 X-7.545 Y7.522 Z-0.168
N345 X-7.55 Y7.495 Z-0.177
N350 X-7.539 Y7.469 Z-0.186
N355 X-7.516 Y7.453 Z-0.195
N360 X-7.488 Y7.451 Z-0.204
N365 X-7.464 Y7.465 Z-0.213
N370 X-7.451 Y7.49 Z-0.222
N375 X-7.453 Y7.517 Z-0.231
N380 X-7.47 Y7.54 Z-0.24
N385 X-7.496 Y7.55 Z-0.249
N390 X-7.523 Y7.544 Z-0.258
N395 X-7.543 Y7.525 Z-0.267
N400 X-7.55 Y7.498 Z-0.276
N405 X-7.541 Y7.471 Z-0.285
N410 X-7.519 Y7.454 Z-0.294
N415 X-7.492 Y7.451 Z-0.303
N420 X-7.467 Y7.463 Z-0.312
N425 X-7.452 Y7.486 Z-0.321
N430 Y7.514 Z-0.33
N435 X-7.467 Y7.538 Z-0.339
N440 X-7.493 Y7.549 Z-0.348
N445 X-7.52 Y7.546 Z-0.357
N450 X-7.542 Y7.528 Z-0.366
N455 X-7.55 Y7.501 Z-0.375
N460 X-7.543 Y7.474 Z-0.384
N465 X-7.522 Y7.455 Z-0.393
N470 X-7.495 Y7.45 Z-0.402
N475 X-7.469 Y7.461 Z-0.411
N480 X-7.453 Y7.483 Z-0.42
N485 X-7.451 Y7.511 Z-0.429
N490 X-7.465 Y7.536 Z-0.438
N495 X-7.489 Y7.549 Z-0.447
N500 X-7.517 Y7.547 Z-0.456
N505 X-7.54 Y7.531 Z-0.465
N510 X-7.55 Y7.505 Z-0.474
N515 X-7.544 Y7.477 Z-0.483
N520 X-7.525 Y7.457 Z-0.492
N525 X-7.498 Y7.45 Z-0.501
N530 X-7.472 Y7.459 Z-0.51
N535 X-7.454 Y7.48 Z-0.519
N540 X-7.451 Y7.508 Z-0.528
N545 X-7.463 Y7.533 Z-0.537
N550 X-7.486 Y7.548 Z-0.546
N555 X-7.514 Z-0.554
N560 X-7.537 Y7.533 Z-0.563
N565 X-7.549 Y7.508 Z-0.572
N570 X-7.546 Y7.48 Z-0.581
N575 X-7.528 Y7.459 Z-0.59
N580 X-7.502 Y7.45 Z-0.599
N585 X-7.475 Y7.457 Z-0.608
N590 X-7.456 Y7.477 Z-0.617
N595 X-7.45 Y7.505 Z-0.626
N600 X-7.46 Y7.531 Z-0.635
N605 X-7.483 Y7.547 Z-0.644
N610 X-7.511 Y7.549 Z-0.653
N615 X-7.535 Y7.536 Z-0.662
N620 X-7.549 Y7.511 Z-0.671
N625 X-7.547 Y7.483 Z-0.68
N630 X-7.531 Y7.461 Z-0.689
N635 X-7.505 Y7.45 Z-0.698
N640 X-7.478 Y7.455 Z-0.707
N645 X-7.457 Y7.474 Z-0.716
N650 X-7.45 Y7.501 Z-0.725
N655 X-7.458 Y7.528 Z-0.734
N660 X-7.48 Y7.546 Z-0.743
N665 X-7.507 Y7.549 Z-0.752
N670 X-7.533 Y7.538 Z-0.761
N675 X-7.548 Y7.514 Z-0.77
N680 Y7.486 Z-0.779
N685 X-7.533 Y7.463 Z-0.788
N690 X-7.508 Y7.451 Z-0.797
N695 X-7.481 Y7.454 Z-0.806
N700 X-7.459 Y7.471 Z-0.815
N705 X-7.45 Y7.498 Z-0.824
N710 X-7.457 Y7.525 Z-0.833
N715 X-7.477 Y7.544 Z-0.842
N720 X-7.504 Y7.55 Z-0.851
N725 X-7.53 Y7.54 Z-0.86
N730 X-7.547 Y7.517 Z-0.869
N735 X-7.549 Y7.49 Z-0.878
N740 X-7.536 Y7.465 Z-0.887
N745 X-7.512 Y7.451 Z-0.896
N750 X-7.484 Y7.453 Z-0.905
N755 X-7.461 Y7.469 Z-0.914
N760 X-7.45 Y7.495 Z-0.923
N765 X-7.455 Y7.522 Z-0.932
N770 X-7.474 Y7.543 Z-0.941
N775 X-7.501 Y7.55 Z-0.95
N780 X-7.527 Y7.542 Z-0.959
N785 X-7.546 Y7.521 Z-0.968
N790 X-7.55 Y7.493 Z-0.977
N795 X-7.538 Y7.468 Z-0.986
N800 X-7.515 Y7.452 Z-0.995
N805 X-7.487 Z-1.004
N810 X-7.463 Y7.466 Z-1.013
N815 X-7.451 Y7.491 Z-1.022
N820 X-7.454 Y7.519 Z-1.031
N825 X-7.471 Y7.541 Z-1.04
N830 X-7.498 Y7.55 Z-1.049
N835 X-7.525 Y7.544 Z-1.058
N840 X-7.544 Y7.524 Z-1.067
N845 X-7.55 Y7.496 Z-1.076
N850 X-7.54 Y7.47 Z-1.085
N855 X-7.518 Y7.453 Z-1.094
N860 X-7.49 Y7.451 Z-1.103
N865 X-7.465 Y7.464 Z-1.112
N870 X-7.451 Y7.488 Z-1.121
N875 X-7.453 Y7.516 Z-1.13
N880 X-7.469 Y7.539 Z-1.139
N885 X-7.494 Y7.55 Z-1.148
N890 X-7.522 Y7.545 Z-1.157
N895 X-7.542 Y7.526 Z-1.166
N900 X-7.55 Y7.5 Z-1.175
N905 X-7.542 Y7.473 Z-1.184
N910 X-7.521 Y7.455 Z-1.193
N915 X-7.493 Y7.45 Z-1.202
N920 X-7.468 Y7.462 Z-1.211
N925 X-7.452 Y7.485 Z-1.22
N930 Y7.513 Z-1.229
N935 X-7.466 Y7.537 Z-1.238
N940 X-7.491 Y7.549 Z-1.247
N945 X-7.519 Y7.546 Z-1.256
N950 X-7.541 Y7.529 Z-1.265
N955 X-7.55 Y7.503 Z-1.274
N960 X-7.544 Y7.476 Z-1.283
N965 X-7.524 Y7.456 Z-1.292
N970 X-7.497 Y7.45 Z-1.301
N975 X-7.47 Y7.46 Z-1.31
N980 X-7.453 Y7.482 Z-1.319
N985 X-7.451 Y7.509 Z-1.328
N990 X-7.464 Y7.534 Z-1.337
N995 X-7.488 Y7.548 Z-1.346
N1000 X-7.516 Z-1.355
N1005 X-7.539 Y7.532 Z-1.364
N1010 X-7.55 Y7.506 Z-1.373
N1015 X-7.545 Y7.479 Z-1.382
N1020 X-7.527 Y7.458 Z-1.391
N1025 X-7.5 Y7.45 Z-1.4
N1030 G3 Y7.55 J0.05
N1035 Y7.45 J-0.05
N1040 G1 X-7.482 Y7.457
N1045 X-7.475 Y7.475
N1050 X-7.5 Y7.5
N1055 G0 Z2.3
N1060 Y37.5
N1065 Z2
N1070 G1 Z0.3 F50
N1075 X-7.525 Y37.475
N1080 X-7.518 Y37.457
N1085 X-7.5 Y37.45
N1090 X-7.473 Y37.458 Z0.291 F800
N1095 X-7.455 Y37.479 Z0.282
N1100 X-7.45 Y37.506 Z0.273
N1105 X-7.461 Y37.532 Z0.264
N1110 X-7.484 Y37.548 Z0.255
N1115 X-7.512 Z0.246
N1120 X-7.536 Y37.534 Z0.237
N1125 X-7.549 Y37.509 Z0.228
N1130 X-7.547 Y37.482 Z0.219
N1135 X-7.53 Y37.46 Z0.21
N1140 X-7.503 Y37.45 Z0.201
N1145 X-7.476 Y37.456 Z0.192
N1150 X-7.456 Y37.476 Z0.183
N1155 X-7.45 Y37.503 Z0.174
N1160 X-7.459 Y37.529 Z0.165
N1165 X-7.481 Y37.546 Z0.156
N1170 X-7.509 Y37.549 Z0.147
N1175 X-7.534 Y37.537 Z0.138
N1180 X-7.548 Y37.513 Z0.129
N1185 Y37.485 Z0.12
N1190 X-7.532 Y37.462 Z0.111
N1195 X-7.507 Y37.45 Z0.102
N1200 X-7.479 Y37.455 Z0.093
N1205 X-7.458 Y37.473 Z0.084
N1210 X-7.45 Y37.5 Z0.075
N1215 X-7.458 Y37.526 Z0.066
N1220 X-7.478 Y37.545 Z0.057
N1225 X-7.506 Y37.55 Z0.048
N1230 X-7.531 Y37.539 Z0.039
N1235 X-7.547 Y37.516 Z0.03
N1240 X-7.549 Y37.488 Z0.021
N1245 X-7.535 Y37.464 Z0.012
N1250 X-7.51 Y37.451 Z0.003
N1255 X-7.482 Y37.453 Z-0.006
N1260 X-7.46 Y37.47 Z-0.015
N1265 X-7.45 Y37.496 Z-0.024
N1270 X-7.456 Y37.524 Z-0.033
N1275 X-7.475 Y37.544 Z-0.042
N1280 X-7.502 Y37.55 Z-0.051
N1285 X-7.529 Y37.541 Z-0.06
N1290 X-7.546 Y37.519 Z-0.069
N1295 X-7.549 Y37.491 Z-0.078
N1300 X-7.537 Y37.466 Z-0.087
N1305 X-7.513 Y37.452 Z-0.096
N1310 X-7.485 Z-0.105
N1315 X-7.462 Y37.468 Z-0.114
N1320 X-7.45 Y37.493 Z-0.123
N1325 X-7.454 Y37.521 Z-0.132
N1330 X-7.473 Y37.542 Z-0.141
N1335 X-7.499 Y37.55 Z-0.15
N1340 X-7.526 Y37.543 Z-0.159
N1345 X-7.545 Y37.522 Z-0.168
N1350 X-7.55 Y37.495 Z-0.177
N1355 X-7.539 Y37.469 Z-0.186
N1360 X-7.516 Y37.453 Z-0.195
N1365 X-7.488 Y37.451 Z-0.204
N1370 X-7.464 Y37.465 Z-0.213
N1375 X-7.451 Y37.49 Z-0.222
N1380 X-7.453 Y37.517 Z-0.231
N1385 X-7.47 Y37.54 Z-0.24
N1390 X-7.496 Y37.55 Z-0.249
N1395 X-7.523 Y37.544 Z-0.258
N1400 X-7.543 Y37.525 Z-0.267
N1405 X-7.55 Y37.498 Z-0.276
N1410 X-7.541 Y37.471 Z-0.285
N1415 X-7.519 Y37.454 Z-0.294
N1420 X-7.492 Y37.451 Z-0.303
N1425 X-7.467 Y37.463 Z-0.312
N1430 X-7.452 Y37.486 Z-0.321
N1435 Y37.514 Z-0.33
N1440 X-7.467 Y37.538 Z-0.339
N1445 X-7.493 Y37.549 Z-0.348
N1450 X-7.52 Y37.546 Z-0.357
N1455 X-7.542 Y37.528 Z-0.366
N1460 X-7.55 Y37.501 Z-0.375
N1465 X-7.543 Y37.474 Z-0.384
N1470 X-7.522 Y37.455 Z-0.393
N1475 X-7.495 Y37.45 Z-0.402
N1480 X-7.469 Y37.461 Z-0.411
N1485 X-7.453 Y37.483 Z-0.42
N1490 X-7.451 Y37.511 Z-0.429
N1495 X-7.465 Y37.536 Z-0.438
N1500 X-7.489 Y37.549 Z-0.447
N1505 X-7.517 Y37.547 Z-0.456
N1510 X-7.54 Y37.531 Z-0.465
N1515 X-7.55 Y37.505 Z-0.474
N1520 X-7.544 Y37.477 Z-0.483
N1525 X-7.525 Y37.457 Z-0.492
N1530 X-7.498 Y37.45 Z-0.501
N1535 X-7.472 Y37.459 Z-0.51
N1540 X-7.454 Y37.48 Z-0.519
N1545 X-7.451 Y37.508 Z-0.528
N1550 X-7.463 Y37.533 Z-0.537
N1555 X-7.486 Y37.548 Z-0.546
N1560 X-7.514 Z-0.554
N1565 X-7.537 Y37.533 Z-0.563
N1570 X-7.549 Y37.508 Z-0.572
N1575 X-7.546 Y37.48 Z-0.581
N1580 X-7.528 Y37.459 Z-0.59
N1585 X-7.502 Y37.45 Z-0.599
N1590 X-7.475 Y37.457 Z-0.608
N1595 X-7.456 Y37.477 Z-0.617
N1600 X-7.45 Y37.505 Z-0.626
N1605 X-7.46 Y37.531 Z-0.635
N1610 X-7.483 Y37.547 Z-0.644
N1615 X-7.511 Y37.549 Z-0.653
N1620 X-7.535 Y37.536 Z-0.662
N1625 X-7.549 Y37.511 Z-0.671
N1630 X-7.547 Y37.483 Z-0.68
N1635 X-7.531 Y37.461 Z-0.689
N1640 X-7.505 Y37.45 Z-0.698
N1645 X-7.478 Y37.455 Z-0.707
N1650 X-7.457 Y37.474 Z-0.716
N1655 X-7.45 Y37.501 Z-0.725
N1660 X-7.458 Y37.528 Z-0.734
N1665 X-7.48 Y37.546 Z-0.743
N1670 X-7.507 Y37.549 Z-0.752
N1675 X-7.533 Y37.538 Z-0.761
N1680 X-7.548 Y37.514 Z-0.77
N1685 Y37.486 Z-0.779
N1690 X-7.533 Y37.463 Z-0.788
N1695 X-7.508 Y37.451 Z-0.797
N1700 X-7.481 Y37.454 Z-0.806
N1705 X-7.459 Y37.471 Z-0.815
N1710 X-7.45 Y37.498 Z-0.824
N1715 X-7.457 Y37.525 Z-0.833
N1720 X-7.477 Y37.544 Z-0.842
N1725 X-7.504 Y37.55 Z-0.851
N1730 X-7.53 Y37.54 Z-0.86
N1735 X-7.547 Y37.517 Z-0.869
N1740 X-7.549 Y37.49 Z-0.878
N1745 X-7.536 Y37.465 Z-0.887
N1750 X-7.512 Y37.451 Z-0.896
N1755 X-7.484 Y37.453 Z-0.905
N1760 X-7.461 Y37.469 Z-0.914
N1765 X-7.45 Y37.495 Z-0.923
N1770 X-7.455 Y37.522 Z-0.932
N1775 X-7.474 Y37.543 Z-0.941
N1780 X-7.501 Y37.55 Z-0.95
N1785 X-7.527 Y37.542 Z-0.959
N1790 X-7.546 Y37.521 Z-0.968
N1795 X-7.55 Y37.493 Z-0.977
N1800 X-7.538 Y37.468 Z-0.986
N1805 X-7.515 Y37.452 Z-0.995
N1810 X-7.487 Z-1.004
N1815 X-7.463 Y37.466 Z-1.013
N1820 X-7.451 Y37.491 Z-1.022
N1825 X-7.454 Y37.519 Z-1.031
N1830 X-7.471 Y37.541 Z-1.04
N1835 X-7.498 Y37.55 Z-1.049
N1840 X-7.525 Y37.544 Z-1.058
N1845 X-7.544 Y37.524 Z-1.067
N1850 X-7.55 Y37.496 Z-1.076
N1855 X-7.54 Y37.47 Z-1.085
N1860 X-7.518 Y37.453 Z-1.094
N1865 X-7.49 Y37.451 Z-1.103
N1870 X-7.465 Y37.464 Z-1.112
N1875 X-7.451 Y37.488 Z-1.121
N1880 X-7.453 Y37.516 Z-1.13
N1885 X-7.469 Y37.539 Z-1.139
N1890 X-7.494 Y37.55 Z-1.148
N1895 X-7.522 Y37.545 Z-1.157
N1900 X-7.542 Y37.526 Z-1.166
N1905 X-7.55 Y37.5 Z-1.175
N1910 X-7.542 Y37.473 Z-1.184
N1915 X-7.521 Y37.455 Z-1.193
N1920 X-7.493 Y37.45 Z-1.202
N1925 X-7.468 Y37.462 Z-1.211
N1930 X-7.452 Y37.485 Z-1.22
N1935 Y37.513 Z-1.229
N1940 X-7.466 Y37.537 Z-1.238
N1945 X-7.491 Y37.549 Z-1.247
N1950 X-7.519 Y37.546 Z-1.256
N1955 X-7.541 Y37.529 Z-1.265
N1960 X-7.55 Y37.503 Z-1.274
N1965 X-7.544 Y37.476 Z-1.283
N1970 X-7.524 Y37.456 Z-1.292
N1975 X-7.497 Y37.45 Z-1.301
N1980 X-7.47 Y37.46 Z-1.31
N1985 X-7.453 Y37.482 Z-1.319
N1990 X-7.451 Y37.509 Z-1.328
N1995 X-7.464 Y37.534 Z-1.337
N2000 X-7.488 Y37.548 Z-1.346
N2005 X-7.516 Z-1.355
N2010 X-7.539 Y37.532 Z-1.364
N2015 X-7.55 Y37.506 Z-1.373
N2020 X-7.545 Y37.479 Z-1.382
N2025 X-7.527 Y37.458 Z-1.391
N2030 X-7.5 Y37.45 Z-1.4
N2035 G3 Y37.55 J0.05
N2040 Y37.45 J-0.05
N2045 G1 X-7.482 Y37.457
N2050 X-7.475 Y37.475
N2055 X-7.5 Y37.5
N2060 G0 Z2.3
N2065 Y141.452
N2070 Z2
N2075 G1 Z0.3 F50
N2080 X-7.525 Y141.427
N2085 X-7.518 Y141.409
N2090 X-7.5 Y141.402
N2095 X-7.473 Y141.41 Z0.291 F800
N2100 X-7.455 Y141.431 Z0.282
N2105 X-7.45 Y141.458 Z0.273
N2110 X-7.461 Y141.484 Z0.264
N2115 X-7.484 Y141.5 Z0.255
N2120 X-7.512 Z0.246
N2125 X-7.536 Y141.486 Z0.237
N2130 X-7.549 Y141.461 Z0.228
N2135 X-7.547 Y141.434 Z0.219
N2140 X-7.53 Y141.412 Z0.21
N2145 X-7.503 Y141.402 Z0.201
N2150 X-7.476 Y141.408 Z0.192
N2155 X-7.456 Y141.428 Z0.183
N2160 X-7.45 Y141.455 Z0.174
N2165 X-7.459 Y141.481 Z0.165
N2170 X-7.481 Y141.498 Z0.156
N2175 X-7.509 Y141.501 Z0.147
N2180 X-7.534 Y141.489 Z0.138
N2185 X-7.548 Y141.465 Z0.129
N2190 Y141.437 Z0.12
N2195 X-7.532 Y141.414 Z0.111
N2200 X-7.507 Y141.402 Z0.102
N2205 X-7.479 Y141.407 Z0.093
N2210 X-7.458 Y141.425 Z0.084
N2215 X-7.45 Y141.452 Z0.075
N2220 X-7.458 Y141.478 Z0.066
N2225 X-7.478 Y141.497 Z0.057
N2230 X-7.506 Y141.502 Z0.048
N2235 X-7.532 Y141.491 Z0.039
N2240 X-7.547 Y141.468 Z0.03
N2245 X-7.549 Y141.44 Z0.021
N2250 X-7.535 Y141.416 Z0.012
N2255 X-7.51 Y141.403 Z0.003
N2260 X-7.482 Y141.405 Z-0.006
N2265 X-7.46 Y141.422 Z-0.015
N2270 X-7.45 Y141.448 Z-0.024
N2275 X-7.456 Y141.476 Z-0.033
N2280 X-7.475 Y141.496 Z-0.042
N2285 X-7.502 Y141.502 Z-0.051
N2290 X-7.529 Y141.493 Z-0.06
N2295 X-7.546 Y141.471 Z-0.069
N2300 X-7.549 Y141.443 Z-0.078
N2305 X-7.537 Y141.418 Z-0.087
N2310 X-7.513 Y141.404 Z-0.096
N2315 X-7.485 Z-0.105
N2320 X-7.462 Y141.42 Z-0.114
N2325 X-7.45 Y141.445 Z-0.123
N2330 X-7.454 Y141.473 Z-0.132
N2335 X-7.473 Y141.494 Z-0.141
N2340 X-7.499 Y141.502 Z-0.15
N2345 X-7.526 Y141.495 Z-0.159
N2350 X-7.545 Y141.474 Z-0.168
N2355 X-7.55 Y141.447 Z-0.177
N2360 X-7.539 Y141.421 Z-0.186
N2365 X-7.516 Y141.405 Z-0.195
N2370 X-7.488 Y141.403 Z-0.204
N2375 X-7.464 Y141.417 Z-0.213
N2380 X-7.451 Y141.442 Z-0.222
N2385 X-7.453 Y141.469 Z-0.231
N2390 X-7.47 Y141.492 Z-0.24
N2395 X-7.496 Y141.502 Z-0.249
N2400 X-7.523 Y141.496 Z-0.258
N2405 X-7.543 Y141.477 Z-0.267
N2410 X-7.55 Y141.45 Z-0.276
N2415 X-7.541 Y141.423 Z-0.285
N2420 X-7.519 Y141.406 Z-0.294
N2425 X-7.492 Y141.403 Z-0.303
N2430 X-7.467 Y141.415 Z-0.312
N2435 X-7.452 Y141.438 Z-0.321
N2440 Y141.466 Z-0.33
N2445 X-7.467 Y141.49 Z-0.339
N2450 X-7.493 Y141.501 Z-0.348
N2455 X-7.52 Y141.498 Z-0.357
N2460 X-7.542 Y141.48 Z-0.366
N2465 X-7.55 Y141.453 Z-0.375
N2470 X-7.543 Y141.426 Z-0.384
N2475 X-7.522 Y141.407 Z-0.393
N2480 X-7.495 Y141.402 Z-0.402
N2485 X-7.469 Y141.413 Z-0.411
N2490 X-7.453 Y141.435 Z-0.42
N2495 X-7.451 Y141.463 Z-0.429
N2500 X-7.465 Y141.487 Z-0.438
N2505 X-7.489 Y141.501 Z-0.447
N2510 X-7.517 Y141.499 Z-0.456
N2515 X-7.54 Y141.483 Z-0.465
N2520 X-7.55 Y141.457 Z-0.474
N2525 X-7.544 Y141.429 Z-0.483
N2530 X-7.525 Y141.409 Z-0.492
N2535 X-7.498 Y141.402 Z-0.501
N2540 X-7.472 Y141.411 Z-0.51
N2545 X-7.454 Y141.432 Z-0.519
N2550 X-7.451 Y141.46 Z-0.528
N2555 X-7.463 Y141.485 Z-0.537
N2560 X-7.486 Y141.5 Z-0.546
N2565 X-7.514 Z-0.554
N2570 X-7.537 Y141.485 Z-0.563
N2575 X-7.549 Y141.46 Z-0.572
N2580 X-7.546 Y141.432 Z-0.581
N2585 X-7.528 Y141.411 Z-0.59
N2590 X-7.502 Y141.402 Z-0.599
N2595 X-7.475 Y141.409 Z-0.608
N2600 X-7.456 Y141.429 Z-0.617
N2605 X-7.45 Y141.457 Z-0.626
N2610 X-7.46 Y141.483 Z-0.635
N2615 X-7.483 Y141.499 Z-0.644
N2620 X-7.511 Y141.501 Z-0.653
N2625 X-7.535 Y141.487 Z-0.662
N2630 X-7.549 Y141.463 Z-0.671
N2635 X-7.547 Y141.435 Z-0.68
N2640 X-7.531 Y141.413 Z-0.689
N2645 X-7.505 Y141.402 Z-0.698
N2650 X-7.478 Y141.407 Z-0.707
N2655 X-7.457 Y141.426 Z-0.716
N2660 X-7.45 Y141.453 Z-0.725
N2665 X-7.458 Y141.48 Z-0.734
N2670 X-7.48 Y141.498 Z-0.743
N2675 X-7.507 Y141.501 Z-0.752
N2680 X-7.533 Y141.49 Z-0.761
N2685 X-7.548 Y141.466 Z-0.77
N2690 Y141.438 Z-0.779
N2695 X-7.533 Y141.415 Z-0.788
N2700 X-7.508 Y141.403 Z-0.797
N2705 X-7.481 Y141.406 Z-0.806
N2710 X-7.459 Y141.423 Z-0.815
N2715 X-7.45 Y141.45 Z-0.824
N2720 X-7.457 Y141.477 Z-0.833
N2725 X-7.477 Y141.496 Z-0.842
N2730 X-7.504 Y141.502 Z-0.851
N2735 X-7.53 Y141.492 Z-0.86
N2740 X-7.547 Y141.469 Z-0.869
N2745 X-7.549 Y141.442 Z-0.878
N2750 X-7.536 Y141.417 Z-0.887
N2755 X-7.512 Y141.403 Z-0.896
N2760 X-7.484 Y141.405 Z-0.905
N2765 X-7.461 Y141.421 Z-0.914
N2770 X-7.45 Y141.447 Z-0.923
N2775 X-7.455 Y141.474 Z-0.932
N2780 X-7.474 Y141.495 Z-0.941
N2785 X-7.501 Y141.502 Z-0.95
N2790 X-7.527 Y141.494 Z-0.959
N2795 X-7.546 Y141.473 Z-0.968
N2800 X-7.55 Y141.445 Z-0.977
N2805 X-7.538 Y141.42 Z-0.986
N2810 X-7.515 Y141.404 Z-0.995
N2815 X-7.487 Z-1.004
N2820 X-7.463 Y141.418 Z-1.013
N2825 X-7.451 Y141.443 Z-1.022
N2830 X-7.454 Y141.471 Z-1.031
N2835 X-7.471 Y141.493 Z-1.04
N2840 X-7.498 Y141.502 Z-1.049
N2845 X-7.525 Y141.496 Z-1.058
N2850 X-7.544 Y141.476 Z-1.067
N2855 X-7.55 Y141.448 Z-1.076
N2860 X-7.54 Y141.422 Z-1.085
N2865 X-7.518 Y141.405 Z-1.094
N2870 X-7.49 Y141.403 Z-1.103
N2875 X-7.465 Y141.416 Z-1.112
N2880 X-7.451 Y141.44 Z-1.121
N2885 X-7.453 Y141.468 Z-1.13
N2890 X-7.468 Y141.491 Z-1.139
N2895 X-7.494 Y141.502 Z-1.148
N2900 X-7.522 Y141.497 Z-1.157
N2905 X-7.542 Y141.478 Z-1.166
N2910 X-7.55 Y141.452 Z-1.175
N2915 X-7.542 Y141.425 Z-1.184
N2920 X-7.521 Y141.407 Z-1.193
N2925 X-7.493 Y141.402 Z-1.202
N2930 X-7.468 Y141.414 Z-1.211
N2935 X-7.452 Y141.437 Z-1.22
N2940 Y141.465 Z-1.229
N2945 X-7.466 Y141.489 Z-1.238
N2950 X-7.491 Y141.501 Z-1.247
N2955 X-7.519 Y141.498 Z-1.256
N2960 X-7.541 Y141.481 Z-1.265
N2965 X-7.55 Y141.455 Z-1.274
N2970 X-7.544 Y141.428 Z-1.283
N2975 X-7.524 Y141.408 Z-1.292
N2980 X-7.497 Y141.402 Z-1.301
N2985 X-7.47 Y141.412 Z-1.31
N2990 X-7.453 Y141.434 Z-1.319
N2995 X-7.451 Y141.461 Z-1.328
N3000 X-7.464 Y141.486 Z-1.337
N3005 X-7.488 Y141.5 Z-1.346
N3010 X-7.516 Z-1.355
N3015 X-7.539 Y141.484 Z-1.364
N3020 X-7.55 Y141.458 Z-1.373
N3025 X-7.545 Y141.431 Z-1.382
N3030 X-7.527 Y141.41 Z-1.391
N3035 X-7.5 Y141.402 Z-1.4
N3040 G3 Y141.502 J0.05
N3045 Y141.402 J-0.05
N3050 G1 X-7.482 Y141.409
N3055 X-7.475 Y141.427
N3060 X-7.5 Y141.452
N3065 G0 Z2.3
N3070 Y171.452
N3075 Z2
N3080 G1 Z0.3 F50
N3085 X-7.525 Y171.427
N3090 X-7.518 Y171.409
N3095 X-7.5 Y171.402
N3100 X-7.473 Y171.41 Z0.291 F800
N3105 X-7.455 Y171.431 Z0.282
N3110 X-7.45 Y171.458 Z0.273
N3115 X-7.461 Y171.484 Z0.264
N3120 X-7.484 Y171.5 Z0.255
N3125 X-7.512 Z0.246
N3130 X-7.536 Y171.486 Z0.237
N3135 X-7.549 Y171.461 Z0.228
N3140 X-7.547 Y171.434 Z0.219
N3145 X-7.53 Y171.412 Z0.21
N3150 X-7.503 Y171.402 Z0.201
N3155 X-7.476 Y171.408 Z0.192
N3160 X-7.456 Y171.428 Z0.183
N3165 X-7.45 Y171.455 Z0.174
N3170 X-7.459 Y171.481 Z0.165
N3175 X-7.481 Y171.498 Z0.156
N3180 X-7.509 Y171.501 Z0.147
N3185 X-7.534 Y171.489 Z0.138
N3190 X-7.548 Y171.465 Z0.129
N3195 Y171.437 Z0.12
N3200 X-7.532 Y171.414 Z0.111
N3205 X-7.507 Y171.402 Z0.102
N3210 X-7.479 Y171.407 Z0.093
N3215 X-7.458 Y171.425 Z0.084
N3220 X-7.45 Y171.452 Z0.075
N3225 X-7.458 Y171.478 Z0.066
N3230 X-7.478 Y171.497 Z0.057
N3235 X-7.506 Y171.502 Z0.048
N3240 X-7.532 Y171.491 Z0.039
N3245 X-7.547 Y171.468 Z0.03
N3250 X-7.549 Y171.44 Z0.021
N3255 X-7.535 Y171.416 Z0.012
N3260 X-7.51 Y171.403 Z0.003
N3265 X-7.482 Y171.405 Z-0.006
N3270 X-7.46 Y171.422 Z-0.015
N3275 X-7.45 Y171.448 Z-0.024
N3280 X-7.456 Y171.476 Z-0.033
N3285 X-7.475 Y171.496 Z-0.042
N3290 X-7.502 Y171.502 Z-0.051
N3295 X-7.529 Y171.493 Z-0.06
N3300 X-7.546 Y171.471 Z-0.069
N3305 X-7.549 Y171.443 Z-0.078
N3310 X-7.537 Y171.418 Z-0.087
N3315 X-7.513 Y171.404 Z-0.096
N3320 X-7.485 Z-0.105
N3325 X-7.462 Y171.42 Z-0.114
N3330 X-7.45 Y171.445 Z-0.123
N3335 X-7.454 Y171.473 Z-0.132
N3340 X-7.473 Y171.494 Z-0.141
N3345 X-7.499 Y171.502 Z-0.15
N3350 X-7.526 Y171.495 Z-0.159
N3355 X-7.545 Y171.474 Z-0.168
N3360 X-7.55 Y171.447 Z-0.177
N3365 X-7.539 Y171.421 Z-0.186
N3370 X-7.516 Y171.405 Z-0.195
N3375 X-7.488 Y171.403 Z-0.204
N3380 X-7.464 Y171.417 Z-0.213
N3385 X-7.451 Y171.442 Z-0.222
N3390 X-7.453 Y171.469 Z-0.231
N3395 X-7.47 Y171.492 Z-0.24
N3400 X-7.496 Y171.502 Z-0.249
N3405 X-7.523 Y171.496 Z-0.258
N3410 X-7.543 Y171.477 Z-0.267
N3415 X-7.55 Y171.45 Z-0.276
N3420 X-7.541 Y171.423 Z-0.285
N3425 X-7.519 Y171.406 Z-0.294
N3430 X-7.492 Y171.403 Z-0.303
N3435 X-7.467 Y171.415 Z-0.312
N3440 X-7.452 Y171.438 Z-0.321
N3445 Y171.466 Z-0.33
N3450 X-7.467 Y171.49 Z-0.339
N3455 X-7.493 Y171.501 Z-0.348
N3460 X-7.52 Y171.498 Z-0.357
N3465 X-7.542 Y171.48 Z-0.366
N3470 X-7.55 Y171.453 Z-0.375
N3475 X-7.543 Y171.426 Z-0.384
N3480 X-7.522 Y171.407 Z-0.393
N3485 X-7.495 Y171.402 Z-0.402
N3490 X-7.469 Y171.413 Z-0.411
N3495 X-7.453 Y171.435 Z-0.42
N3500 X-7.451 Y171.463 Z-0.429
N3505 X-7.465 Y171.487 Z-0.438
N3510 X-7.489 Y171.501 Z-0.447
N3515 X-7.517 Y171.499 Z-0.456
N3520 X-7.54 Y171.483 Z-0.465
N3525 X-7.55 Y171.457 Z-0.474
N3530 X-7.544 Y171.429 Z-0.483
N3535 X-7.525 Y171.409 Z-0.492
N3540 X-7.498 Y171.402 Z-0.501
N3545 X-7.472 Y171.411 Z-0.51
N3550 X-7.454 Y171.432 Z-0.519
N3555 X-7.451 Y171.46 Z-0.528
N3560 X-7.463 Y171.485 Z-0.537
N3565 X-7.486 Y171.5 Z-0.546
N3570 X-7.514 Z-0.554
N3575 X-7.537 Y171.485 Z-0.563
N3580 X-7.549 Y171.46 Z-0.572
N3585 X-7.546 Y171.432 Z-0.581
N3590 X-7.528 Y171.411 Z-0.59
N3595 X-7.502 Y171.402 Z-0.599
N3600 X-7.475 Y171.409 Z-0.608
N3605 X-7.456 Y171.429 Z-0.617
N3610 X-7.45 Y171.457 Z-0.626
N3615 X-7.46 Y171.483 Z-0.635
N3620 X-7.483 Y171.499 Z-0.644
N3625 X-7.511 Y171.501 Z-0.653
N3630 X-7.535 Y171.487 Z-0.662
N3635 X-7.549 Y171.463 Z-0.671
N3640 X-7.547 Y171.435 Z-0.68
N3645 X-7.531 Y171.413 Z-0.689
N3650 X-7.505 Y171.402 Z-0.698
N3655 X-7.478 Y171.407 Z-0.707
N3660 X-7.457 Y171.426 Z-0.716
N3665 X-7.45 Y171.453 Z-0.725
N3670 X-7.458 Y171.48 Z-0.734
N3675 X-7.48 Y171.498 Z-0.743
N3680 X-7.507 Y171.501 Z-0.752
N3685 X-7.533 Y171.49 Z-0.761
N3690 X-7.548 Y171.466 Z-0.77
N3695 Y171.438 Z-0.779
N3700 X-7.533 Y171.415 Z-0.788
N3705 X-7.508 Y171.403 Z-0.797
N3710 X-7.481 Y171.406 Z-0.806
N3715 X-7.459 Y171.423 Z-0.815
N3720 X-7.45 Y171.45 Z-0.824
N3725 X-7.457 Y171.477 Z-0.833
N3730 X-7.477 Y171.496 Z-0.842
N3735 X-7.504 Y171.502 Z-0.851
N3740 X-7.53 Y171.492 Z-0.86
N3745 X-7.547 Y171.469 Z-0.869
N3750 X-7.549 Y171.442 Z-0.878
N3755 X-7.536 Y171.417 Z-0.887
N3760 X-7.512 Y171.403 Z-0.896
N3765 X-7.484 Y171.405 Z-0.905
N3770 X-7.461 Y171.421 Z-0.914
N3775 X-7.45 Y171.447 Z-0.923
N3780 X-7.455 Y171.474 Z-0.932
N3785 X-7.474 Y171.495 Z-0.941
N3790 X-7.501 Y171.502 Z-0.95
N3795 X-7.527 Y171.494 Z-0.959
N3800 X-7.546 Y171.473 Z-0.968
N3805 X-7.55 Y171.445 Z-0.977
N3810 X-7.538 Y171.42 Z-0.986
N3815 X-7.515 Y171.404 Z-0.995
N3820 X-7.487 Z-1.004
N3825 X-7.463 Y171.418 Z-1.013
N3830 X-7.451 Y171.443 Z-1.022
N3835 X-7.454 Y171.471 Z-1.031
N3840 X-7.471 Y171.493 Z-1.04
N3845 X-7.498 Y171.502 Z-1.049
N3850 X-7.525 Y171.496 Z-1.058
N3855 X-7.544 Y171.476 Z-1.067
N3860 X-7.55 Y171.448 Z-1.076
N3865 X-7.54 Y171.422 Z-1.085
N3870 X-7.518 Y171.405 Z-1.094
N3875 X-7.49 Y171.403 Z-1.103
N3880 X-7.465 Y171.416 Z-1.112
N3885 X-7.451 Y171.44 Z-1.121
N3890 X-7.453 Y171.468 Z-1.13
N3895 X-7.468 Y171.491 Z-1.139
N3900 X-7.494 Y171.502 Z-1.148
N3905 X-7.522 Y171.497 Z-1.157
N3910 X-7.542 Y171.478 Z-1.166
N3915 X-7.55 Y171.452 Z-1.175
N3920 X-7.542 Y171.425 Z-1.184
N3925 X-7.521 Y171.407 Z-1.193
N3930 X-7.493 Y171.402 Z-1.202
N3935 X-7.468 Y171.414 Z-1.211
N3940 X-7.452 Y171.437 Z-1.22
N3945 Y171.465 Z-1.229
N3950 X-7.466 Y171.489 Z-1.238
N3955 X-7.491 Y171.501 Z-1.247
N3960 X-7.519 Y171.498 Z-1.256
N3965 X-7.541 Y171.481 Z-1.265
N3970 X-7.55 Y171.455 Z-1.274
N3975 X-7.544 Y171.428 Z-1.283
N3980 X-7.524 Y171.408 Z-1.292
N3985 X-7.497 Y171.402 Z-1.301
N3990 X-7.47 Y171.412 Z-1.31
N3995 X-7.453 Y171.434 Z-1.319
N4000 X-7.451 Y171.461 Z-1.328
N4005 X-7.464 Y171.486 Z-1.337
N4010 X-7.488 Y171.5 Z-1.346
N4015 X-7.516 Z-1.355
N4020 X-7.539 Y171.484 Z-1.364
N4025 X-7.55 Y171.458 Z-1.373
N4030 X-7.545 Y171.431 Z-1.382
N4035 X-7.527 Y171.41 Z-1.391
N4040 X-7.5 Y171.402 Z-1.4
N4045 G3 Y171.502 J0.05
N4050 Y171.402 J-0.05
N4055 G1 X-7.482 Y171.409
N4060 X-7.475 Y171.427
N4065 X-7.5 Y171.452
N4070 G0 Z2.3
N4075 M9
N4080 G28
N4085 M5
N4090 M30
%
