%
(1001)
(T1 D=9.525 CR=0 TAPER=118deg - ZMIN=-0.5 - center drill)
N10 G90 G94
N15 G17
N20 G21
N25 G28

(???1)
N30 T1 M6
N35 S20000 M3
N40 G54
N45 M8
N50 G0 X280 Y292.5
N55 G43 Z2.3
N60 G98 G81 X280 Y292.5 Z-0.5 R2.3 F30
N65 Y277.5
N70 Y262.5
N75 Y247.5
N80 Y232.5
N85 Y217.5
N90 Y202.5
N95 Y187.5
N100 Y172.5
N105 Y157.5
N110 Y142.5
N115 Y127.5
N120 Y112.5
N125 Y97.5
N130 Y82.5
N135 Y67.5
N140 Y52.5
N145 Y37.5
N150 Y22.5
N155 Y7.5
N160 X250
N165 Y22.5
N170 Y37.5
N175 Y52.5
N180 Y67.5
N185 Y82.5
N190 Y97.5
N195 Y112.5
N200 Y127.5
N205 Y142.5
N210 Y157.5
N215 Y172.5
N220 Y187.5
N225 Y202.5
N230 Y217.5
N235 Y232.5
N240 Y247.5
N245 Y262.5
N250 Y277.5
N255 Y292.5
N260 X220
N265 Y277.5
N270 Y262.5
N275 Y247.5
N280 Y232.5
N285 Y217.5
N290 Y202.5
N295 Y187.5
N300 Y172.5
N305 Y157.5
N310 Y142.5
N315 Y127.5
N320 Y112.5
N325 Y97.5
N330 Y82.5
N335 Y67.5
N340 Y52.5
N345 Y37.5
N350 Y22.5
N355 Y7.5
N360 X190
N365 Y22.5
N370 Y37.5
N375 Y52.5
N380 Y67.5
N385 Y82.5
N390 Y97.5
N395 Y112.5
N400 Y127.5
N405 Y142.5
N410 Y157.5
N415 Y172.5
N420 Y187.5
N425 Y202.5
N430 Y217.5
N435 Y232.5
N440 Y247.5
N445 Y262.5
N450 Y277.5
N455 Y292.5
N460 X160
N465 Y277.5
N470 Y262.5
N475 Y247.5
N480 Y232.5
N485 Y217.5
N490 Y202.5
N495 Y187.5
N500 Y172.5
N505 Y157.5
N510 Y142.5
N515 Y127.5
N520 Y112.5
N525 Y97.5
N530 Y82.5
N535 Y67.5
N540 Y52.5
N545 Y37.5
N550 Y22.5
N555 Y7.5
N560 X130
N565 Y22.5
N570 Y37.5
N575 Y52.5
N580 Y67.5
N585 Y82.5
N590 Y97.5
N595 Y112.5
N600 Y127.5
N605 Y142.5
N610 Y157.5
N615 Y172.5
N620 Y187.5
N625 Y202.5
N630 Y217.5
N635 Y232.5
N640 Y247.5
N645 Y262.5
N650 Y277.5
N655 Y292.5
N660 X100
N665 Y277.5
N670 Y262.5
N675 Y247.5
N680 Y232.5
N685 Y217.5
N690 Y202.5
N695 Y187.5
N700 Y172.5
N705 Y157.5
N710 Y142.5
N715 Y127.5
N720 Y112.5
N725 Y97.5
N730 Y82.5
N735 Y67.5
N740 Y52.5
N745 Y37.5
N750 Y22.5
N755 Y7.5
N760 X70
N765 Y22.5
N770 Y37.5
N775 Y52.5
N780 Y67.5
N785 Y82.5
N790 Y97.5
N795 Y112.5
N800 Y127.5
N805 Y142.5
N810 Y157.5
N815 Y172.5
N820 Y187.5
N825 Y202.5
N830 Y217.5
N835 Y232.5
N840 Y247.5
N845 Y262.5
N850 Y277.5
N855 Y292.5
N860 X40
N865 Y277.5
N870 Y262.5
N875 Y247.5
N880 Y232.5
N885 Y217.5
N890 Y202.5
N895 Y187.5
N900 Y172.5
N905 Y157.5
N910 Y142.5
N915 Y127.5
N920 Y112.5
N925 Y97.5
N930 Y82.5
N935 Y67.5
N940 Y52.5
N945 Y37.5
N950 Y22.5
N955 Y7.5
N960 X10
N965 Y22.5
N970 Y37.5
N975 Y52.5
N980 Y67.5
N985 Y82.5
N990 Y97.5
N995 Y112.5
N1000 Y127.5
N1005 Y142.5
N1010 Y157.5
N1015 Y172.5
N1020 Y187.5
N1025 Y202.5
N1030 Y217.5
N1035 Y232.5
N1040 Y247.5
N1045 Y262.5
N1050 Y277.5
N1055 Y292.5
N1060 G80
N1065 G0 Z2.3
N1070 M9
N1075 G28
N1080 M5
N1085 M30
%
