%
(1001)
(T3 D=3 CR=0 - ZMIN=-3.2 - flat end mill)
N10 G90 G94
N15 G17
N20 G21
N25 G28

(??4)
N30 T3 M6
N35 S20000 M3
N40 G54
N45 M8
N50 G0 X142.134 Y87.178
N55 G43 Z2.3
N60 Z1.8
N65 G1 Z0.1 F50
N70 G18 G3 X141.834 Z-0.2 I-0.3
N75 G1 X141.684
N80 G17 G3 X141.384 Y86.878 J-0.3
N85 X144.384 Z-0.25 I1.5 F800
N90 X141.384 Z-0.3 I-1.5
N95 X144.384 Z-0.35 I1.5
N100 X141.384 Z-0.4 I-1.5
N105 X144.384 Z-0.45 I1.5
N110 X141.384 Z-0.5 I-1.5
N115 X144.384 Z-0.55 I1.5
N120 X141.384 Z-0.6 I-1.5
N125 X144.384 Z-0.65 I1.5
N130 X141.384 Z-0.7 I-1.5
N135 X144.384 Z-0.75 I1.5
N140 X141.384 Z-0.8 I-1.5
N145 X144.384 Z-0.85 I1.5
N150 X141.384 Z-0.9 I-1.5
N155 X144.384 Z-0.95 I1.5
N160 X141.384 Z-1 I-1.5
N165 X144.384 Z-1.05 I1.5
N170 X141.384 Z-1.1 I-1.5
N175 X144.384 Z-1.15 I1.5
N180 X141.384 Z-1.2 I-1.5
N185 X144.384 Z-1.25 I1.5
N190 X141.384 Z-1.3 I-1.5
N195 X144.384 Z-1.35 I1.5
N200 X141.384 Z-1.4 I-1.5
N205 X144.384 Z-1.45 I1.5
N210 X141.384 Z-1.5 I-1.5
N215 X144.384 Z-1.55 I1.5
N220 X141.384 Z-1.6 I-1.5
N225 X144.384 Z-1.65 I1.5
N230 X141.384 Z-1.7 I-1.5
N235 X144.384 Z-1.75 I1.5
N240 X141.384 Z-1.8 I-1.5
N245 X144.384 Z-1.85 I1.5
N250 X141.384 Z-1.9 I-1.5
N255 X144.384 Z-1.95 I1.5
N260 X141.384 Z-2 I-1.5
N265 X144.384 Z-2.05 I1.5
N270 X141.384 Z-2.1 I-1.5
N275 X144.384 Z-2.15 I1.5
N280 X141.384 Z-2.2 I-1.5
N285 X144.384 Z-2.25 I1.5
N290 X141.384 Z-2.3 I-1.5
N295 X144.384 Z-2.35 I1.5
N300 X141.384 Z-2.4 I-1.5
N305 X144.384 Z-2.45 I1.5
N310 X141.384 Z-2.5 I-1.5
N315 X144.384 Z-2.55 I1.5
N320 X141.384 Z-2.6 I-1.5
N325 X144.384 Z-2.65 I1.5
N330 X141.384 Z-2.7 I-1.5
N335 X144.384 Z-2.75 I1.5
N340 X141.384 Z-2.8 I-1.5
N345 X144.384 Z-2.85 I1.5
N350 X141.384 Z-2.9 I-1.5
N355 X144.384 Z-2.95 I1.5
N360 X141.384 Z-3 I-1.5
N365 X144.384 Z-3.05 I1.5
N370 X141.384 Z-3.1 I-1.5
N375 X144.384 Z-3.15 I1.5
N380 X141.384 Z-3.2 I-1.5
N385 X144.384 I1.5
N390 X141.384 I-1.5
N395 X141.684 Y86.578 I0.3
N400 G1 X141.834
N405 G18 G2 X142.134 Z-2.9 K0.3
N410 G0 Z2.3
N415 X143.008 Y64.055
N420 Z1.8
N425 G1 Z0.1 F50
N430 G3 X142.708 Z-0.2 I-0.3
N435 G1 X142.558
N440 G17 G3 X142.258 Y63.755 J-0.3
N445 X145.258 Z-0.25 I1.5 F800
N450 X142.258 Z-0.3 I-1.5
N455 X145.258 Z-0.35 I1.5
N460 X142.258 Z-0.4 I-1.5
N465 X145.258 Z-0.45 I1.5
N470 X142.258 Z-0.5 I-1.5
N475 X145.258 Z-0.55 I1.5
N480 X142.258 Z-0.6 I-1.5
N485 X145.258 Z-0.65 I1.5
N490 X142.258 Z-0.7 I-1.5
N495 X145.258 Z-0.75 I1.5
N500 X142.258 Z-0.8 I-1.5
N505 X145.258 Z-0.85 I1.5
N510 X142.258 Z-0.9 I-1.5
N515 X145.258 Z-0.95 I1.5
N520 X142.258 Z-1 I-1.5
N525 X145.258 Z-1.05 I1.5
N530 X142.258 Z-1.1 I-1.5
N535 X145.258 Z-1.15 I1.5
N540 X142.258 Z-1.2 I-1.5
N545 X145.258 Z-1.25 I1.5
N550 X142.258 Z-1.3 I-1.5
N555 X145.258 Z-1.35 I1.5
N560 X142.258 Z-1.4 I-1.5
N565 X145.258 Z-1.45 I1.5
N570 X142.258 Z-1.5 I-1.5
N575 X145.258 Z-1.55 I1.5
N580 X142.258 Z-1.6 I-1.5
N585 X145.258 Z-1.65 I1.5
N590 X142.258 Z-1.7 I-1.5
N595 X145.258 Z-1.75 I1.5
N600 X142.258 Z-1.8 I-1.5
N605 X145.258 Z-1.85 I1.5
N610 X142.258 Z-1.9 I-1.5
N615 X145.258 Z-1.95 I1.5
N620 X142.258 Z-2 I-1.5
N625 X145.258 Z-2.05 I1.5
N630 X142.258 Z-2.1 I-1.5
N635 X145.258 Z-2.15 I1.5
N640 X142.258 Z-2.2 I-1.5
N645 X145.258 Z-2.25 I1.5
N650 X142.258 Z-2.3 I-1.5
N655 X145.258 Z-2.35 I1.5
N660 X142.258 Z-2.4 I-1.5
N665 X145.258 Z-2.45 I1.5
N670 X142.258 Z-2.5 I-1.5
N675 X145.258 Z-2.55 I1.5
N680 X142.258 Z-2.6 I-1.5
N685 X145.258 Z-2.65 I1.5
N690 X142.258 Z-2.7 I-1.5
N695 X145.258 Z-2.75 I1.5
N700 X142.258 Z-2.8 I-1.5
N705 X145.258 Z-2.85 I1.5
N710 X142.258 Z-2.9 I-1.5
N715 X145.258 Z-2.95 I1.5
N720 X142.258 Z-3 I-1.5
N725 X145.258 Z-3.05 I1.5
N730 X142.258 Z-3.1 I-1.5
N735 X145.258 Z-3.15 I1.5
N740 X142.258 Z-3.2 I-1.5
N745 X145.258 I1.5
N750 X142.258 I-1.5
N755 X142.558 Y63.455 I0.3
N760 G1 X142.708
N765 G18 G2 X143.008 Z-2.9 K0.3
N770 G0 Z2.3
N775 X109.066 Y35.941
N780 Z1.8
N785 G1 Z0.1 F50
N790 G3 X108.766 Z-0.2 I-0.3
N795 G1 X108.616
N800 G17 G3 X108.316 Y35.641 J-0.3
N805 X111.316 Z-0.25 I1.5 F800
N810 X108.316 Z-0.3 I-1.5
N815 X111.316 Z-0.35 I1.5
N820 X108.316 Z-0.4 I-1.5
N825 X111.316 Z-0.45 I1.5
N830 X108.316 Z-0.5 I-1.5
N835 X111.316 Z-0.55 I1.5
N840 X108.316 Z-0.6 I-1.5
N845 X111.316 Z-0.65 I1.5
N850 X108.316 Z-0.7 I-1.5
N855 X111.316 Z-0.75 I1.5
N860 X108.316 Z-0.8 I-1.5
N865 X111.316 Z-0.85 I1.5
N870 X108.316 Z-0.9 I-1.5
N875 X111.316 Z-0.95 I1.5
N880 X108.316 Z-1 I-1.5
N885 X111.316 Z-1.05 I1.5
N890 X108.316 Z-1.1 I-1.5
N895 X111.316 Z-1.15 I1.5
N900 X108.316 Z-1.2 I-1.5
N905 X111.316 Z-1.25 I1.5
N910 X108.316 Z-1.3 I-1.5
N915 X111.316 Z-1.35 I1.5
N920 X108.316 Z-1.4 I-1.5
N925 X111.316 Z-1.45 I1.5
N930 X108.316 Z-1.5 I-1.5
N935 X111.316 Z-1.55 I1.5
N940 X108.316 Z-1.6 I-1.5
N945 X111.316 Z-1.65 I1.5
N950 X108.316 Z-1.7 I-1.5
N955 X111.316 Z-1.75 I1.5
N960 X108.316 Z-1.8 I-1.5
N965 X111.316 Z-1.85 I1.5
N970 X108.316 Z-1.9 I-1.5
N975 X111.316 Z-1.95 I1.5
N980 X108.316 Z-2 I-1.5
N985 X111.316 Z-2.05 I1.5
N990 X108.316 Z-2.1 I-1.5
N995 X111.316 Z-2.15 I1.5
N1000 X108.316 Z-2.2 I-1.5
N1005 X111.316 Z-2.25 I1.5
N1010 X108.316 Z-2.3 I-1.5
N1015 X111.316 Z-2.35 I1.5
N1020 X108.316 Z-2.4 I-1.5
N1025 X111.316 Z-2.45 I1.5
N1030 X108.316 Z-2.5 I-1.5
N1035 X111.316 Z-2.55 I1.5
N1040 X108.316 Z-2.6 I-1.5
N1045 X111.316 Z-2.65 I1.5
N1050 X108.316 Z-2.7 I-1.5
N1055 X111.316 Z-2.75 I1.5
N1060 X108.316 Z-2.8 I-1.5
N1065 X111.316 Z-2.85 I1.5
N1070 X108.316 Z-2.9 I-1.5
N1075 X111.316 Z-2.95 I1.5
N1080 X108.316 Z-3 I-1.5
N1085 X111.316 Z-3.05 I1.5
N1090 X108.316 Z-3.1 I-1.5
N1095 X111.316 Z-3.15 I1.5
N1100 X108.316 Z-3.2 I-1.5
N1105 X111.316 I1.5
N1110 X108.316 I-1.5
N1115 X108.616 Y35.341 I0.3
N1120 G1 X108.766
N1125 G18 G2 X109.066 Z-2.9 K0.3
N1130 G0 Z2.3
N1135 X66.089 Y37.092
N1140 Z1.8
N1145 G1 Z0.1 F50
N1150 G3 X65.789 Z-0.2 I-0.3
N1155 G1 X65.639
N1160 G17 G3 X65.339 Y36.792 J-0.3
N1165 X68.339 Z-0.25 I1.5 F800
N1170 X65.339 Z-0.3 I-1.5
N1175 X68.339 Z-0.35 I1.5
N1180 X65.339 Z-0.4 I-1.5
N1185 X68.339 Z-0.45 I1.5
N1190 X65.339 Z-0.5 I-1.5
N1195 X68.339 Z-0.55 I1.5
N1200 X65.339 Z-0.6 I-1.5
N1205 X68.339 Z-0.65 I1.5
N1210 X65.339 Z-0.7 I-1.5
N1215 X68.339 Z-0.75 I1.5
N1220 X65.339 Z-0.8 I-1.5
N1225 X68.339 Z-0.85 I1.5
N1230 X65.339 Z-0.9 I-1.5
N1235 X68.339 Z-0.95 I1.5
N1240 X65.339 Z-1 I-1.5
N1245 X68.339 Z-1.05 I1.5
N1250 X65.339 Z-1.1 I-1.5
N1255 X68.339 Z-1.15 I1.5
N1260 X65.339 Z-1.2 I-1.5
N1265 X68.339 Z-1.25 I1.5
N1270 X65.339 Z-1.3 I-1.5
N1275 X68.339 Z-1.35 I1.5
N1280 X65.339 Z-1.4 I-1.5
N1285 X68.339 Z-1.45 I1.5
N1290 X65.339 Z-1.5 I-1.5
N1295 X68.339 Z-1.55 I1.5
N1300 X65.339 Z-1.6 I-1.5
N1305 X68.339 Z-1.65 I1.5
N1310 X65.339 Z-1.7 I-1.5
N1315 X68.339 Z-1.75 I1.5
N1320 X65.339 Z-1.8 I-1.5
N1325 X68.339 Z-1.85 I1.5
N1330 X65.339 Z-1.9 I-1.5
N1335 X68.339 Z-1.95 I1.5
N1340 X65.339 Z-2 I-1.5
N1345 X68.339 Z-2.05 I1.5
N1350 X65.339 Z-2.1 I-1.5
N1355 X68.339 Z-2.15 I1.5
N1360 X65.339 Z-2.2 I-1.5
N1365 X68.339 Z-2.25 I1.5
N1370 X65.339 Z-2.3 I-1.5
N1375 X68.339 Z-2.35 I1.5
N1380 X65.339 Z-2.4 I-1.5
N1385 X68.339 Z-2.45 I1.5
N1390 X65.339 Z-2.5 I-1.5
N1395 X68.339 Z-2.55 I1.5
N1400 X65.339 Z-2.6 I-1.5
N1405 X68.339 Z-2.65 I1.5
N1410 X65.339 Z-2.7 I-1.5
N1415 X68.339 Z-2.75 I1.5
N1420 X65.339 Z-2.8 I-1.5
N1425 X68.339 Z-2.85 I1.5
N1430 X65.339 Z-2.9 I-1.5
N1435 X68.339 Z-2.95 I1.5
N1440 X65.339 Z-3 I-1.5
N1445 X68.339 Z-3.05 I1.5
N1450 X65.339 Z-3.1 I-1.5
N1455 X68.339 Z-3.15 I1.5
N1460 X65.339 Z-3.2 I-1.5
N1465 X68.339 I1.5
N1470 X65.339 I-1.5
N1475 X65.639 Y36.492 I0.3
N1480 G1 X65.789
N1485 G18 G2 X66.089 Z-2.9 K0.3
N1490 G0 Z2.3
N1495 X36.366 Y67.299
N1500 Z1.8
N1505 G1 Z0.1 F50
N1510 G3 X36.066 Z-0.2 I-0.3
N1515 G1 X35.916
N1520 G17 G3 X35.616 Y66.999 J-0.3
N1525 X38.616 Z-0.25 I1.5 F800
N1530 X35.616 Z-0.3 I-1.5
N1535 X38.616 Z-0.35 I1.5
N1540 X35.616 Z-0.4 I-1.5
N1545 X38.616 Z-0.45 I1.5
N1550 X35.616 Z-0.5 I-1.5
N1555 X38.616 Z-0.55 I1.5
N1560 X35.616 Z-0.6 I-1.5
N1565 X38.616 Z-0.65 I1.5
N1570 X35.616 Z-0.7 I-1.5
N1575 X38.616 Z-0.75 I1.5
N1580 X35.616 Z-0.8 I-1.5
N1585 X38.616 Z-0.85 I1.5
N1590 X35.616 Z-0.9 I-1.5
N1595 X38.616 Z-0.95 I1.5
N1600 X35.616 Z-1 I-1.5
N1605 X38.616 Z-1.05 I1.5
N1610 X35.616 Z-1.1 I-1.5
N1615 X38.616 Z-1.15 I1.5
N1620 X35.616 Z-1.2 I-1.5
N1625 X38.616 Z-1.25 I1.5
N1630 X35.616 Z-1.3 I-1.5
N1635 X38.616 Z-1.35 I1.5
N1640 X35.616 Z-1.4 I-1.5
N1645 X38.616 Z-1.45 I1.5
N1650 X35.616 Z-1.5 I-1.5
N1655 X38.616 Z-1.55 I1.5
N1660 X35.616 Z-1.6 I-1.5
N1665 X38.616 Z-1.65 I1.5
N1670 X35.616 Z-1.7 I-1.5
N1675 X38.616 Z-1.75 I1.5
N1680 X35.616 Z-1.8 I-1.5
N1685 X38.616 Z-1.85 I1.5
N1690 X35.616 Z-1.9 I-1.5
N1695 X38.616 Z-1.95 I1.5
N1700 X35.616 Z-2 I-1.5
N1705 X38.616 Z-2.05 I1.5
N1710 X35.616 Z-2.1 I-1.5
N1715 X38.616 Z-2.15 I1.5
N1720 X35.616 Z-2.2 I-1.5
N1725 X38.616 Z-2.25 I1.5
N1730 X35.616 Z-2.3 I-1.5
N1735 X38.616 Z-2.35 I1.5
N1740 X35.616 Z-2.4 I-1.5
N1745 X38.616 Z-2.45 I1.5
N1750 X35.616 Z-2.5 I-1.5
N1755 X38.616 Z-2.55 I1.5
N1760 X35.616 Z-2.6 I-1.5
N1765 X38.616 Z-2.65 I1.5
N1770 X35.616 Z-2.7 I-1.5
N1775 X38.616 Z-2.75 I1.5
N1780 X35.616 Z-2.8 I-1.5
N1785 X38.616 Z-2.85 I1.5
N1790 X35.616 Z-2.9 I-1.5
N1795 X38.616 Z-2.95 I1.5
N1800 X35.616 Z-3 I-1.5
N1805 X38.616 Z-3.05 I1.5
N1810 X35.616 Z-3.1 I-1.5
N1815 X38.616 Z-3.15 I1.5
N1820 X35.616 Z-3.2 I-1.5
N1825 X38.616 I1.5
N1830 X35.616 I-1.5
N1835 X35.916 Y66.699 I0.3
N1840 G1 X36.066
N1845 G18 G2 X36.366 Z-2.9 K0.3
N1850 G0 Z2.3
N1855 X35.483 Y89.731
N1860 Z1.8
N1865 G1 Z0.1 F50
N1870 G3 X35.183 Z-0.2 I-0.3
N1875 G1 X35.033
N1880 G17 G3 X34.733 Y89.431 J-0.3
N1885 X37.733 Z-0.25 I1.5 F800
N1890 X34.733 Z-0.3 I-1.5
N1895 X37.733 Z-0.35 I1.5
N1900 X34.733 Z-0.4 I-1.5
N1905 X37.733 Z-0.45 I1.5
N1910 X34.733 Z-0.5 I-1.5
N1915 X37.733 Z-0.55 I1.5
N1920 X34.733 Z-0.6 I-1.5
N1925 X37.733 Z-0.65 I1.5
N1930 X34.733 Z-0.7 I-1.5
N1935 X37.733 Z-0.75 I1.5
N1940 X34.733 Z-0.8 I-1.5
N1945 X37.733 Z-0.85 I1.5
N1950 X34.733 Z-0.9 I-1.5
N1955 X37.733 Z-0.95 I1.5
N1960 X34.733 Z-1 I-1.5
N1965 X37.733 Z-1.05 I1.5
N1970 X34.733 Z-1.1 I-1.5
N1975 X37.733 Z-1.15 I1.5
N1980 X34.733 Z-1.2 I-1.5
N1985 X37.733 Z-1.25 I1.5
N1990 X34.733 Z-1.3 I-1.5
N1995 X37.733 Z-1.35 I1.5
N2000 X34.733 Z-1.4 I-1.5
N2005 X37.733 Z-1.45 I1.5
N2010 X34.733 Z-1.5 I-1.5
N2015 X37.733 Z-1.55 I1.5
N2020 X34.733 Z-1.6 I-1.5
N2025 X37.733 Z-1.65 I1.5
N2030 X34.733 Z-1.7 I-1.5
N2035 X37.733 Z-1.75 I1.5
N2040 X34.733 Z-1.8 I-1.5
N2045 X37.733 Z-1.85 I1.5
N2050 X34.733 Z-1.9 I-1.5
N2055 X37.733 Z-1.95 I1.5
N2060 X34.733 Z-2 I-1.5
N2065 X37.733 Z-2.05 I1.5
N2070 X34.733 Z-2.1 I-1.5
N2075 X37.733 Z-2.15 I1.5
N2080 X34.733 Z-2.2 I-1.5
N2085 X37.733 Z-2.25 I1.5
N2090 X34.733 Z-2.3 I-1.5
N2095 X37.733 Z-2.35 I1.5
N2100 X34.733 Z-2.4 I-1.5
N2105 X37.733 Z-2.45 I1.5
N2110 X34.733 Z-2.5 I-1.5
N2115 X37.733 Z-2.55 I1.5
N2120 X34.733 Z-2.6 I-1.5
N2125 X37.733 Z-2.65 I1.5
N2130 X34.733 Z-2.7 I-1.5
N2135 X37.733 Z-2.75 I1.5
N2140 X34.733 Z-2.8 I-1.5
N2145 X37.733 Z-2.85 I1.5
N2150 X34.733 Z-2.9 I-1.5
N2155 X37.733 Z-2.95 I1.5
N2160 X34.733 Z-3 I-1.5
N2165 X37.733 Z-3.05 I1.5
N2170 X34.733 Z-3.1 I-1.5
N2175 X37.733 Z-3.15 I1.5
N2180 X34.733 Z-3.2 I-1.5
N2185 X37.733 I1.5
N2190 X34.733 I-1.5
N2195 X35.033 Y89.131 I0.3
N2200 G1 X35.183
N2205 G18 G2 X35.483 Z-2.9 K0.3
N2210 G0 Z2.3
N2215 X66.318 Y117.975
N2220 Z1.8
N2225 G1 Z0.1 F50
N2230 G3 X66.018 Z-0.2 I-0.3
N2235 G1 X65.868
N2240 G17 G3 X65.568 Y117.675 J-0.3
N2245 X68.568 Z-0.25 I1.5 F800
N2250 X65.568 Z-0.3 I-1.5
N2255 X68.568 Z-0.35 I1.5
N2260 X65.568 Z-0.4 I-1.5
N2265 X68.568 Z-0.45 I1.5
N2270 X65.568 Z-0.5 I-1.5
N2275 X68.568 Z-0.55 I1.5
N2280 X65.568 Z-0.6 I-1.5
N2285 X68.568 Z-0.65 I1.5
N2290 X65.568 Z-0.7 I-1.5
N2295 X68.568 Z-0.75 I1.5
N2300 X65.568 Z-0.8 I-1.5
N2305 X68.568 Z-0.85 I1.5
N2310 X65.568 Z-0.9 I-1.5
N2315 X68.568 Z-0.95 I1.5
N2320 X65.568 Z-1 I-1.5
N2325 X68.568 Z-1.05 I1.5
N2330 X65.568 Z-1.1 I-1.5
N2335 X68.568 Z-1.15 I1.5
N2340 X65.568 Z-1.2 I-1.5
N2345 X68.568 Z-1.25 I1.5
N2350 X65.568 Z-1.3 I-1.5
N2355 X68.568 Z-1.35 I1.5
N2360 X65.568 Z-1.4 I-1.5
N2365 X68.568 Z-1.45 I1.5
N2370 X65.568 Z-1.5 I-1.5
N2375 X68.568 Z-1.55 I1.5
N2380 X65.568 Z-1.6 I-1.5
N2385 X68.568 Z-1.65 I1.5
N2390 X65.568 Z-1.7 I-1.5
N2395 X68.568 Z-1.75 I1.5
N2400 X65.568 Z-1.8 I-1.5
N2405 X68.568 Z-1.85 I1.5
N2410 X65.568 Z-1.9 I-1.5
N2415 X68.568 Z-1.95 I1.5
N2420 X65.568 Z-2 I-1.5
N2425 X68.568 Z-2.05 I1.5
N2430 X65.568 Z-2.1 I-1.5
N2435 X68.568 Z-2.15 I1.5
N2440 X65.568 Z-2.2 I-1.5
N2445 X68.568 Z-2.25 I1.5
N2450 X65.568 Z-2.3 I-1.5
N2455 X68.568 Z-2.35 I1.5
N2460 X65.568 Z-2.4 I-1.5
N2465 X68.568 Z-2.45 I1.5
N2470 X65.568 Z-2.5 I-1.5
N2475 X68.568 Z-2.55 I1.5
N2480 X65.568 Z-2.6 I-1.5
N2485 X68.568 Z-2.65 I1.5
N2490 X65.568 Z-2.7 I-1.5
N2495 X68.568 Z-2.75 I1.5
N2500 X65.568 Z-2.8 I-1.5
N2505 X68.568 Z-2.85 I1.5
N2510 X65.568 Z-2.9 I-1.5
N2515 X68.568 Z-2.95 I1.5
N2520 X65.568 Z-3 I-1.5
N2525 X68.568 Z-3.05 I1.5
N2530 X65.568 Z-3.1 I-1.5
N2535 X68.568 Z-3.15 I1.5
N2540 X65.568 Z-3.2 I-1.5
N2545 X68.568 I1.5
N2550 X65.568 I-1.5
N2555 X65.868 Y117.375 I0.3
N2560 G1 X66.018
N2565 G18 G2 X66.318 Z-2.9 K0.3
N2570 G0 Z2.3
N2575 X109.784 Y118.18
N2580 Z1.8
N2585 G1 Z0.1 F50
N2590 G3 X109.484 Z-0.2 I-0.3
N2595 G1 X109.334
N2600 G17 G3 X109.034 Y117.88 J-0.3
N2605 X112.034 Z-0.25 I1.5 F800
N2610 X109.034 Z-0.3 I-1.5
N2615 X112.034 Z-0.35 I1.5
N2620 X109.034 Z-0.4 I-1.5
N2625 X112.034 Z-0.45 I1.5
N2630 X109.034 Z-0.5 I-1.5
N2635 X112.034 Z-0.55 I1.5
N2640 X109.034 Z-0.6 I-1.5
N2645 X112.034 Z-0.65 I1.5
N2650 X109.034 Z-0.7 I-1.5
N2655 X112.034 Z-0.75 I1.5
N2660 X109.034 Z-0.8 I-1.5
N2665 X112.034 Z-0.85 I1.5
N2670 X109.034 Z-0.9 I-1.5
N2675 X112.034 Z-0.95 I1.5
N2680 X109.034 Z-1 I-1.5
N2685 X112.034 Z-1.05 I1.5
N2690 X109.034 Z-1.1 I-1.5
N2695 X112.034 Z-1.15 I1.5
N2700 X109.034 Z-1.2 I-1.5
N2705 X112.034 Z-1.25 I1.5
N2710 X109.034 Z-1.3 I-1.5
N2715 X112.034 Z-1.35 I1.5
N2720 X109.034 Z-1.4 I-1.5
N2725 X112.034 Z-1.45 I1.5
N2730 X109.034 Z-1.5 I-1.5
N2735 X112.034 Z-1.55 I1.5
N2740 X109.034 Z-1.6 I-1.5
N2745 X112.034 Z-1.65 I1.5
N2750 X109.034 Z-1.7 I-1.5
N2755 X112.034 Z-1.75 I1.5
N2760 X109.034 Z-1.8 I-1.5
N2765 X112.034 Z-1.85 I1.5
N2770 X109.034 Z-1.9 I-1.5
N2775 X112.034 Z-1.95 I1.5
N2780 X109.034 Z-2 I-1.5
N2785 X112.034 Z-2.05 I1.5
N2790 X109.034 Z-2.1 I-1.5
N2795 X112.034 Z-2.15 I1.5
N2800 X109.034 Z-2.2 I-1.5
N2805 X112.034 Z-2.25 I1.5
N2810 X109.034 Z-2.3 I-1.5
N2815 X112.034 Z-2.35 I1.5
N2820 X109.034 Z-2.4 I-1.5
N2825 X112.034 Z-2.45 I1.5
N2830 X109.034 Z-2.5 I-1.5
N2835 X112.034 Z-2.55 I1.5
N2840 X109.034 Z-2.6 I-1.5
N2845 X112.034 Z-2.65 I1.5
N2850 X109.034 Z-2.7 I-1.5
N2855 X112.034 Z-2.75 I1.5
N2860 X109.034 Z-2.8 I-1.5
N2865 X112.034 Z-2.85 I1.5
N2870 X109.034 Z-2.9 I-1.5
N2875 X112.034 Z-2.95 I1.5
N2880 X109.034 Z-3 I-1.5
N2885 X112.034 Z-3.05 I1.5
N2890 X109.034 Z-3.1 I-1.5
N2895 X112.034 Z-3.15 I1.5
N2900 X109.034 Z-3.2 I-1.5
N2905 X112.034 I1.5
N2910 X109.034 I-1.5
N2915 X109.334 Y117.58 I0.3
N2920 G1 X109.484
N2925 G18 G2 X109.784 Z-2.9 K0.3
N2930 G0 Z2.3
N2935 X60.078 Y239.335
N2940 G1 Z0.6 F50
N2945 G19 G2 Y239.035 Z0.3 J-0.3
N2950 G1 Y238.885
N2955 G17 G3 X60.378 Y238.585 I0.3
N2960 Y241.585 Z0.25 J1.5 F800
N2965 Y238.585 Z0.2 J-1.5
N2970 Y241.585 Z0.15 J1.5
N2975 Y238.585 Z0.1 J-1.5
N2980 Y241.585 Z0.05 J1.5
N2985 Y238.585 Z0 J-1.5
N2990 Y241.585 Z-0.05 J1.5
N2995 Y238.585 Z-0.1 J-1.5
N3000 Y241.585 Z-0.15 J1.5
N3005 Y238.585 Z-0.2 J-1.5
N3010 Y241.585 Z-0.25 J1.5
N3015 Y238.585 Z-0.3 J-1.5
N3020 Y241.585 Z-0.35 J1.5
N3025 Y238.585 Z-0.4 J-1.5
N3030 Y241.585 Z-0.45 J1.5
N3035 Y238.585 Z-0.5 J-1.5
N3040 Y241.585 Z-0.55 J1.5
N3045 Y238.585 Z-0.6 J-1.5
N3050 Y241.585 Z-0.65 J1.5
N3055 Y238.585 Z-0.7 J-1.5
N3060 Y241.585 Z-0.75 J1.5
N3065 Y238.585 Z-0.8 J-1.5
N3070 Y241.585 Z-0.85 J1.5
N3075 Y238.585 Z-0.9 J-1.5
N3080 Y241.585 Z-0.95 J1.5
N3085 Y238.585 Z-1 J-1.5
N3090 Y241.585 Z-1.05 J1.5
N3095 Y238.585 Z-1.1 J-1.5
N3100 Y241.585 Z-1.15 J1.5
N3105 Y238.585 Z-1.2 J-1.5
N3110 Y241.585 Z-1.25 J1.5
N3115 Y238.585 Z-1.3 J-1.5
N3120 Y241.585 Z-1.35 J1.5
N3125 Y238.585 Z-1.4 J-1.5
N3130 Y241.585 Z-1.45 J1.5
N3135 Y238.585 Z-1.5 J-1.5
N3140 Y241.585 Z-1.55 J1.5
N3145 Y238.585 Z-1.6 J-1.5
N3150 Y241.585 Z-1.65 J1.5
N3155 Y238.585 Z-1.7 J-1.5
N3160 Y241.585 Z-1.75 J1.5
N3165 Y238.585 Z-1.8 J-1.5
N3170 Y241.585 Z-1.85 J1.5
N3175 Y238.585 Z-1.9 J-1.5
N3180 Y241.585 Z-1.95 J1.5
N3185 Y238.585 Z-2 J-1.5
N3190 Y241.585 Z-2.05 J1.5
N3195 Y238.585 Z-2.1 J-1.5
N3200 Y241.585 Z-2.15 J1.5
N3205 Y238.585 Z-2.2 J-1.5
N3210 Y241.585 J1.5
N3215 Y238.585 J-1.5
N3220 X60.678 Y238.885 J0.3
N3225 G1 Y239.035
N3230 G19 G3 Y239.335 Z-1.9 K0.3
N3235 G0 Z2.3
N3240 X72.578 Y217.684
N3245 G1 Z0.6 F50
N3250 G2 Y217.384 Z0.3 J-0.3
N3255 G1 Y217.234
N3260 G17 G3 X72.878 Y216.934 I0.3
N3265 Y219.934 Z0.25 J1.5 F800
N3270 Y216.934 Z0.2 J-1.5
N3275 Y219.934 Z0.15 J1.5
N3280 Y216.934 Z0.1 J-1.5
N3285 Y219.934 Z0.05 J1.5
N3290 Y216.934 Z0 J-1.5
N3295 Y219.934 Z-0.05 J1.5
N3300 Y216.934 Z-0.1 J-1.5
N3305 Y219.934 Z-0.15 J1.5
N3310 Y216.934 Z-0.2 J-1.5
N3315 Y219.934 Z-0.25 J1.5
N3320 Y216.934 Z-0.3 J-1.5
N3325 Y219.934 Z-0.35 J1.5
N3330 Y216.934 Z-0.4 J-1.5
N3335 Y219.934 Z-0.45 J1.5
N3340 Y216.934 Z-0.5 J-1.5
N3345 Y219.934 Z-0.55 J1.5
N3350 Y216.934 Z-0.6 J-1.5
N3355 Y219.934 Z-0.65 J1.5
N3360 Y216.934 Z-0.7 J-1.5
N3365 Y219.934 Z-0.75 J1.5
N3370 Y216.934 Z-0.8 J-1.5
N3375 Y219.934 Z-0.85 J1.5
N3380 Y216.934 Z-0.9 J-1.5
N3385 Y219.934 Z-0.95 J1.5
N3390 Y216.934 Z-1 J-1.5
N3395 Y219.934 Z-1.05 J1.5
N3400 Y216.934 Z-1.1 J-1.5
N3405 Y219.934 Z-1.15 J1.5
N3410 Y216.934 Z-1.2 J-1.5
N3415 Y219.934 Z-1.25 J1.5
N3420 Y216.934 Z-1.3 J-1.5
N3425 Y219.934 Z-1.35 J1.5
N3430 Y216.934 Z-1.4 J-1.5
N3435 Y219.934 Z-1.45 J1.5
N3440 Y216.934 Z-1.5 J-1.5
N3445 Y219.934 Z-1.55 J1.5
N3450 Y216.934 Z-1.6 J-1.5
N3455 Y219.934 Z-1.65 J1.5
N3460 Y216.934 Z-1.7 J-1.5
N3465 Y219.934 Z-1.75 J1.5
N3470 Y216.934 Z-1.8 J-1.5
N3475 Y219.934 Z-1.85 J1.5
N3480 Y216.934 Z-1.9 J-1.5
N3485 Y219.934 Z-1.95 J1.5
N3490 Y216.934 Z-2 J-1.5
N3495 Y219.934 Z-2.05 J1.5
N3500 Y216.934 Z-2.1 J-1.5
N3505 Y219.934 Z-2.15 J1.5
N3510 Y216.934 Z-2.2 J-1.5
N3515 Y219.934 J1.5
N3520 Y216.934 J-1.5
N3525 X73.178 Y217.234 J0.3
N3530 G1 Y217.384
N3535 G19 G3 Y217.684 Z-1.9 K0.3
N3540 G0 Z2.3
N3545 X97.578
N3550 G1 Z0.6 F50
N3555 G2 Y217.384 Z0.3 J-0.3
N3560 G1 Y217.234
N3565 G17 G3 X97.878 Y216.934 I0.3
N3570 Y219.934 Z0.25 J1.5 F800
N3575 Y216.934 Z0.2 J-1.5
N3580 Y219.934 Z0.15 J1.5
N3585 Y216.934 Z0.1 J-1.5
N3590 Y219.934 Z0.05 J1.5
N3595 Y216.934 Z0 J-1.5
N3600 Y219.934 Z-0.05 J1.5
N3605 Y216.934 Z-0.1 J-1.5
N3610 Y219.934 Z-0.15 J1.5
N3615 Y216.934 Z-0.2 J-1.5
N3620 Y219.934 Z-0.25 J1.5
N3625 Y216.934 Z-0.3 J-1.5
N3630 Y219.934 Z-0.35 J1.5
N3635 Y216.934 Z-0.4 J-1.5
N3640 Y219.934 Z-0.45 J1.5
N3645 Y216.934 Z-0.5 J-1.5
N3650 Y219.934 Z-0.55 J1.5
N3655 Y216.934 Z-0.6 J-1.5
N3660 Y219.934 Z-0.65 J1.5
N3665 Y216.934 Z-0.7 J-1.5
N3670 Y219.934 Z-0.75 J1.5
N3675 Y216.934 Z-0.8 J-1.5
N3680 Y219.934 Z-0.85 J1.5
N3685 Y216.934 Z-0.9 J-1.5
N3690 Y219.934 Z-0.95 J1.5
N3695 Y216.934 Z-1 J-1.5
N3700 Y219.934 Z-1.05 J1.5
N3705 Y216.934 Z-1.1 J-1.5
N3710 Y219.934 Z-1.15 J1.5
N3715 Y216.934 Z-1.2 J-1.5
N3720 Y219.934 Z-1.25 J1.5
N3725 Y216.934 Z-1.3 J-1.5
N3730 Y219.934 Z-1.35 J1.5
N3735 Y216.934 Z-1.4 J-1.5
N3740 Y219.934 Z-1.45 J1.5
N3745 Y216.934 Z-1.5 J-1.5
N3750 Y219.934 Z-1.55 J1.5
N3755 Y216.934 Z-1.6 J-1.5
N3760 Y219.934 Z-1.65 J1.5
N3765 Y216.934 Z-1.7 J-1.5
N3770 Y219.934 Z-1.75 J1.5
N3775 Y216.934 Z-1.8 J-1.5
N3780 Y219.934 Z-1.85 J1.5
N3785 Y216.934 Z-1.9 J-1.5
N3790 Y219.934 Z-1.95 J1.5
N3795 Y216.934 Z-2 J-1.5
N3800 Y219.934 Z-2.05 J1.5
N3805 Y216.934 Z-2.1 J-1.5
N3810 Y219.934 Z-2.15 J1.5
N3815 Y216.934 Z-2.2 J-1.5
N3820 Y219.934 J1.5
N3825 Y216.934 J-1.5
N3830 X98.178 Y217.234 J0.3
N3835 G1 Y217.384
N3840 G19 G3 Y217.684 Z-1.9 K0.3
N3845 G0 Z2.3
N3850 X110.078 Y239.335
N3855 G1 Z0.6 F50
N3860 G2 Y239.035 Z0.3 J-0.3
N3865 G1 Y238.885
N3870 G17 G3 X110.378 Y238.585 I0.3
N3875 Y241.585 Z0.25 J1.5 F800
N3880 Y238.585 Z0.2 J-1.5
N3885 Y241.585 Z0.15 J1.5
N3890 Y238.585 Z0.1 J-1.5
N3895 Y241.585 Z0.05 J1.5
N3900 Y238.585 Z0 J-1.5
N3905 Y241.585 Z-0.05 J1.5
N3910 Y238.585 Z-0.1 J-1.5
N3915 Y241.585 Z-0.15 J1.5
N3920 Y238.585 Z-0.2 J-1.5
N3925 Y241.585 Z-0.25 J1.5
N3930 Y238.585 Z-0.3 J-1.5
N3935 Y241.585 Z-0.35 J1.5
N3940 Y238.585 Z-0.4 J-1.5
N3945 Y241.585 Z-0.45 J1.5
N3950 Y238.585 Z-0.5 J-1.5
N3955 Y241.585 Z-0.55 J1.5
N3960 Y238.585 Z-0.6 J-1.5
N3965 Y241.585 Z-0.65 J1.5
N3970 Y238.585 Z-0.7 J-1.5
N3975 Y241.585 Z-0.75 J1.5
N3980 Y238.585 Z-0.8 J-1.5
N3985 Y241.585 Z-0.85 J1.5
N3990 Y238.585 Z-0.9 J-1.5
N3995 Y241.585 Z-0.95 J1.5
N4000 Y238.585 Z-1 J-1.5
N4005 Y241.585 Z-1.05 J1.5
N4010 Y238.585 Z-1.1 J-1.5
N4015 Y241.585 Z-1.15 J1.5
N4020 Y238.585 Z-1.2 J-1.5
N4025 Y241.585 Z-1.25 J1.5
N4030 Y238.585 Z-1.3 J-1.5
N4035 Y241.585 Z-1.35 J1.5
N4040 Y238.585 Z-1.4 J-1.5
N4045 Y241.585 Z-1.45 J1.5
N4050 Y238.585 Z-1.5 J-1.5
N4055 Y241.585 Z-1.55 J1.5
N4060 Y238.585 Z-1.6 J-1.5
N4065 Y241.585 Z-1.65 J1.5
N4070 Y238.585 Z-1.7 J-1.5
N4075 Y241.585 Z-1.75 J1.5
N4080 Y238.585 Z-1.8 J-1.5
N4085 Y241.585 Z-1.85 J1.5
N4090 Y238.585 Z-1.9 J-1.5
N4095 Y241.585 Z-1.95 J1.5
N4100 Y238.585 Z-2 J-1.5
N4105 Y241.585 Z-2.05 J1.5
N4110 Y238.585 Z-2.1 J-1.5
N4115 Y241.585 Z-2.15 J1.5
N4120 Y238.585 Z-2.2 J-1.5
N4125 Y241.585 J1.5
N4130 Y238.585 J-1.5
N4135 X110.678 Y238.885 J0.3
N4140 G1 Y239.035
N4145 G19 G3 Y239.335 Z-1.9 K0.3
N4150 G0 Z2.3
N4155 X97.578 Y260.985
N4160 G1 Z0.6 F50
N4165 G2 Y260.685 Z0.3 J-0.3
N4170 G1 Y260.535
N4175 G17 G3 X97.878 Y260.235 I0.3
N4180 Y263.235 Z0.25 J1.5 F800
N4185 Y260.235 Z0.2 J-1.5
N4190 Y263.235 Z0.15 J1.5
N4195 Y260.235 Z0.1 J-1.5
N4200 Y263.235 Z0.05 J1.5
N4205 Y260.235 Z0 J-1.5
N4210 Y263.235 Z-0.05 J1.5
N4215 Y260.235 Z-0.1 J-1.5
N4220 Y263.235 Z-0.15 J1.5
N4225 Y260.235 Z-0.2 J-1.5
N4230 Y263.235 Z-0.25 J1.5
N4235 Y260.235 Z-0.3 J-1.5
N4240 Y263.235 Z-0.35 J1.5
N4245 Y260.235 Z-0.4 J-1.5
N4250 Y263.235 Z-0.45 J1.5
N4255 Y260.235 Z-0.5 J-1.5
N4260 Y263.235 Z-0.55 J1.5
N4265 Y260.235 Z-0.6 J-1.5
N4270 Y263.235 Z-0.65 J1.5
N4275 Y260.235 Z-0.7 J-1.5
N4280 Y263.235 Z-0.75 J1.5
N4285 Y260.235 Z-0.8 J-1.5
N4290 Y263.235 Z-0.85 J1.5
N4295 Y260.235 Z-0.9 J-1.5
N4300 Y263.235 Z-0.95 J1.5
N4305 Y260.235 Z-1 J-1.5
N4310 Y263.235 Z-1.05 J1.5
N4315 Y260.235 Z-1.1 J-1.5
N4320 Y263.235 Z-1.15 J1.5
N4325 Y260.235 Z-1.2 J-1.5
N4330 Y263.235 Z-1.25 J1.5
N4335 Y260.235 Z-1.3 J-1.5
N4340 Y263.235 Z-1.35 J1.5
N4345 Y260.235 Z-1.4 J-1.5
N4350 Y263.235 Z-1.45 J1.5
N4355 Y260.235 Z-1.5 J-1.5
N4360 Y263.235 Z-1.55 J1.5
N4365 Y260.235 Z-1.6 J-1.5
N4370 Y263.235 Z-1.65 J1.5
N4375 Y260.235 Z-1.7 J-1.5
N4380 Y263.235 Z-1.75 J1.5
N4385 Y260.235 Z-1.8 J-1.5
N4390 Y263.235 Z-1.85 J1.5
N4395 Y260.235 Z-1.9 J-1.5
N4400 Y263.235 Z-1.95 J1.5
N4405 Y260.235 Z-2 J-1.5
N4410 Y263.235 Z-2.05 J1.5
N4415 Y260.235 Z-2.1 J-1.5
N4420 Y263.235 Z-2.15 J1.5
N4425 Y260.235 Z-2.2 J-1.5
N4430 Y263.235 J1.5
N4435 Y260.235 J-1.5
N4440 X98.178 Y260.535 J0.3
N4445 G1 Y260.685
N4450 G19 G3 Y260.985 Z-1.9 K0.3
N4455 G0 Z2.3
N4460 X72.578
N4465 G1 Z0.6 F50
N4470 G2 Y260.685 Z0.3 J-0.3
N4475 G1 Y260.535
N4480 G17 G3 X72.878 Y260.235 I0.3
N4485 Y263.235 Z0.25 J1.5 F800
N4490 Y260.235 Z0.2 J-1.5
N4495 Y263.235 Z0.15 J1.5
N4500 Y260.235 Z0.1 J-1.5
N4505 Y263.235 Z0.05 J1.5
N4510 Y260.235 Z0 J-1.5
N4515 Y263.235 Z-0.05 J1.5
N4520 Y260.235 Z-0.1 J-1.5
N4525 Y263.235 Z-0.15 J1.5
N4530 Y260.235 Z-0.2 J-1.5
N4535 Y263.235 Z-0.25 J1.5
N4540 Y260.235 Z-0.3 J-1.5
N4545 Y263.235 Z-0.35 J1.5
N4550 Y260.235 Z-0.4 J-1.5
N4555 Y263.235 Z-0.45 J1.5
N4560 Y260.235 Z-0.5 J-1.5
N4565 Y263.235 Z-0.55 J1.5
N4570 Y260.235 Z-0.6 J-1.5
N4575 Y263.235 Z-0.65 J1.5
N4580 Y260.235 Z-0.7 J-1.5
N4585 Y263.235 Z-0.75 J1.5
N4590 Y260.235 Z-0.8 J-1.5
N4595 Y263.235 Z-0.85 J1.5
N4600 Y260.235 Z-0.9 J-1.5
N4605 Y263.235 Z-0.95 J1.5
N4610 Y260.235 Z-1 J-1.5
N4615 Y263.235 Z-1.05 J1.5
N4620 Y260.235 Z-1.1 J-1.5
N4625 Y263.235 Z-1.15 J1.5
N4630 Y260.235 Z-1.2 J-1.5
N4635 Y263.235 Z-1.25 J1.5
N4640 Y260.235 Z-1.3 J-1.5
N4645 Y263.235 Z-1.35 J1.5
N4650 Y260.235 Z-1.4 J-1.5
N4655 Y263.235 Z-1.45 J1.5
N4660 Y260.235 Z-1.5 J-1.5
N4665 Y263.235 Z-1.55 J1.5
N4670 Y260.235 Z-1.6 J-1.5
N4675 Y263.235 Z-1.65 J1.5
N4680 Y260.235 Z-1.7 J-1.5
N4685 Y263.235 Z-1.75 J1.5
N4690 Y260.235 Z-1.8 J-1.5
N4695 Y263.235 Z-1.85 J1.5
N4700 Y260.235 Z-1.9 J-1.5
N4705 Y263.235 Z-1.95 J1.5
N4710 Y260.235 Z-2 J-1.5
N4715 Y263.235 Z-2.05 J1.5
N4720 Y260.235 Z-2.1 J-1.5
N4725 Y263.235 Z-2.15 J1.5
N4730 Y260.235 Z-2.2 J-1.5
N4735 Y263.235 J1.5
N4740 Y260.235 J-1.5
N4745 X73.178 Y260.535 J0.3
N4750 G1 Y260.685
N4755 G19 G3 Y260.985 Z-1.9 K0.3
N4760 G0 Z2.3
N4765 X217.303 Y254.042
N4770 G1 Z0.6 F50
N4775 G3 Y254.342 Z0.3 J0.3
N4780 G1 Y254.492
N4785 G17 G3 X217.003 Y254.792 I-0.3
N4790 Y251.792 Z0.25 J-1.5 F800
N4795 Y254.792 Z0.2 J1.5
N4800 Y251.792 Z0.15 J-1.5
N4805 Y254.792 Z0.1 J1.5
N4810 Y251.792 Z0.05 J-1.5
N4815 Y254.792 Z0 J1.5
N4820 Y251.792 Z-0.05 J-1.5
N4825 Y254.792 Z-0.1 J1.5
N4830 Y251.792 Z-0.15 J-1.5
N4835 Y254.792 Z-0.2 J1.5
N4840 Y251.792 Z-0.25 J-1.5
N4845 Y254.792 Z-0.3 J1.5
N4850 Y251.792 Z-0.35 J-1.5
N4855 Y254.792 Z-0.4 J1.5
N4860 Y251.792 Z-0.45 J-1.5
N4865 Y254.792 Z-0.5 J1.5
N4870 Y251.792 Z-0.55 J-1.5
N4875 Y254.792 Z-0.6 J1.5
N4880 Y251.792 Z-0.65 J-1.5
N4885 Y254.792 Z-0.7 J1.5
N4890 Y251.792 Z-0.75 J-1.5
N4895 Y254.792 Z-0.8 J1.5
N4900 Y251.792 Z-0.85 J-1.5
N4905 Y254.792 Z-0.9 J1.5
N4910 Y251.792 Z-0.95 J-1.5
N4915 Y254.792 Z-1 J1.5
N4920 Y251.792 Z-1.05 J-1.5
N4925 Y254.792 Z-1.1 J1.5
N4930 Y251.792 Z-1.15 J-1.5
N4935 Y254.792 Z-1.2 J1.5
N4940 Y251.792 Z-1.25 J-1.5
N4945 Y254.792 Z-1.3 J1.5
N4950 Y251.792 Z-1.35 J-1.5
N4955 Y254.792 Z-1.4 J1.5
N4960 Y251.792 Z-1.45 J-1.5
N4965 Y254.792 Z-1.5 J1.5
N4970 Y251.792 Z-1.55 J-1.5
N4975 Y254.792 Z-1.6 J1.5
N4980 Y251.792 Z-1.65 J-1.5
N4985 Y254.792 Z-1.7 J1.5
N4990 Y251.792 Z-1.75 J-1.5
N4995 Y254.792 Z-1.8 J1.5
N5000 Y251.792 Z-1.85 J-1.5
N5005 Y254.792 Z-1.9 J1.5
N5010 Y251.792 Z-1.95 J-1.5
N5015 Y254.792 Z-2 J1.5
N5020 Y251.792 Z-2.05 J-1.5
N5025 Y254.792 Z-2.1 J1.5
N5030 Y251.792 Z-2.15 J-1.5
N5035 Y254.792 Z-2.2 J1.5
N5040 Y251.792 J-1.5
N5045 Y254.792 J1.5
N5050 X216.703 Y254.492 J-0.3
N5055 G1 Y254.342
N5060 G19 G2 Y254.042 Z-1.9 K0.3
N5065 G0 Z2.3
N5070 X190.433
N5075 G1 Z0.6 F50
N5080 G3 Y254.342 Z0.3 J0.3
N5085 G1 Y254.492
N5090 G17 G3 X190.133 Y254.792 I-0.3
N5095 Y251.792 Z0.25 J-1.5 F800
N5100 Y254.792 Z0.2 J1.5
N5105 Y251.792 Z0.15 J-1.5
N5110 Y254.792 Z0.1 J1.5
N5115 Y251.792 Z0.05 J-1.5
N5120 Y254.792 Z0 J1.5
N5125 Y251.792 Z-0.05 J-1.5
N5130 Y254.792 Z-0.1 J1.5
N5135 Y251.792 Z-0.15 J-1.5
N5140 Y254.792 Z-0.2 J1.5
N5145 Y251.792 Z-0.25 J-1.5
N5150 Y254.792 Z-0.3 J1.5
N5155 Y251.792 Z-0.35 J-1.5
N5160 Y254.792 Z-0.4 J1.5
N5165 Y251.792 Z-0.45 J-1.5
N5170 Y254.792 Z-0.5 J1.5
N5175 Y251.792 Z-0.55 J-1.5
N5180 Y254.792 Z-0.6 J1.5
N5185 Y251.792 Z-0.65 J-1.5
N5190 Y254.792 Z-0.7 J1.5
N5195 Y251.792 Z-0.75 J-1.5
N5200 Y254.792 Z-0.8 J1.5
N5205 Y251.792 Z-0.85 J-1.5
N5210 Y254.792 Z-0.9 J1.5
N5215 Y251.792 Z-0.95 J-1.5
N5220 Y254.792 Z-1 J1.5
N5225 Y251.792 Z-1.05 J-1.5
N5230 Y254.792 Z-1.1 J1.5
N5235 Y251.792 Z-1.15 J-1.5
N5240 Y254.792 Z-1.2 J1.5
N5245 Y251.792 Z-1.25 J-1.5
N5250 Y254.792 Z-1.3 J1.5
N5255 Y251.792 Z-1.35 J-1.5
N5260 Y254.792 Z-1.4 J1.5
N5265 Y251.792 Z-1.45 J-1.5
N5270 Y254.792 Z-1.5 J1.5
N5275 Y251.792 Z-1.55 J-1.5
N5280 Y254.792 Z-1.6 J1.5
N5285 Y251.792 Z-1.65 J-1.5
N5290 Y254.792 Z-1.7 J1.5
N5295 Y251.792 Z-1.75 J-1.5
N5300 Y254.792 Z-1.8 J1.5
N5305 Y251.792 Z-1.85 J-1.5
N5310 Y254.792 Z-1.9 J1.5
N5315 Y251.792 Z-1.95 J-1.5
N5320 Y254.792 Z-2 J1.5
N5325 Y251.792 Z-2.05 J-1.5
N5330 Y254.792 Z-2.1 J1.5
N5335 Y251.792 Z-2.15 J-1.5
N5340 Y254.792 Z-2.2 J1.5
N5345 Y251.792 J-1.5
N5350 Y254.792 J1.5
N5355 X189.833 Y254.492 J-0.3
N5360 G1 Y254.342
N5365 G19 G2 Y254.042 Z-1.9 K0.3
N5370 G0 Z2.3
N5375 X190.433 Y227.172
N5380 G1 Z0.6 F50
N5385 G3 Y227.472 Z0.3 J0.3
N5390 G1 Y227.622
N5395 G17 G3 X190.133 Y227.922 I-0.3
N5400 Y224.922 Z0.25 J-1.5 F800
N5405 Y227.922 Z0.2 J1.5
N5410 Y224.922 Z0.15 J-1.5
N5415 Y227.922 Z0.1 J1.5
N5420 Y224.922 Z0.05 J-1.5
N5425 Y227.922 Z0 J1.5
N5430 Y224.922 Z-0.05 J-1.5
N5435 Y227.922 Z-0.1 J1.5
N5440 Y224.922 Z-0.15 J-1.5
N5445 Y227.922 Z-0.2 J1.5
N5450 Y224.922 Z-0.25 J-1.5
N5455 Y227.922 Z-0.3 J1.5
N5460 Y224.922 Z-0.35 J-1.5
N5465 Y227.922 Z-0.4 J1.5
N5470 Y224.922 Z-0.45 J-1.5
N5475 Y227.922 Z-0.5 J1.5
N5480 Y224.922 Z-0.55 J-1.5
N5485 Y227.922 Z-0.6 J1.5
N5490 Y224.922 Z-0.65 J-1.5
N5495 Y227.922 Z-0.7 J1.5
N5500 Y224.922 Z-0.75 J-1.5
N5505 Y227.922 Z-0.8 J1.5
N5510 Y224.922 Z-0.85 J-1.5
N5515 Y227.922 Z-0.9 J1.5
N5520 Y224.922 Z-0.95 J-1.5
N5525 Y227.922 Z-1 J1.5
N5530 Y224.922 Z-1.05 J-1.5
N5535 Y227.922 Z-1.1 J1.5
N5540 Y224.922 Z-1.15 J-1.5
N5545 Y227.922 Z-1.2 J1.5
N5550 Y224.922 Z-1.25 J-1.5
N5555 Y227.922 Z-1.3 J1.5
N5560 Y224.922 Z-1.35 J-1.5
N5565 Y227.922 Z-1.4 J1.5
N5570 Y224.922 Z-1.45 J-1.5
N5575 Y227.922 Z-1.5 J1.5
N5580 Y224.922 Z-1.55 J-1.5
N5585 Y227.922 Z-1.6 J1.5
N5590 Y224.922 Z-1.65 J-1.5
N5595 Y227.922 Z-1.7 J1.5
N5600 Y224.922 Z-1.75 J-1.5
N5605 Y227.922 Z-1.8 J1.5
N5610 Y224.922 Z-1.85 J-1.5
N5615 Y227.922 Z-1.9 J1.5
N5620 Y224.922 Z-1.95 J-1.5
N5625 Y227.922 Z-2 J1.5
N5630 Y224.922 Z-2.05 J-1.5
N5635 Y227.922 Z-2.1 J1.5
N5640 Y224.922 Z-2.15 J-1.5
N5645 Y227.922 Z-2.2 J1.5
N5650 Y224.922 J-1.5
N5655 Y227.922 J1.5
N5660 X189.833 Y227.622 J-0.3
N5665 G1 Y227.472
N5670 G19 G2 Y227.172 Z-1.9 K0.3
N5675 G0 Z2.3
N5680 X217.303
N5685 G1 Z0.6 F50
N5690 G3 Y227.472 Z0.3 J0.3
N5695 G1 Y227.622
N5700 G17 G3 X217.003 Y227.922 I-0.3
N5705 Y224.922 Z0.25 J-1.5 F800
N5710 Y227.922 Z0.2 J1.5
N5715 Y224.922 Z0.15 J-1.5
N5720 Y227.922 Z0.1 J1.5
N5725 Y224.922 Z0.05 J-1.5
N5730 Y227.922 Z0 J1.5
N5735 Y224.922 Z-0.05 J-1.5
N5740 Y227.922 Z-0.1 J1.5
N5745 Y224.922 Z-0.15 J-1.5
N5750 Y227.922 Z-0.2 J1.5
N5755 Y224.922 Z-0.25 J-1.5
N5760 Y227.922 Z-0.3 J1.5
N5765 Y224.922 Z-0.35 J-1.5
N5770 Y227.922 Z-0.4 J1.5
N5775 Y224.922 Z-0.45 J-1.5
N5780 Y227.922 Z-0.5 J1.5
N5785 Y224.922 Z-0.55 J-1.5
N5790 Y227.922 Z-0.6 J1.5
N5795 Y224.922 Z-0.65 J-1.5
N5800 Y227.922 Z-0.7 J1.5
N5805 Y224.922 Z-0.75 J-1.5
N5810 Y227.922 Z-0.8 J1.5
N5815 Y224.922 Z-0.85 J-1.5
N5820 Y227.922 Z-0.9 J1.5
N5825 Y224.922 Z-0.95 J-1.5
N5830 Y227.922 Z-1 J1.5
N5835 Y224.922 Z-1.05 J-1.5
N5840 Y227.922 Z-1.1 J1.5
N5845 Y224.922 Z-1.15 J-1.5
N5850 Y227.922 Z-1.2 J1.5
N5855 Y224.922 Z-1.25 J-1.5
N5860 Y227.922 Z-1.3 J1.5
N5865 Y224.922 Z-1.35 J-1.5
N5870 Y227.922 Z-1.4 J1.5
N5875 Y224.922 Z-1.45 J-1.5
N5880 Y227.922 Z-1.5 J1.5
N5885 Y224.922 Z-1.55 J-1.5
N5890 Y227.922 Z-1.6 J1.5
N5895 Y224.922 Z-1.65 J-1.5
N5900 Y227.922 Z-1.7 J1.5
N5905 Y224.922 Z-1.75 J-1.5
N5910 Y227.922 Z-1.8 J1.5
N5915 Y224.922 Z-1.85 J-1.5
N5920 Y227.922 Z-1.9 J1.5
N5925 Y224.922 Z-1.95 J-1.5
N5930 Y227.922 Z-2 J1.5
N5935 Y224.922 Z-2.05 J-1.5
N5940 Y227.922 Z-2.1 J1.5
N5945 Y224.922 Z-2.15 J-1.5
N5950 Y227.922 Z-2.2 J1.5
N5955 Y224.922 J-1.5
N5960 Y227.922 J1.5
N5965 X216.703 Y227.622 J-0.3
N5970 G1 Y227.472
N5975 G19 G2 Y227.172 Z-1.9 K0.3
N5980 G0 Z2.3
N5985 G17

(??5)
N5990 G0 X16.456 Y265.582
N5995 Z2.3
N6000 Z2
N6005 G1 Z0.3 F50
N6010 X16.481 Y265.607
N6015 X16.474 Y265.624
N6020 X16.456 Y265.632
N6025 X16.429 Y265.624 Z0.291 F800
N6030 X16.411 Y265.603 Z0.282
N6035 X16.406 Y265.575 Z0.273
N6040 X16.418 Y265.55 Z0.264
N6045 X16.441 Y265.534 Z0.255
N6050 X16.469 Y265.533 Z0.246
N6055 X16.493 Y265.548 Z0.237
N6060 X16.505 Y265.573 Z0.228
N6065 X16.502 Y265.601 Z0.219
N6070 X16.485 Y265.623 Z0.21
N6075 X16.458 Y265.632 Z0.201
N6080 X16.431 Y265.625 Z0.192
N6085 X16.412 Y265.605 Z0.183
N6090 X16.406 Y265.578 Z0.174
N6095 X16.416 Y265.552 Z0.165
N6100 X16.439 Y265.535 Z0.156
N6105 X16.466 Y265.533 Z0.147
N6110 X16.491 Y265.546 Z0.138
N6115 X16.505 Y265.57 Z0.129
N6120 X16.503 Y265.598 Z0.12
N6125 X16.487 Y265.621 Z0.111
N6130 X16.461 Y265.631 Z0.102
N6135 X16.433 Y265.626 Z0.093
N6140 X16.413 Y265.607 Z0.084
N6145 X16.406 Y265.58 Z0.074
N6150 X16.415 Y265.554 Z0.065
N6155 X16.436 Y265.536 Z0.056
N6160 X16.464 Y265.532 Z0.047
N6165 X16.489 Y265.544 Z0.038
N6170 X16.504 Y265.568 Z0.029
N6175 Y265.596 Z0.02
N6180 X16.489 Y265.62 Z0.011
N6185 X16.463 Y265.631 Z0.002
N6190 X16.436 Y265.627 Z-0.007
N6195 X16.414 Y265.609 Z-0.016
N6200 X16.406 Y265.583 Z-0.025
N6205 X16.413 Y265.556 Z-0.034
N6210 X16.434 Y265.537 Z-0.043
N6215 X16.462 Y265.532 Z-0.052
N6220 X16.487 Y265.543 Z-0.061
N6225 X16.503 Y265.566 Z-0.07
N6230 X16.504 Y265.594 Z-0.079
N6235 X16.49 Y265.618 Z-0.088
N6240 X16.466 Y265.631 Z-0.097
N6245 X16.438 Y265.628 Z-0.106
N6250 X16.416 Y265.611 Z-0.115
N6255 X16.406 Y265.585 Z-0.124
N6260 X16.412 Y265.558 Z-0.133
N6265 X16.432 Y265.538 Z-0.142
N6270 X16.459 Y265.532 Z-0.151
N6275 X16.485 Y265.541 Z-0.16
N6280 X16.503 Y265.564 Z-0.169
N6285 X16.505 Y265.591 Z-0.178
N6290 X16.492 Y265.616 Z-0.187
N6295 X16.468 Y265.63 Z-0.196
N6300 X16.44 Y265.629 Z-0.205
N6305 X16.417 Y265.613 Z-0.214
N6310 X16.406 Y265.587 Z-0.223
N6315 X16.411 Y265.56 Z-0.232
N6320 X16.43 Y265.539 Z-0.241
N6325 X16.457 Y265.532 Z-0.25
N6330 X16.483 Y265.54 Z-0.259
N6335 X16.502 Y265.561 Z-0.268
N6340 X16.505 Y265.589 Z-0.277
N6345 X16.494 Y265.614 Z-0.286
N6350 X16.47 Y265.63 Z-0.295
N6355 X16.442 Z-0.304
N6360 X16.419 Y265.615 Z-0.313
N6365 X16.407 Y265.59 Z-0.322
N6370 X16.41 Y265.562 Z-0.331
N6375 X16.428 Y265.54 Z-0.34
N6380 X16.454 Y265.532 Z-0.349
N6385 X16.481 Y265.539 Z-0.359
N6390 X16.501 Y265.559 Z-0.368
N6395 X16.506 Y265.587 Z-0.377
N6400 X16.495 Y265.613 Z-0.386
N6405 X16.473 Y265.629 Z-0.395
N6410 X16.445 Y265.63 Z-0.404
N6415 X16.42 Y265.617 Z-0.413
N6420 X16.407 Y265.592 Z-0.422
N6425 X16.409 Y265.564 Z-0.431
N6430 X16.426 Y265.542 Z-0.44
N6435 X16.452 Y265.532 Z-0.449
N6440 X16.479 Y265.538 Z-0.458
N6445 X16.499 Y265.557 Z-0.467
N6450 X16.506 Y265.584 Z-0.476
N6455 X16.497 Y265.611 Z-0.485
N6460 X16.475 Y265.628 Z-0.494
N6465 X16.447 Y265.631 Z-0.503
N6470 X16.422 Y265.618 Z-0.512
N6475 X16.408 Y265.595 Z-0.521
N6480 Y265.567 Z-0.53
N6485 X16.424 Y265.543 Z-0.539
N6490 X16.45 Y265.532 Z-0.548
N6495 X16.477 Y265.536 Z-0.557
N6500 X16.498 Y265.555 Z-0.566
N6505 X16.506 Y265.582 Z-0.575
N6510 X16.498 Y265.609 Z-0.584
N6515 X16.477 Y265.627 Z-0.593
N6520 X16.45 Y265.631 Z-0.602
N6525 X16.424 Y265.62 Z-0.611
N6530 X16.408 Y265.597 Z-0.62
N6535 Y265.569 Z-0.629
N6540 X16.422 Y265.545 Z-0.638
N6545 X16.447 Y265.533 Z-0.647
N6550 X16.475 Y265.535 Z-0.656
N6555 X16.497 Y265.553 Z-0.665
N6560 X16.506 Y265.579 Z-0.674
N6565 X16.499 Y265.606 Z-0.683
N6570 X16.479 Y265.626 Z-0.692
N6575 X16.452 Y265.632 Z-0.701
N6580 X16.426 Y265.622 Z-0.71
N6585 X16.409 Y265.599 Z-0.719
N6590 X16.407 Y265.571 Z-0.728
N6595 X16.42 Y265.547 Z-0.737
N6600 X16.445 Y265.533 Z-0.746
N6605 X16.473 Y265.535 Z-0.755
N6610 X16.495 Y265.551 Z-0.764
N6615 X16.506 Y265.577 Z-0.773
N6620 X16.501 Y265.604 Z-0.782
N6625 X16.481 Y265.625 Z-0.791
N6630 X16.454 Y265.632 Z-0.801
N6635 X16.428 Y265.623 Z-0.81
N6640 X16.41 Y265.601 Z-0.819
N6645 X16.407 Y265.574 Z-0.828
N6650 X16.419 Y265.548 Z-0.837
N6655 X16.442 Y265.534 Z-0.846
N6660 X16.47 Z-0.855
N6665 X16.494 Y265.549 Z-0.864
N6670 X16.505 Y265.574 Z-0.873
N6675 X16.502 Y265.602 Z-0.882
N6680 X16.483 Y265.623 Z-0.891
N6685 X16.457 Y265.632 Z-0.9
N6690 X16.43 Y265.624 Z-0.909
N6695 X16.411 Y265.604 Z-0.918
N6700 X16.406 Y265.576 Z-0.927
N6705 X16.417 Y265.55 Z-0.936
N6710 X16.44 Y265.534 Z-0.945
N6715 X16.468 Y265.533 Z-0.954
N6720 X16.492 Y265.547 Z-0.963
N6725 X16.505 Y265.572 Z-0.972
N6730 X16.503 Y265.6 Z-0.981
N6735 X16.485 Y265.622 Z-0.99
N6740 X16.459 Y265.632 Z-0.999
N6745 X16.432 Y265.626 Z-1.008
N6750 X16.412 Y265.606 Z-1.017
N6755 X16.406 Y265.578 Z-1.026
N6760 X16.416 Y265.552 Z-1.035
N6765 X16.438 Y265.535 Z-1.044
N6770 X16.466 Y265.533 Z-1.053
N6775 X16.49 Y265.546 Z-1.062
N6780 X16.504 Y265.57 Z-1.071
N6785 X16.503 Y265.598 Z-1.08
N6790 X16.487 Y265.621 Z-1.089
N6795 X16.462 Y265.631 Z-1.098
N6800 X16.434 Y265.627 Z-1.107
N6805 X16.413 Y265.608 Z-1.116
N6810 X16.406 Y265.581 Z-1.125
N6815 X16.414 Y265.554 Z-1.134
N6820 X16.436 Y265.536 Z-1.143
N6825 X16.463 Y265.532 Z-1.152
N6830 X16.489 Y265.544 Z-1.161
N6835 X16.504 Y265.567 Z-1.17
N6840 Y265.595 Z-1.179
N6845 X16.489 Y265.619 Z-1.188
N6850 X16.464 Y265.631 Z-1.197
N6855 X16.436 Y265.628 Z-1.206
N6860 X16.415 Y265.61 Z-1.215
N6865 X16.406 Y265.583 Z-1.224
N6870 X16.413 Y265.556 Z-1.234
N6875 X16.433 Y265.537 Z-1.243
N6880 X16.461 Y265.532 Z-1.252
N6885 X16.487 Y265.542 Z-1.261
N6890 X16.503 Y265.565 Z-1.27
N6895 X16.505 Y265.593 Z-1.279
N6900 X16.491 Y265.617 Z-1.288
N6905 X16.466 Y265.631 Z-1.297
N6910 X16.439 Y265.629 Z-1.306
N6915 X16.416 Y265.612 Z-1.315
N6920 X16.406 Y265.586 Z-1.324
N6925 X16.412 Y265.558 Z-1.333
N6930 X16.431 Y265.538 Z-1.342
N6935 X16.458 Y265.532 Z-1.351
N6940 X16.485 Y265.541 Z-1.36
N6945 X16.502 Y265.563 Z-1.369
N6950 X16.505 Y265.591 Z-1.378
N6955 X16.493 Y265.616 Z-1.387
N6960 X16.469 Y265.63 Z-1.396
N6965 X16.441 Y265.629 Z-1.405
N6970 X16.418 Y265.614 Z-1.414
N6975 X16.406 Y265.588 Z-1.423
N6980 X16.411 Y265.561 Z-1.432
N6985 X16.429 Y265.54 Z-1.441
N6990 X16.456 Y265.532 Z-1.45
N6995 X16.483 Y265.54 Z-1.459
N7000 X16.501 Y265.561 Z-1.468
N7005 X16.506 Y265.588 Z-1.477
N7010 X16.494 Y265.614 Z-1.486
N7015 X16.471 Y265.629 Z-1.495
N7020 X16.443 Y265.63 Z-1.504
N7025 X16.419 Y265.616 Z-1.513
N7030 X16.407 Y265.591 Z-1.522
N7035 X16.41 Y265.563 Z-1.531
N7040 X16.427 Y265.541 Z-1.54
N7045 X16.454 Y265.532 Z-1.549
N7050 X16.481 Y265.538 Z-1.558
N7055 X16.5 Y265.558 Z-1.567
N7060 X16.506 Y265.586 Z-1.576
N7065 X16.496 Y265.612 Z-1.585
N7070 X16.473 Y265.629 Z-1.594
N7075 X16.446 Y265.631 Z-1.603
N7080 X16.421 Y265.617 Z-1.612
N7085 X16.407 Y265.593 Z-1.621
N7090 X16.409 Y265.565 Z-1.63
N7095 X16.425 Y265.542 Z-1.639
N7100 X16.451 Y265.532 Z-1.648
N7105 X16.479 Y265.537 Z-1.657
N7110 X16.499 Y265.556 Z-1.666
N7115 X16.506 Y265.583 Z-1.676
N7120 X16.497 Y265.61 Z-1.685
N7125 X16.476 Y265.628 Z-1.694
N7130 X16.448 Y265.631 Z-1.703
N7135 X16.423 Y265.619 Z-1.712
N7140 X16.408 Y265.595 Z-1.721
N7145 Y265.567 Z-1.73
N7150 X16.423 Y265.544 Z-1.739
N7155 X16.449 Y265.532 Z-1.748
N7160 X16.476 Y265.536 Z-1.757
N7165 X16.498 Y265.554 Z-1.766
N7170 X16.506 Y265.581 Z-1.775
N7175 X16.499 Y265.608 Z-1.784
N7180 X16.478 Y265.627 Z-1.793
N7185 X16.45 Y265.631 Z-1.802
N7190 X16.425 Y265.621 Z-1.811
N7195 X16.409 Y265.598 Z-1.82
N7200 X16.407 Y265.57 Z-1.829
N7205 X16.421 Y265.546 Z-1.838
N7210 X16.446 Y265.533 Z-1.847
N7215 X16.474 Y265.535 Z-1.856
N7220 X16.496 Y265.552 Z-1.865
N7225 X16.506 Y265.578 Z-1.874
N7230 X16.5 Y265.606 Z-1.883
N7235 X16.48 Y265.626 Z-1.892
N7240 X16.453 Y265.632 Z-1.901
N7245 X16.426 Y265.622 Z-1.91
N7250 X16.409 Y265.6 Z-1.919
N7255 X16.407 Y265.572 Z-1.928
N7260 X16.42 Y265.547 Z-1.937
N7265 X16.444 Y265.533 Z-1.946
N7270 X16.472 Y265.534 Z-1.955
N7275 X16.495 Y265.55 Z-1.964
N7280 X16.506 Y265.576 Z-1.973
N7285 X16.501 Y265.604 Z-1.982
N7290 X16.482 Y265.624 Z-1.991
N7295 X16.455 Y265.632 Z-2
N7300 X16.428 Y265.623 Z-2.009
N7305 X16.41 Y265.602 Z-2.018
N7310 X16.407 Y265.574 Z-2.027
N7315 X16.418 Y265.549 Z-2.036
N7320 X16.442 Y265.534 Z-2.045
N7325 X16.47 Z-2.054
N7330 X16.493 Y265.548 Z-2.063
N7335 X16.505 Y265.574 Z-2.072
N7340 X16.502 Y265.601 Z-2.081
N7345 X16.484 Y265.623 Z-2.09
N7350 X16.458 Y265.632 Z-2.099
N7355 X16.43 Y265.625 Z-2.109
N7360 X16.411 Y265.604 Z-2.118
N7365 X16.406 Y265.577 Z-2.127
N7370 X16.417 Y265.551 Z-2.136
N7375 X16.439 Y265.535 Z-2.145
N7380 X16.467 Y265.533 Z-2.154
N7385 X16.492 Y265.547 Z-2.163
N7390 X16.505 Y265.571 Z-2.172
N7395 X16.503 Y265.599 Z-2.181
N7400 X16.486 Y265.622 Z-2.19
N7405 X16.46 Y265.632 Z-2.199
N7410 X16.433 Y265.626 Z-2.208
N7415 X16.413 Y265.606 Z-2.217
N7420 X16.406 Y265.579 Z-2.226
N7425 X16.415 Y265.553 Z-2.235
N7430 X16.437 Y265.535 Z-2.244
N7435 X16.465 Y265.533 Z-2.253
N7440 X16.49 Y265.545 Z-2.262
N7445 X16.504 Y265.569 Z-2.271
N7450 Y265.597 Z-2.28
N7455 X16.488 Y265.62 Z-2.289
N7460 X16.462 Y265.631 Z-2.298
N7465 X16.435 Y265.627 Z-2.307
N7470 X16.414 Y265.609 Z-2.316
N7475 X16.406 Y265.582 Z-2.325
N7480 X16.414 Y265.555 Z-2.334
N7485 X16.435 Y265.536 Z-2.343
N7490 X16.462 Y265.532 Z-2.352
N7495 X16.488 Y265.543 Z-2.361
N7500 X16.504 Y265.567 Z-2.37
N7505 Y265.595 Z-2.379
N7510 X16.49 Y265.618 Z-2.388
N7515 X16.465 Y265.631 Z-2.397
N7520 X16.437 Y265.628 Z-2.406
N7525 X16.415 Y265.611 Z-2.415
N7530 X16.406 Y265.584 Z-2.424
N7535 X16.413 Y265.557 Z-2.433
N7540 X16.433 Y265.538 Z-2.442
N7545 X16.46 Y265.532 Z-2.451
N7550 X16.486 Y265.542 Z-2.46
N7555 X16.503 Y265.564 Z-2.469
N7560 X16.505 Y265.592 Z-2.478
N7565 X16.492 Y265.617 Z-2.487
N7570 X16.467 Y265.63 Z-2.496
N7575 X16.439 Y265.629 Z-2.505
N7580 X16.417 Y265.613 Z-2.514
N7585 X16.406 Y265.587 Z-2.523
N7590 X16.411 Y265.559 Z-2.532
N7595 X16.43 Y265.539 Z-2.541
N7600 X16.458 Y265.532 Z-2.551
N7605 X16.484 Y265.54 Z-2.56
N7610 X16.502 Y265.562 Z-2.569
N7615 X16.505 Y265.59 Z-2.578
N7620 X16.493 Y265.615 Z-2.587
N7625 X16.47 Y265.63 Z-2.596
N7630 X16.442 Z-2.605
N7635 X16.418 Y265.614 Z-2.614
N7640 X16.407 Y265.589 Z-2.623
N7645 X16.41 Y265.561 Z-2.632
N7650 X16.428 Y265.54 Z-2.641
N7655 X16.455 Y265.532 Z-2.65
N7660 X16.482 Y265.539 Z-2.659
N7665 X16.501 Y265.56 Z-2.668
N7670 X16.506 Y265.587 Z-2.677
N7675 X16.495 Y265.613 Z-2.686
N7680 X16.472 Y265.629 Z-2.695
N7685 X16.444 Y265.63 Z-2.704
N7690 X16.42 Y265.616 Z-2.713
N7695 X16.407 Y265.591 Z-2.722
N7700 X16.409 Y265.564 Z-2.731
N7705 X16.426 Y265.541 Z-2.74
N7710 X16.453 Y265.532 Z-2.749
N7715 X16.48 Y265.538 Z-2.758
N7720 X16.5 Y265.558 Z-2.767
N7725 X16.506 Y265.585 Z-2.776
N7730 X16.496 Y265.611 Z-2.785
N7735 X16.474 Y265.628 Z-2.794
N7740 X16.446 Y265.631 Z-2.803
N7745 X16.421 Y265.618 Z-2.812
N7750 X16.407 Y265.594 Z-2.821
N7755 X16.409 Y265.566 Z-2.83
N7760 X16.425 Y265.543 Z-2.839
N7765 X16.45 Y265.532 Z-2.848
N7770 X16.478 Y265.537 Z-2.857
N7775 X16.499 Y265.556 Z-2.866
N7780 X16.506 Y265.583 Z-2.875
N7785 X16.498 Y265.609 Z-2.884
N7790 X16.476 Y265.627 Z-2.893
N7795 X16.449 Y265.631 Z-2.902
N7800 X16.423 Y265.62 Z-2.911
N7805 X16.408 Y265.596 Z-2.92
N7810 Y265.568 Z-2.929
N7815 X16.423 Y265.544 Z-2.938
N7820 X16.448 Y265.532 Z-2.947
N7825 X16.476 Y265.536 Z-2.956
N7830 X16.497 Y265.554 Z-2.965
N7835 X16.506 Y265.58 Z-2.974
N7840 X16.499 Y265.607 Z-2.984
N7845 X16.479 Y265.626 Z-2.993
N7850 X16.451 Y265.631 Z-3.002
N7855 X16.425 Y265.621 Z-3.011
N7860 X16.409 Y265.598 Z-3.02
N7865 X16.407 Y265.57 Z-3.029
N7870 X16.421 Y265.546 Z-3.038
N7875 X16.446 Y265.533 Z-3.047
N7880 X16.473 Y265.535 Z-3.056
N7885 X16.496 Y265.552 Z-3.065
N7890 X16.506 Y265.578 Z-3.074
N7895 X16.5 Y265.605 Z-3.083
N7900 X16.481 Y265.625 Z-3.092
N7905 X16.454 Y265.632 Z-3.101
N7910 X16.427 Y265.623 Z-3.11
N7915 X16.41 Y265.601 Z-3.119
N7920 X16.407 Y265.573 Z-3.128
N7925 X16.419 Y265.548 Z-3.137
N7930 X16.443 Y265.533 Z-3.146
N7935 X16.471 Y265.534 Z-3.155
N7940 X16.494 Y265.55 Z-3.164
N7945 X16.506 Y265.575 Z-3.173
N7950 X16.501 Y265.603 Z-3.182
N7955 X16.483 Y265.624 Z-3.191
N7960 X16.456 Y265.632 Z-3.2
N7965 G3 Y265.532 J-0.05
N7970 Y265.632 J0.05
N7975 G1 X16.438 Y265.624
N7980 X16.431 Y265.607
N7985 X16.456 Y265.582
N7990 G0 Z2.3
N7995 X107.261 Y301.984
N8000 G1 Z0.6 F50
N8005 G19 G2 Y301.684 Z0.3 J-0.3
N8010 G1 Y301.534
N8015 G17 G3 X107.561 Y301.234 I0.3
N8020 Y302.434 Z0.25 J0.6 F800
N8025 Y301.234 Z0.2 J-0.6
N8030 Y302.434 Z0.15 J0.6
N8035 Y301.234 Z0.1 J-0.6
N8040 Y302.434 Z0.05 J0.6
N8045 Y301.234 Z0 J-0.6
N8050 Y302.434 Z-0.05 J0.6
N8055 Y301.234 Z-0.1 J-0.6
N8060 Y302.434 Z-0.15 J0.6
N8065 Y301.234 Z-0.2 J-0.6
N8070 Y302.434 Z-0.25 J0.6
N8075 Y301.234 Z-0.3 J-0.6
N8080 Y302.434 Z-0.35 J0.6
N8085 Y301.234 Z-0.4 J-0.6
N8090 Y302.434 Z-0.45 J0.6
N8095 Y301.234 Z-0.5 J-0.6
N8100 Y302.434 Z-0.55 J0.6
N8105 Y301.234 Z-0.6 J-0.6
N8110 Y302.434 Z-0.65 J0.6
N8115 Y301.234 Z-0.7 J-0.6
N8120 Y302.434 Z-0.75 J0.6
N8125 Y301.234 Z-0.8 J-0.6
N8130 Y302.434 Z-0.85 J0.6
N8135 Y301.234 Z-0.9 J-0.6
N8140 Y302.434 Z-0.95 J0.6
N8145 Y301.234 Z-1 J-0.6
N8150 Y302.434 Z-1.05 J0.6
N8155 Y301.234 Z-1.1 J-0.6
N8160 Y302.434 Z-1.15 J0.6
N8165 Y301.234 Z-1.2 J-0.6
N8170 Y302.434 Z-1.25 J0.6
N8175 Y301.234 Z-1.3 J-0.6
N8180 Y302.434 Z-1.35 J0.6
N8185 Y301.234 Z-1.4 J-0.6
N8190 Y302.434 Z-1.45 J0.6
N8195 Y301.234 Z-1.5 J-0.6
N8200 Y302.434 Z-1.55 J0.6
N8205 Y301.234 Z-1.6 J-0.6
N8210 Y302.434 Z-1.65 J0.6
N8215 Y301.234 Z-1.7 J-0.6
N8220 Y302.434 Z-1.75 J0.6
N8225 Y301.234 Z-1.8 J-0.6
N8230 Y302.434 Z-1.85 J0.6
N8235 Y301.234 Z-1.9 J-0.6
N8240 Y302.434 Z-1.95 J0.6
N8245 Y301.234 Z-2 J-0.6
N8250 Y302.434 Z-2.05 J0.6
N8255 Y301.234 Z-2.1 J-0.6
N8260 Y302.434 Z-2.15 J0.6
N8265 Y301.234 Z-2.2 J-0.6
N8270 Y302.434 Z-2.25 J0.6
N8275 Y301.234 Z-2.3 J-0.6
N8280 Y302.434 Z-2.35 J0.6
N8285 Y301.234 Z-2.4 J-0.6
N8290 Y302.434 Z-2.45 J0.6
N8295 Y301.234 Z-2.5 J-0.6
N8300 Y302.434 Z-2.55 J0.6
N8305 Y301.234 Z-2.6 J-0.6
N8310 Y302.434 Z-2.65 J0.6
N8315 Y301.234 Z-2.7 J-0.6
N8320 Y302.434 Z-2.75 J0.6
N8325 Y301.234 Z-2.8 J-0.6
N8330 Y302.434 Z-2.85 J0.6
N8335 Y301.234 Z-2.9 J-0.6
N8340 Y302.434 Z-2.95 J0.6
N8345 Y301.234 Z-3 J-0.6
N8350 Y302.434 Z-3.05 J0.6
N8355 Y301.234 Z-3.1 J-0.6
N8360 Y302.434 Z-3.15 J0.6
N8365 Y301.234 Z-3.2 J-0.6
N8370 Y302.434 J0.6
N8375 Y301.234 J-0.6
N8380 X107.861 Y301.534 J0.3
N8385 G1 Y301.684
N8390 G19 G3 Y301.984 Z-2.9 K0.3
N8395 G0 Z2.3
N8400 X135.86 Y303.22
N8405 Z2
N8410 G1 Z0.3 F50
N8415 X135.835 Y303.195
N8420 X135.842 Y303.178
N8425 X135.86 Y303.17
N8430 X135.887 Y303.178 Z0.291 F800
N8435 X135.905 Y303.199 Z0.282
N8440 X135.91 Y303.227 Z0.273
N8445 X135.899 Y303.252 Z0.264
N8450 X135.875 Y303.268 Z0.255
N8455 X135.848 Y303.269 Z0.246
N8460 X135.824 Y303.255 Z0.237
N8465 X135.811 Y303.23 Z0.228
N8470 X135.813 Y303.202 Z0.219
N8475 X135.83 Y303.18 Z0.21
N8480 X135.857 Y303.17 Z0.201
N8485 X135.884 Y303.176 Z0.192
N8490 X135.904 Y303.196 Z0.183
N8495 X135.91 Y303.223 Z0.174
N8500 X135.901 Y303.25 Z0.165
N8505 X135.879 Y303.267 Z0.156
N8510 X135.851 Y303.269 Z0.147
N8515 X135.826 Y303.257 Z0.138
N8520 X135.812 Y303.233 Z0.129
N8525 Y303.205 Z0.12
N8530 X135.828 Y303.182 Z0.111
N8535 X135.853 Y303.171 Z0.102
N8540 X135.881 Y303.175 Z0.093
N8545 X135.902 Y303.193 Z0.084
N8550 X135.91 Y303.22 Z0.075
N8555 X135.902 Y303.247 Z0.066
N8560 X135.882 Y303.265 Z0.057
N8565 X135.854 Y303.27 Z0.048
N8570 X135.828 Y303.259 Z0.039
N8575 X135.813 Y303.236 Z0.03
N8580 X135.811 Y303.208 Z0.021
N8585 X135.825 Y303.184 Z0.012
N8590 X135.85 Y303.171 Z0.003
N8595 X135.878 Y303.174 Z-0.006
N8600 X135.9 Y303.191 Z-0.015
N8605 X135.91 Y303.217 Z-0.024
N8610 X135.904 Y303.244 Z-0.033
N8615 X135.884 Y303.264 Z-0.042
N8620 X135.857 Y303.27 Z-0.051
N8625 X135.831 Y303.261 Z-0.06
N8630 X135.814 Y303.239 Z-0.069
N8635 X135.811 Y303.211 Z-0.078
N8640 X135.823 Y303.186 Z-0.087
N8645 X135.847 Y303.172 Z-0.096
N8650 X135.875 Y303.173 Z-0.105
N8655 X135.898 Y303.188 Z-0.114
N8660 X135.909 Y303.213 Z-0.123
N8665 X135.905 Y303.241 Z-0.132
N8670 X135.887 Y303.262 Z-0.141
N8675 X135.861 Y303.27 Z-0.15
N8680 X135.834 Y303.263 Z-0.159
N8685 X135.815 Y303.242 Z-0.168
N8690 X135.81 Y303.215 Z-0.177
N8695 X135.821 Y303.189 Z-0.186
N8700 X135.844 Y303.173 Z-0.195
N8705 X135.872 Y303.172 Z-0.204
N8710 X135.896 Y303.186 Z-0.213
N8715 X135.909 Y303.21 Z-0.222
N8720 X135.907 Y303.238 Z-0.231
N8725 X135.89 Y303.26 Z-0.24
N8730 X135.864 Y303.27 Z-0.249
N8735 X135.837 Y303.264 Z-0.258
N8740 X135.817 Y303.245 Z-0.267
N8745 X135.81 Y303.218 Z-0.276
N8750 X135.819 Y303.192 Z-0.285
N8755 X135.841 Y303.174 Z-0.294
N8760 X135.869 Y303.171 Z-0.303
N8765 X135.894 Y303.183 Z-0.312
N8770 X135.908 Y303.207 Z-0.321
N8775 Y303.235 Z-0.33
N8780 X135.892 Y303.258 Z-0.339
N8785 X135.867 Y303.27 Z-0.348
N8790 X135.839 Y303.266 Z-0.357
N8795 X135.818 Y303.248 Z-0.366
N8800 X135.81 Y303.221 Z-0.375
N8805 X135.817 Y303.194 Z-0.384
N8810 X135.838 Y303.175 Z-0.393
N8815 X135.865 Y303.171 Z-0.402
N8820 X135.891 Y303.181 Z-0.411
N8825 X135.907 Y303.204 Z-0.42
N8830 X135.909 Y303.232 Z-0.429
N8835 X135.895 Y303.256 Z-0.438
N8840 X135.87 Y303.269 Z-0.447
N8845 X135.843 Y303.267 Z-0.456
N8850 X135.82 Y303.251 Z-0.465
N8855 X135.81 Y303.224 Z-0.474
N8860 X135.816 Y303.197 Z-0.483
N8865 X135.835 Y303.177 Z-0.492
N8870 X135.862 Y303.17 Z-0.501
N8875 X135.888 Y303.179 Z-0.51
N8880 X135.906 Y303.201 Z-0.519
N8885 X135.909 Y303.229 Z-0.528
N8890 X135.897 Y303.254 Z-0.537
N8895 X135.874 Y303.268 Z-0.546
N8900 X135.846 Z-0.555
N8905 X135.822 Y303.253 Z-0.564
N8910 X135.811 Y303.228 Z-0.573
N8915 X135.814 Y303.2 Z-0.582
N8920 X135.832 Y303.179 Z-0.591
N8925 X135.859 Y303.17 Z-0.6
N8930 X135.886 Y303.177 Z-0.609
N8935 X135.905 Y303.198 Z-0.618
N8940 X135.91 Y303.225 Z-0.627
N8945 X135.899 Y303.251 Z-0.636
N8950 X135.877 Y303.267 Z-0.645
N8955 X135.849 Y303.269 Z-0.654
N8960 X135.824 Y303.255 Z-0.663
N8965 X135.811 Y303.231 Z-0.672
N8970 X135.813 Y303.203 Z-0.681
N8975 X135.83 Y303.181 Z-0.69
N8980 X135.855 Y303.171 Z-0.699
N8985 X135.883 Y303.176 Z-0.708
N8990 X135.903 Y303.195 Z-0.717
N8995 X135.91 Y303.222 Z-0.726
N9000 X135.901 Y303.249 Z-0.735
N9005 X135.88 Y303.266 Z-0.744
N9010 X135.852 Y303.27 Z-0.753
N9015 X135.827 Y303.258 Z-0.762
N9020 X135.812 Y303.234 Z-0.771
N9025 Y303.206 Z-0.78
N9030 X135.827 Y303.183 Z-0.789
N9035 X135.852 Y303.171 Z-0.798
N9040 X135.88 Y303.174 Z-0.807
N9045 X135.901 Y303.192 Z-0.816
N9050 X135.91 Y303.219 Z-0.825
N9055 X135.903 Y303.246 Z-0.834
N9060 X135.883 Y303.265 Z-0.843
N9065 X135.855 Y303.27 Z-0.852
N9070 X135.829 Y303.26 Z-0.861
N9075 X135.813 Y303.237 Z-0.869
N9080 X135.811 Y303.209 Z-0.878
N9085 X135.825 Y303.185 Z-0.887
N9090 X135.849 Y303.172 Z-0.896
N9095 X135.877 Y303.173 Z-0.905
N9100 X135.899 Y303.19 Z-0.914
N9105 X135.91 Y303.216 Z-0.923
N9110 X135.905 Y303.243 Z-0.932
N9115 X135.886 Y303.263 Z-0.941
N9120 X135.859 Y303.27 Z-0.95
N9125 X135.832 Y303.262 Z-0.959
N9130 X135.814 Y303.24 Z-0.968
N9135 X135.811 Y303.213 Z-0.977
N9140 X135.822 Y303.187 Z-0.986
N9145 X135.846 Y303.172 Z-0.995
N9150 X135.874 Z-1.004
N9155 X135.897 Y303.187 Z-1.013
N9160 X135.909 Y303.212 Z-1.022
N9165 X135.906 Y303.24 Z-1.031
N9170 X135.888 Y303.262 Z-1.04
N9175 X135.864 Y303.27 Z-1.049
N9180 X135.839 Y303.266 Z-1.057
N9185 X135.819 Y303.249 Z-1.065
N9190 X135.81 Y303.225 Z-1.074
N9195 X135.814 Y303.2 Z-1.082
N9200 X135.831 Y303.18 Z-1.09
N9205 X135.855 Y303.171 Z-1.098
N9210 X135.88 Y303.175 Z-1.107
N9215 X135.9 Y303.191 Z-1.115
N9220 X135.91 Y303.215 Z-1.123
N9225 X135.906 Y303.24 Z-1.131
N9230 X135.89 Y303.26 Z-1.14
N9235 X135.866 Y303.27 Z-1.148
N9240 X135.841 Y303.266 Z-1.156
N9245 X135.82 Y303.251 Z-1.165
N9250 X135.81 Y303.227 Z-1.173
N9255 X135.814 Y303.202 Z-1.181
N9260 X135.829 Y303.181 Z-1.189
N9265 X135.855 Y303.171 Z-1.198
N9270 X135.882 Y303.176 Z-1.207
N9275 X135.903 Y303.194 Z-1.216
N9280 X135.91 Y303.221 Z-1.225
N9285 X135.902 Y303.248 Z-1.234
N9290 X135.88 Y303.266 Z-1.243
N9295 X135.853 Y303.27 Z-1.252
N9300 X135.827 Y303.258 Z-1.261
N9305 X135.812 Y303.235 Z-1.27
N9310 Y303.207 Z-1.279
N9315 X135.826 Y303.183 Z-1.288
N9320 X135.851 Y303.171 Z-1.297
N9325 X135.879 Y303.174 Z-1.306
N9330 X135.901 Y303.191 Z-1.315
N9335 X135.91 Y303.218 Z-1.324
N9340 X135.904 Y303.245 Z-1.333
N9345 X135.884 Y303.264 Z-1.342
N9350 X135.856 Y303.27 Z-1.351
N9355 X135.83 Y303.261 Z-1.36
N9360 X135.813 Y303.238 Z-1.369
N9365 X135.811 Y303.211 Z-1.378
N9370 X135.824 Y303.186 Z-1.387
N9375 X135.848 Y303.172 Z-1.396
N9380 X135.876 Y303.173 Z-1.405
N9385 X135.899 Y303.189 Z-1.414
N9390 X135.91 Y303.214 Z-1.423
N9395 X135.905 Y303.242 Z-1.432
N9400 X135.887 Y303.263 Z-1.441
N9405 X135.86 Y303.27 Z-1.45
N9410 X135.833 Y303.263 Z-1.459
N9415 X135.815 Y303.242 Z-1.468
N9420 X135.81 Y303.214 Z-1.477
N9425 X135.821 Y303.189 Z-1.486
N9430 X135.844 Y303.173 Z-1.495
N9435 X135.872 Y303.172 Z-1.504
N9440 X135.896 Y303.186 Z-1.513
N9445 X135.909 Y303.211 Z-1.522
N9450 X135.907 Y303.238 Z-1.531
N9455 X135.89 Y303.261 Z-1.54
N9460 X135.864 Y303.27 Z-1.549
N9465 X135.836 Y303.264 Z-1.558
N9470 X135.816 Y303.245 Z-1.567
N9475 X135.81 Y303.218 Z-1.576
N9480 X135.819 Y303.191 Z-1.585
N9485 X135.841 Y303.174 Z-1.594
N9490 X135.869 Y303.171 Z-1.603
N9495 X135.894 Y303.183 Z-1.612
N9500 X135.908 Y303.207 Z-1.621
N9505 Y303.235 Z-1.63
N9510 X135.892 Y303.258 Z-1.639
N9515 X135.867 Y303.27 Z-1.648
N9520 X135.839 Y303.266 Z-1.657
N9525 X135.818 Y303.248 Z-1.666
N9530 X135.81 Y303.221 Z-1.675
N9535 X135.817 Y303.194 Z-1.684
N9540 X135.838 Y303.176 Z-1.693
N9545 X135.865 Y303.171 Z-1.702
N9550 X135.891 Y303.181 Z-1.711
N9555 X135.906 Y303.202 Z-1.719
N9560 X135.909 Y303.227 Z-1.727
N9565 X135.9 Y303.251 Z-1.735
N9570 X135.879 Y303.266 Z-1.744
N9575 X135.854 Y303.27 Z-1.752
N9580 X135.83 Y303.26 Z-1.76
N9585 X135.814 Y303.24 Z-1.769
N9590 X135.81 Y303.215 Z-1.777
N9595 X135.82 Y303.191 Z-1.785
N9600 X135.842 Y303.174 Z-1.794
N9605 X135.87 Y303.171 Z-1.803
N9610 X135.894 Y303.184 Z-1.812
N9615 X135.908 Y303.208 Z-1.821
N9620 X135.907 Y303.236 Z-1.83
N9625 X135.892 Y303.259 Z-1.839
N9630 X135.866 Y303.27 Z-1.848
N9635 X135.839 Y303.266 Z-1.857
N9640 X135.818 Y303.247 Z-1.866
N9645 X135.81 Y303.22 Z-1.875
N9650 X135.818 Y303.194 Z-1.884
N9655 X135.839 Y303.175 Z-1.893
N9660 X135.866 Y303.171 Z-1.902
N9665 X135.892 Y303.182 Z-1.911
N9670 X135.907 Y303.205 Z-1.92
N9675 X135.908 Y303.232 Z-1.929
N9680 X135.894 Y303.257 Z-1.938
N9685 X135.87 Y303.269 Z-1.947
N9690 X135.842 Y303.267 Z-1.956
N9695 X135.82 Y303.25 Z-1.965
N9700 X135.81 Y303.224 Z-1.974
N9705 X135.816 Y303.197 Z-1.983
N9710 X135.835 Y303.177 Z-1.992
N9715 X135.862 Y303.17 Z-2.001
N9720 X135.889 Y303.179 Z-2.01
N9725 X135.906 Y303.201 Z-2.019
N9730 X135.909 Y303.229 Z-2.028
N9735 X135.897 Y303.254 Z-2.037
N9740 X135.873 Y303.269 Z-2.046
N9745 X135.845 Y303.268 Z-2.055
N9750 X135.822 Y303.253 Z-2.064
N9755 X135.81 Y303.227 Z-2.073
N9760 X135.814 Y303.2 Z-2.082
N9765 X135.832 Y303.179 Z-2.091
N9770 X135.859 Y303.17 Z-2.1
N9775 X135.886 Y303.178 Z-2.109
N9780 X135.905 Y303.198 Z-2.118
N9785 X135.91 Y303.225 Z-2.127
N9790 X135.899 Y303.251 Z-2.136
N9795 X135.877 Y303.267 Z-2.145
N9800 X135.849 Y303.269 Z-2.154
N9805 X135.824 Y303.255 Z-2.163
N9810 X135.811 Y303.231 Z-2.172
N9815 X135.813 Y303.203 Z-2.181
N9820 X135.829 Y303.181 Z-2.19
N9825 X135.855 Y303.171 Z-2.199
N9830 X135.883 Y303.176 Z-2.208
N9835 X135.903 Y303.195 Z-2.217
N9840 X135.91 Y303.222 Z-2.225
N9845 X135.901 Y303.248 Z-2.234
N9850 X135.88 Y303.266 Z-2.243
N9855 X135.852 Y303.27 Z-2.252
N9860 X135.827 Y303.258 Z-2.261
N9865 X135.812 Y303.234 Z-2.27
N9870 Y303.207 Z-2.279
N9875 X135.827 Y303.183 Z-2.288
N9880 X135.852 Y303.171 Z-2.297
N9885 X135.88 Y303.174 Z-2.306
N9890 X135.9 Y303.19 Z-2.315
N9895 X135.91 Y303.214 Z-2.323
N9900 X135.906 Y303.239 Z-2.331
N9905 X135.891 Y303.26 Z-2.339
N9910 X135.867 Y303.27 Z-2.348
N9915 X135.841 Y303.267 Z-2.356
N9920 X135.821 Y303.251 Z-2.364
N9925 X135.811 Y303.228 Z-2.373
N9930 X135.813 Y303.202 Z-2.381
N9935 X135.83 Y303.18 Z-2.39
N9940 X135.856 Y303.17 Z-2.399
N9945 X135.883 Y303.176 Z-2.408
N9950 X135.903 Y303.195 Z-2.417
N9955 X135.91 Y303.222 Z-2.426
N9960 X135.901 Y303.248 Z-2.434
N9965 X135.88 Y303.266 Z-2.443
N9970 X135.853 Y303.27 Z-2.452
N9975 X135.827 Y303.258 Z-2.461
N9980 X135.812 Y303.235 Z-2.47
N9985 Y303.207 Z-2.479
N9990 X135.826 Y303.184 Z-2.488
N9995 X135.851 Y303.171 Z-2.497
N10000 X135.878 Y303.174 Z-2.506
N10005 X135.9 Y303.191 Z-2.515
N10010 X135.91 Y303.217 Z-2.524
N10015 X135.904 Y303.244 Z-2.533
N10020 X135.885 Y303.264 Z-2.542
N10025 X135.858 Y303.27 Z-2.551
N10030 X135.832 Y303.262 Z-2.56
N10035 X135.814 Y303.24 Z-2.569
N10040 X135.811 Y303.213 Z-2.577
N10045 X135.822 Y303.188 Z-2.586
N10050 X135.845 Y303.172 Z-2.595
N10055 X135.873 Z-2.604
N10060 X135.895 Y303.185 Z-2.613
N10065 X135.908 Y303.207 Z-2.621
N10070 Y303.233 Z-2.629
N10075 X135.896 Y303.255 Z-2.637
N10080 X135.874 Y303.268 Z-2.646
N10085 X135.848 Y303.269 Z-2.654
N10090 X135.825 Y303.256 Z-2.662
N10095 X135.812 Y303.234 Z-2.67
N10100 X135.811 Y303.209 Z-2.679
N10105 X135.825 Y303.185 Z-2.688
N10110 X135.85 Y303.171 Z-2.697
N10115 X135.877 Y303.173 Z-2.706
N10120 X135.9 Y303.19 Z-2.715
N10125 X135.91 Y303.216 Z-2.724
N10130 X135.904 Y303.243 Z-2.733
N10135 X135.885 Y303.264 Z-2.742
N10140 X135.858 Y303.27 Z-2.751
N10145 X135.832 Y303.261 Z-2.76
N10150 X135.814 Y303.24 Z-2.769
N10155 X135.811 Y303.212 Z-2.778
N10160 X135.823 Y303.187 Z-2.787
N10165 X135.846 Y303.172 Z-2.796
N10170 X135.874 Z-2.805
N10175 X135.898 Y303.187 Z-2.814
N10180 X135.909 Y303.213 Z-2.823
N10185 X135.906 Y303.24 Z-2.832
N10190 X135.888 Y303.262 Z-2.84
N10195 X135.862 Y303.27 Z-2.849
N10200 X135.835 Y303.263 Z-2.858
N10205 X135.815 Y303.243 Z-2.867
N10210 X135.81 Y303.216 Z-2.876
N10215 X135.82 Y303.19 Z-2.885
N10220 X135.843 Y303.173 Z-2.894
N10225 X135.871 Y303.171 Z-2.903
N10230 X135.895 Y303.185 Z-2.912
N10235 X135.909 Y303.209 Z-2.921
N10240 X135.907 Y303.237 Z-2.93
N10245 X135.891 Y303.26 Z-2.939
N10250 X135.865 Y303.27 Z-2.948
N10255 X135.838 Y303.265 Z-2.957
N10260 X135.817 Y303.246 Z-2.966
N10265 X135.81 Y303.219 Z-2.975
N10270 X135.818 Y303.193 Z-2.984
N10275 X135.839 Y303.175 Z-2.993
N10280 X135.867 Y303.171 Z-3.002
N10285 X135.892 Y303.182 Z-3.011
N10290 X135.908 Y303.206 Z-3.02
N10295 Y303.233 Z-3.029
N10300 X135.894 Y303.257 Z-3.038
N10305 X135.869 Y303.27 Z-3.047
N10310 X135.841 Y303.267 Z-3.056
N10315 X135.819 Y303.249 Z-3.065
N10320 X135.81 Y303.223 Z-3.074
N10325 X135.816 Y303.196 Z-3.083
N10330 X135.836 Y303.176 Z-3.092
N10335 X135.864 Y303.17 Z-3.101
N10340 X135.89 Y303.18 Z-3.11
N10345 X135.907 Y303.202 Z-3.119
N10350 X135.909 Y303.23 Z-3.128
N10355 X135.896 Y303.255 Z-3.137
N10360 X135.872 Y303.269 Z-3.146
N10365 X135.844 Y303.268 Z-3.155
N10370 X135.821 Y303.252 Z-3.164
N10375 X135.81 Y303.226 Z-3.173
N10380 X135.815 Y303.199 Z-3.182
N10385 X135.833 Y303.178 Z-3.191
N10390 X135.86 Y303.17 Z-3.2
N10395 G17 G3 Y303.27 J0.05
N10400 Y303.17 J-0.05
N10405 G1 X135.878 Y303.178
N10410 X135.885 Y303.195
N10415 X135.86 Y303.22
N10420 G0 Z2.3
N10425 X155.86
N10430 Z2
N10435 G1 Z0.3 F50
N10440 X155.885 Y303.245
N10445 X155.878 Y303.263
N10450 X155.86 Y303.27
N10455 X155.835 Y303.264 Z0.292 F800
N10460 X155.817 Y303.246 Z0.283
N10465 X155.81 Y303.221 Z0.275
N10470 X155.816 Y303.196 Z0.267
N10475 X155.834 Y303.177 Z0.259
N10480 X155.859 Y303.17 Z0.25
N10485 X155.884 Y303.176 Z0.242
N10490 X155.903 Y303.194 Z0.234
N10495 X155.91 Y303.219 Z0.226
N10500 X155.903 Y303.246 Z0.217
N10505 X155.883 Y303.265 Z0.207
N10510 X155.855 Y303.27 Z0.198
N10515 X155.829 Y303.26 Z0.189
N10520 X155.813 Y303.237 Z0.18
N10525 X155.811 Y303.209 Z0.171
N10530 X155.825 Y303.185 Z0.162
N10535 X155.85 Y303.171 Z0.153
N10540 X155.878 Y303.173 Z0.144
N10545 X155.9 Y303.19 Z0.135
N10550 X155.91 Y303.216 Z0.126
N10555 X155.904 Y303.244 Z0.117
N10560 X155.885 Y303.264 Z0.108
N10565 X155.857 Y303.27 Z0.099
N10570 X155.831 Y303.261 Z0.09
N10575 X155.814 Y303.239 Z0.081
N10580 X155.811 Y303.211 Z0.072
N10585 X155.823 Y303.186 Z0.063
N10590 X155.847 Y303.172 Z0.054
N10595 X155.875 Y303.173 Z0.045
N10600 X155.899 Y303.189 Z0.036
N10605 X155.91 Y303.214 Z0.027
N10610 X155.905 Y303.242 Z0.018
N10615 X155.886 Y303.263 Z0.009
N10620 X155.86 Y303.27 Z0
N10625 X155.833 Y303.262 Z-0.009
N10630 X155.814 Y303.241 Z-0.018
N10635 X155.81 Y303.213 Z-0.027
N10640 X155.822 Y303.188 Z-0.036
N10645 X155.845 Y303.173 Z-0.045
N10650 X155.873 Y303.172 Z-0.054
N10655 X155.897 Y303.187 Z-0.063
N10660 X155.909 Y303.212 Z-0.072
N10665 X155.906 Y303.24 Z-0.081
N10670 X155.888 Y303.261 Z-0.09
N10675 X155.862 Y303.27 Z-0.099
N10680 X155.835 Y303.263 Z-0.108
N10685 X155.815 Y303.243 Z-0.117
N10690 X155.81 Y303.216 Z-0.126
N10695 X155.821 Y303.19 Z-0.136
N10700 X155.843 Y303.173 Z-0.145
N10705 X155.871 Y303.172 Z-0.154
N10710 X155.896 Y303.185 Z-0.163
N10715 X155.909 Y303.21 Z-0.172
N10720 X155.907 Y303.238 Z-0.181
N10725 X155.89 Y303.26 Z-0.19
N10730 X155.864 Y303.27 Z-0.199
N10735 X155.837 Y303.265 Z-0.208
N10740 X155.817 Y303.245 Z-0.217
N10745 X155.81 Y303.218 Z-0.226
N10750 X155.819 Y303.191 Z-0.235
N10755 X155.841 Y303.174 Z-0.244
N10760 X155.869 Y303.171 Z-0.253
N10765 X155.894 Y303.184 Z-0.262
N10770 X155.908 Y303.208 Z-0.271
N10775 Y303.236 Z-0.28
N10780 X155.892 Y303.259 Z-0.289
N10785 X155.866 Y303.27 Z-0.298
N10790 X155.839 Y303.265 Z-0.307
N10795 X155.818 Y303.247 Z-0.316
N10800 X155.81 Y303.22 Z-0.325
N10805 X155.818 Y303.193 Z-0.334
N10810 X155.839 Y303.175 Z-0.343
N10815 X155.867 Y303.171 Z-0.352
N10820 X155.892 Y303.182 Z-0.361
N10825 X155.908 Y303.206 Z-0.37
N10830 Y303.233 Z-0.379
N10835 X155.894 Y303.257 Z-0.388
N10840 X155.868 Y303.27 Z-0.397
N10845 X155.841 Y303.266 Z-0.406
N10850 X155.819 Y303.249 Z-0.415
N10855 X155.81 Y303.222 Z-0.424
N10860 X155.817 Y303.195 Z-0.433
N10865 X155.837 Y303.176 Z-0.442
N10870 X155.865 Y303.171 Z-0.451
N10875 X155.891 Y303.181 Z-0.46
N10880 X155.907 Y303.203 Z-0.47
N10885 X155.909 Y303.231 Z-0.479
N10890 X155.895 Y303.256 Z-0.488
N10895 X155.871 Y303.269 Z-0.497
N10900 X155.843 Y303.267 Z-0.506
N10905 X155.82 Y303.251 Z-0.515
N10910 X155.81 Y303.224 Z-0.524
N10915 X155.816 Y303.197 Z-0.533
N10920 X155.835 Y303.177 Z-0.542
N10925 X155.862 Y303.17 Z-0.551
N10930 X155.889 Y303.179 Z-0.56
N10935 X155.906 Y303.201 Z-0.569
N10940 X155.909 Y303.229 Z-0.578
N10945 X155.897 Y303.254 Z-0.587
N10950 X155.873 Y303.269 Z-0.596
N10955 X155.845 Y303.268 Z-0.605
N10960 X155.822 Y303.252 Z-0.614
N10965 X155.81 Y303.227 Z-0.623
N10970 X155.815 Y303.199 Z-0.632
N10975 X155.833 Y303.178 Z-0.641
N10980 X155.86 Y303.17 Z-0.65
N10985 X155.887 Y303.178 Z-0.659
N10990 X155.905 Y303.199 Z-0.668
N10995 X155.91 Y303.227 Z-0.677
N11000 X155.898 Y303.253 Z-0.686
N11005 X155.875 Y303.268 Z-0.695
N11010 X155.847 Y303.269 Z-0.704
N11015 X155.823 Y303.254 Z-0.713
N11020 X155.811 Y303.229 Z-0.722
N11025 X155.814 Y303.201 Z-0.731
N11030 X155.831 Y303.179 Z-0.74
N11035 X155.858 Y303.17 Z-0.749
N11040 X155.885 Y303.177 Z-0.758
N11045 X155.904 Y303.197 Z-0.767
N11050 X155.91 Y303.225 Z-0.776
N11055 X155.9 Y303.251 Z-0.785
N11060 X155.877 Y303.267 Z-0.794
N11065 X155.849 Y303.269 Z-0.803
N11070 X155.825 Y303.256 Z-0.813
N11075 X155.811 Y303.231 Z-0.822
N11080 X155.813 Y303.203 Z-0.831
N11085 X155.83 Y303.181 Z-0.84
N11090 X155.856 Y303.171 Z-0.849
N11095 X155.883 Y303.176 Z-0.858
N11100 X155.903 Y303.195 Z-0.867
N11105 X155.91 Y303.223 Z-0.876
N11110 X155.901 Y303.249 Z-0.885
N11115 X155.879 Y303.266 Z-0.894
N11120 X155.851 Y303.27 Z-0.903
N11125 X155.826 Y303.257 Z-0.912
N11130 X155.812 Y303.233 Z-0.921
N11135 Y303.205 Z-0.93
N11140 X155.828 Y303.182 Z-0.939
N11145 X155.853 Y303.171 Z-0.948
N11150 X155.881 Y303.175 Z-0.957
N11155 X155.902 Y303.193 Z-0.966
N11160 X155.91 Y303.22 Z-0.975
N11165 X155.902 Y303.247 Z-0.984
N11170 X155.881 Y303.266 Z-0.993
N11175 X155.853 Y303.27 Z-1.002
N11180 X155.828 Y303.259 Z-1.011
N11185 X155.812 Y303.235 Z-1.02
N11190 Y303.207 Z-1.029
N11195 X155.826 Y303.183 Z-1.038
N11200 X155.851 Y303.171 Z-1.047
N11205 X155.879 Y303.174 Z-1.056
N11210 X155.901 Y303.192 Z-1.065
N11215 X155.91 Y303.218 Z-1.074
N11220 X155.903 Y303.245 Z-1.083
N11225 X155.883 Y303.265 Z-1.092
N11230 X155.856 Y303.27 Z-1.101
N11235 X155.83 Y303.26 Z-1.11
N11240 X155.813 Y303.237 Z-1.119
N11245 X155.811 Y303.21 Z-1.128
N11250 X155.825 Y303.185 Z-1.137
N11255 X155.849 Y303.172 Z-1.146
N11260 X155.877 Y303.173 Z-1.156
N11265 X155.9 Y303.19 Z-1.165
N11270 X155.91 Y303.216 Z-1.174
N11275 X155.904 Y303.243 Z-1.183
N11280 X155.885 Y303.264 Z-1.192
N11285 X155.858 Y303.27 Z-1.201
N11290 X155.831 Y303.261 Z-1.21
N11295 X155.814 Y303.24 Z-1.219
N11300 X155.811 Y303.212 Z-1.228
N11305 X155.823 Y303.187 Z-1.237
N11310 X155.847 Y303.172 Z-1.246
N11315 X155.875 Y303.173 Z-1.255
N11320 X155.898 Y303.188 Z-1.264
N11325 X155.91 Y303.214 Z-1.273
N11330 X155.905 Y303.241 Z-1.282
N11335 X155.887 Y303.262 Z-1.291
N11340 X155.86 Y303.27 Z-1.3
N11345 X155.833 Y303.263 Z-1.309
N11350 X155.815 Y303.242 Z-1.318
N11355 X155.81 Y303.214 Z-1.327
N11360 X155.822 Y303.188 Z-1.336
N11365 X155.845 Y303.173 Z-1.345
N11370 X155.873 Y303.172 Z-1.354
N11375 X155.897 Y303.186 Z-1.363
N11380 X155.909 Y303.211 Z-1.372
N11385 X155.906 Y303.239 Z-1.381
N11390 X155.889 Y303.261 Z-1.39
N11395 X155.862 Y303.27 Z-1.399
N11400 X155.835 Y303.264 Z-1.408
N11405 X155.816 Y303.244 Z-1.417
N11410 X155.81 Y303.216 Z-1.426
N11415 X155.82 Y303.19 Z-1.435
N11420 X155.843 Y303.173 Z-1.444
N11425 X155.871 Y303.171 Z-1.453
N11430 X155.895 Y303.185 Z-1.462
N11435 X155.909 Y303.209 Z-1.471
N11440 X155.907 Y303.237 Z-1.48
N11445 X155.891 Y303.26 Z-1.489
N11450 X155.865 Y303.27 Z-1.499
N11455 X155.837 Y303.265 Z-1.508
N11460 X155.817 Y303.246 Z-1.517
N11465 X155.81 Y303.218 Z-1.526
N11470 X155.819 Y303.192 Z-1.535
N11475 X155.841 Y303.174 Z-1.544
N11480 X155.868 Y303.171 Z-1.553
N11485 X155.894 Y303.183 Z-1.562
N11490 X155.908 Y303.207 Z-1.571
N11495 Y303.235 Z-1.58
N11500 X155.892 Y303.258 Z-1.589
N11505 X155.867 Y303.27 Z-1.598
N11510 X155.839 Y303.266 Z-1.607
N11515 X155.818 Y303.247 Z-1.616
N11520 X155.81 Y303.221 Z-1.625
N11525 X155.818 Y303.194 Z-1.634
N11530 X155.839 Y303.175 Z-1.643
N11535 X155.866 Y303.171 Z-1.652
N11540 X155.892 Y303.182 Z-1.661
N11545 X155.908 Y303.205 Z-1.67
N11550 Y303.233 Z-1.679
N11555 X155.894 Y303.257 Z-1.688
N11560 X155.869 Y303.269 Z-1.697
N11565 X155.841 Y303.267 Z-1.706
N11570 X155.819 Y303.249 Z-1.715
N11575 X155.81 Y303.223 Z-1.724
N11580 X155.816 Y303.196 Z-1.733
N11585 X155.837 Y303.176 Z-1.742
N11590 X155.864 Y303.17 Z-1.751
N11595 X155.89 Y303.18 Z-1.76
N11600 X155.907 Y303.203 Z-1.769
N11605 X155.909 Y303.231 Z-1.778
N11610 X155.896 Y303.255 Z-1.787
N11615 X155.871 Y303.269 Z-1.796
N11620 X155.843 Y303.267 Z-1.805
N11625 X155.821 Y303.251 Z-1.814
N11630 X155.81 Y303.225 Z-1.823
N11635 X155.815 Y303.198 Z-1.832
N11640 X155.835 Y303.177 Z-1.842
N11645 X155.862 Y303.17 Z-1.851
N11650 X155.888 Y303.179 Z-1.86
N11655 X155.905 Y303.199 Z-1.868
N11660 X155.91 Y303.224 Z-1.876
N11665 X155.901 Y303.248 Z-1.884
N11670 X155.882 Y303.265 Z-1.893
N11675 X155.857 Y303.27 Z-1.901
N11680 X155.833 Y303.262 Z-1.909
N11685 X155.815 Y303.243 Z-1.917
N11690 X155.81 Y303.218 Z-1.926
N11695 X155.818 Y303.193 Z-1.934
N11700 X155.837 Y303.176 Z-1.942
N11705 X155.862 Y303.17 Z-1.951
N11710 X155.886 Y303.178 Z-1.959
N11715 X155.904 Y303.197 Z-1.967
N11720 X155.91 Y303.222 Z-1.975
N11725 X155.903 Y303.246 Z-1.984
N11730 X155.884 Y303.264 Z-1.992
N11735 X155.859 Y303.27 Z-2
N11740 X155.835 Y303.263 Z-2.009
N11745 X155.816 Y303.245 Z-2.017
N11750 X155.81 Y303.22 Z-2.025
N11755 X155.817 Y303.195 Z-2.033
N11760 X155.835 Y303.177 Z-2.042
N11765 X155.86 Y303.17 Z-2.05
N11770 X155.884 Y303.177 Z-2.058
N11775 X155.903 Y303.195 Z-2.066
N11780 X155.91 Y303.219 Z-2.075
N11785 X155.904 Y303.244 Z-2.083
N11790 X155.884 Y303.264 Z-2.092
N11795 X155.857 Y303.27 Z-2.101
N11800 X155.831 Y303.261 Z-2.11
N11805 X155.813 Y303.239 Z-2.119
N11810 X155.811 Y303.211 Z-2.128
N11815 X155.824 Y303.186 Z-2.137
N11820 X155.848 Y303.172 Z-2.146
N11825 X155.876 Y303.173 Z-2.155
N11830 X155.899 Y303.189 Z-2.164
N11835 X155.91 Y303.214 Z-2.173
N11840 X155.905 Y303.242 Z-2.182
N11845 X155.887 Y303.263 Z-2.191
N11850 X155.86 Y303.27 Z-2.2
N11855 X155.833 Y303.262 Z-2.209
N11860 X155.815 Y303.241 Z-2.218
N11865 X155.81 Y303.214 Z-2.227
N11870 X155.822 Y303.188 Z-2.236
N11875 X155.845 Y303.173 Z-2.245
N11880 X155.873 Y303.172 Z-2.254
N11885 X155.897 Y303.186 Z-2.263
N11890 X155.909 Y303.211 Z-2.272
N11895 X155.906 Y303.239 Z-2.281
N11900 X155.889 Y303.261 Z-2.29
N11905 X155.863 Y303.27 Z-2.299
N11910 X155.835 Y303.264 Z-2.308
N11915 X155.816 Y303.244 Z-2.317
N11920 X155.81 Y303.217 Z-2.326
N11925 X155.82 Y303.19 Z-2.335
N11930 X155.842 Y303.174 Z-2.344
N11935 X155.87 Y303.171 Z-2.353
N11940 X155.895 Y303.184 Z-2.362
N11945 X155.909 Y303.209 Z-2.371
N11950 X155.907 Y303.237 Z-2.38
N11955 X155.891 Y303.259 Z-2.389
N11960 X155.865 Y303.27 Z-2.398
N11965 X155.838 Y303.265 Z-2.407
N11970 X155.817 Y303.246 Z-2.416
N11975 X155.81 Y303.219 Z-2.425
N11980 X155.818 Y303.193 Z-2.434
N11985 X155.84 Y303.175 Z-2.443
N11990 X155.867 Y303.171 Z-2.452
N11995 X155.893 Y303.182 Z-2.461
N12000 X155.908 Y303.206 Z-2.47
N12005 Y303.234 Z-2.479
N12010 X155.893 Y303.258 Z-2.488
N12015 X155.868 Y303.27 Z-2.497
N12020 X155.84 Y303.266 Z-2.506
N12025 X155.819 Y303.249 Z-2.515
N12030 X155.81 Y303.222 Z-2.524
N12035 X155.817 Y303.195 Z-2.533
N12040 X155.837 Y303.176 Z-2.542
N12045 X155.864 Y303.17 Z-2.551
N12050 X155.89 Y303.181 Z-2.56
N12055 X155.907 Y303.203 Z-2.569
N12060 X155.909 Y303.231 Z-2.578
N12065 X155.895 Y303.256 Z-2.587
N12070 X155.871 Y303.269 Z-2.596
N12075 X155.843 Y303.267 Z-2.605
N12080 X155.821 Y303.251 Z-2.614
N12085 X155.81 Y303.225 Z-2.623
N12090 X155.815 Y303.198 Z-2.632
N12095 X155.834 Y303.177 Z-2.641
N12100 X155.862 Y303.17 Z-2.65
N12105 X155.888 Y303.179 Z-2.66
N12110 X155.906 Y303.2 Z-2.669
N12115 X155.909 Y303.228 Z-2.678
N12120 X155.897 Y303.253 Z-2.687
N12125 X155.874 Y303.268 Z-2.696
N12130 X155.846 Z-2.705
N12135 X155.822 Y303.253 Z-2.714
N12140 X155.811 Y303.228 Z-2.723
N12145 X155.814 Y303.2 Z-2.732
N12150 X155.832 Y303.179 Z-2.741
N12155 X155.859 Y303.17 Z-2.75
N12160 X155.886 Y303.177 Z-2.759
N12165 X155.905 Y303.198 Z-2.768
N12170 X155.91 Y303.225 Z-2.777
N12175 X155.899 Y303.251 Z-2.786
N12180 X155.877 Y303.268 Z-2.795
N12185 X155.849 Y303.269 Z-2.804
N12190 X155.824 Y303.255 Z-2.813
N12195 X155.811 Y303.231 Z-2.822
N12200 X155.813 Y303.203 Z-2.831
N12205 X155.83 Y303.18 Z-2.84
N12210 X155.856 Y303.17 Z-2.849
N12215 X155.883 Y303.176 Z-2.858
N12220 X155.903 Y303.195 Z-2.867
N12225 X155.91 Y303.223 Z-2.876
N12230 X155.901 Y303.249 Z-2.885
N12235 X155.879 Y303.266 Z-2.894
N12240 X155.851 Y303.27 Z-2.903
N12245 X155.826 Y303.257 Z-2.912
N12250 X155.812 Y303.234 Z-2.921
N12255 Y303.206 Z-2.93
N12260 X155.828 Y303.182 Z-2.939
N12265 X155.853 Y303.171 Z-2.948
N12270 X155.881 Y303.175 Z-2.957
N12275 X155.902 Y303.193 Z-2.966
N12280 X155.91 Y303.22 Z-2.975
N12285 X155.903 Y303.247 Z-2.984
N12290 X155.882 Y303.265 Z-2.993
N12295 X155.854 Y303.27 Z-3.002
N12300 X155.829 Y303.259 Z-3.011
N12305 X155.813 Y303.236 Z-3.02
N12310 X155.811 Y303.208 Z-3.029
N12315 X155.825 Y303.184 Z-3.038
N12320 X155.85 Y303.171 Z-3.047
N12325 X155.878 Y303.174 Z-3.056
N12330 X155.9 Y303.191 Z-3.065
N12335 X155.91 Y303.217 Z-3.074
N12340 X155.904 Y303.244 Z-3.083
N12345 X155.884 Y303.264 Z-3.092
N12350 X155.857 Y303.27 Z-3.101
N12355 X155.831 Y303.261 Z-3.11
N12360 X155.814 Y303.239 Z-3.119
N12365 X155.811 Y303.211 Z-3.128
N12370 X155.823 Y303.186 Z-3.137
N12375 X155.847 Y303.172 Z-3.146
N12380 X155.875 Y303.173 Z-3.155
N12385 X155.898 Y303.188 Z-3.164
N12390 X155.91 Y303.214 Z-3.173
N12395 X155.905 Y303.242 Z-3.182
N12400 X155.887 Y303.263 Z-3.191
N12405 X155.86 Y303.27 Z-3.2
N12410 G3 Y303.17 J-0.05
N12415 Y303.27 J0.05
N12420 G1 X155.842 Y303.263
N12425 X155.835 Y303.245
N12430 X155.86 Y303.22
N12435 G0 Z2.3
N12440 Y273.22
N12445 Z2
N12450 G1 Z0.3 F50
N12455 X155.835 Y273.195
N12460 X155.842 Y273.178
N12465 X155.86 Y273.17
N12470 X155.887 Y273.178 Z0.291 F800
N12475 X155.905 Y273.199 Z0.282
N12480 X155.91 Y273.227 Z0.273
N12485 X155.899 Y273.252 Z0.264
N12490 X155.875 Y273.268 Z0.255
N12495 X155.848 Y273.269 Z0.246
N12500 X155.824 Y273.255 Z0.237
N12505 X155.811 Y273.23 Z0.228
N12510 X155.813 Y273.202 Z0.219
N12515 X155.83 Y273.18 Z0.21
N12520 X155.857 Y273.17 Z0.201
N12525 X155.884 Y273.176 Z0.192
N12530 X155.904 Y273.196 Z0.183
N12535 X155.91 Y273.223 Z0.174
N12540 X155.901 Y273.25 Z0.165
N12545 X155.879 Y273.267 Z0.156
N12550 X155.851 Y273.269 Z0.147
N12555 X155.826 Y273.257 Z0.138
N12560 X155.812 Y273.233 Z0.129
N12565 Y273.205 Z0.12
N12570 X155.828 Y273.182 Z0.111
N12575 X155.853 Y273.171 Z0.102
N12580 X155.881 Y273.175 Z0.093
N12585 X155.902 Y273.193 Z0.084
N12590 X155.91 Y273.22 Z0.075
N12595 X155.902 Y273.247 Z0.066
N12600 X155.882 Y273.265 Z0.057
N12605 X155.854 Y273.27 Z0.048
N12610 X155.828 Y273.259 Z0.039
N12615 X155.813 Y273.236 Z0.03
N12620 X155.811 Y273.208 Z0.021
N12625 X155.825 Y273.184 Z0.012
N12630 X155.85 Y273.171 Z0.003
N12635 X155.878 Y273.174 Z-0.006
N12640 X155.9 Y273.191 Z-0.015
N12645 X155.91 Y273.217 Z-0.024
N12650 X155.904 Y273.244 Z-0.033
N12655 X155.884 Y273.264 Z-0.042
N12660 X155.857 Y273.27 Z-0.051
N12665 X155.831 Y273.261 Z-0.06
N12670 X155.814 Y273.239 Z-0.069
N12675 X155.811 Y273.211 Z-0.078
N12680 X155.823 Y273.186 Z-0.087
N12685 X155.847 Y273.172 Z-0.096
N12690 X155.875 Y273.173 Z-0.105
N12695 X155.898 Y273.188 Z-0.114
N12700 X155.909 Y273.213 Z-0.123
N12705 X155.905 Y273.241 Z-0.132
N12710 X155.887 Y273.262 Z-0.141
N12715 X155.861 Y273.27 Z-0.15
N12720 X155.834 Y273.263 Z-0.159
N12725 X155.815 Y273.242 Z-0.168
N12730 X155.81 Y273.215 Z-0.177
N12735 X155.821 Y273.189 Z-0.186
N12740 X155.844 Y273.173 Z-0.195
N12745 X155.872 Y273.172 Z-0.204
N12750 X155.896 Y273.186 Z-0.213
N12755 X155.909 Y273.21 Z-0.222
N12760 X155.907 Y273.238 Z-0.231
N12765 X155.89 Y273.26 Z-0.24
N12770 X155.864 Y273.27 Z-0.249
N12775 X155.837 Y273.264 Z-0.258
N12780 X155.817 Y273.245 Z-0.267
N12785 X155.81 Y273.218 Z-0.276
N12790 X155.819 Y273.192 Z-0.285
N12795 X155.841 Y273.174 Z-0.294
N12800 X155.869 Y273.171 Z-0.303
N12805 X155.894 Y273.183 Z-0.312
N12810 X155.908 Y273.207 Z-0.321
N12815 Y273.235 Z-0.33
N12820 X155.892 Y273.258 Z-0.339
N12825 X155.867 Y273.27 Z-0.348
N12830 X155.839 Y273.266 Z-0.357
N12835 X155.818 Y273.248 Z-0.366
N12840 X155.81 Y273.221 Z-0.375
N12845 X155.817 Y273.194 Z-0.384
N12850 X155.838 Y273.175 Z-0.393
N12855 X155.865 Y273.171 Z-0.402
N12860 X155.891 Y273.181 Z-0.411
N12865 X155.907 Y273.204 Z-0.42
N12870 X155.909 Y273.232 Z-0.429
N12875 X155.895 Y273.256 Z-0.438
N12880 X155.87 Y273.269 Z-0.447
N12885 X155.843 Y273.267 Z-0.456
N12890 X155.82 Y273.251 Z-0.465
N12895 X155.81 Y273.224 Z-0.474
N12900 X155.816 Y273.197 Z-0.483
N12905 X155.835 Y273.177 Z-0.492
N12910 X155.862 Y273.17 Z-0.501
N12915 X155.888 Y273.179 Z-0.51
N12920 X155.906 Y273.201 Z-0.519
N12925 X155.909 Y273.229 Z-0.528
N12930 X155.897 Y273.254 Z-0.537
N12935 X155.874 Y273.268 Z-0.546
N12940 X155.846 Z-0.555
N12945 X155.822 Y273.253 Z-0.564
N12950 X155.811 Y273.228 Z-0.573
N12955 X155.814 Y273.2 Z-0.582
N12960 X155.832 Y273.179 Z-0.591
N12965 X155.859 Y273.17 Z-0.6
N12970 X155.886 Y273.177 Z-0.609
N12975 X155.905 Y273.198 Z-0.618
N12980 X155.91 Y273.225 Z-0.627
N12985 X155.899 Y273.251 Z-0.636
N12990 X155.877 Y273.267 Z-0.645
N12995 X155.849 Y273.269 Z-0.654
N13000 X155.824 Y273.255 Z-0.663
N13005 X155.811 Y273.231 Z-0.672
N13010 X155.813 Y273.203 Z-0.681
N13015 X155.83 Y273.181 Z-0.69
N13020 X155.855 Y273.171 Z-0.699
N13025 X155.883 Y273.176 Z-0.708
N13030 X155.903 Y273.195 Z-0.717
N13035 X155.91 Y273.222 Z-0.726
N13040 X155.901 Y273.249 Z-0.735
N13045 X155.88 Y273.266 Z-0.744
N13050 X155.852 Y273.27 Z-0.753
N13055 X155.827 Y273.258 Z-0.762
N13060 X155.812 Y273.234 Z-0.771
N13065 Y273.206 Z-0.78
N13070 X155.827 Y273.183 Z-0.789
N13075 X155.852 Y273.171 Z-0.798
N13080 X155.88 Y273.174 Z-0.807
N13085 X155.901 Y273.192 Z-0.816
N13090 X155.91 Y273.219 Z-0.825
N13095 X155.903 Y273.246 Z-0.834
N13100 X155.883 Y273.265 Z-0.843
N13105 X155.855 Y273.27 Z-0.852
N13110 X155.829 Y273.26 Z-0.861
N13115 X155.813 Y273.237 Z-0.869
N13120 X155.811 Y273.209 Z-0.878
N13125 X155.825 Y273.185 Z-0.887
N13130 X155.849 Y273.172 Z-0.896
N13135 X155.877 Y273.173 Z-0.905
N13140 X155.899 Y273.19 Z-0.914
N13145 X155.91 Y273.216 Z-0.923
N13150 X155.905 Y273.243 Z-0.932
N13155 X155.886 Y273.263 Z-0.941
N13160 X155.859 Y273.27 Z-0.95
N13165 X155.832 Y273.262 Z-0.959
N13170 X155.814 Y273.24 Z-0.968
N13175 X155.811 Y273.213 Z-0.977
N13180 X155.822 Y273.187 Z-0.986
N13185 X155.846 Y273.172 Z-0.995
N13190 X155.874 Z-1.004
N13195 X155.897 Y273.187 Z-1.013
N13200 X155.909 Y273.212 Z-1.022
N13205 X155.906 Y273.24 Z-1.031
N13210 X155.888 Y273.262 Z-1.04
N13215 X155.864 Y273.27 Z-1.049
N13220 X155.839 Y273.266 Z-1.057
N13225 X155.819 Y273.249 Z-1.065
N13230 X155.81 Y273.225 Z-1.074
N13235 X155.814 Y273.2 Z-1.082
N13240 X155.831 Y273.18 Z-1.09
N13245 X155.855 Y273.171 Z-1.098
N13250 X155.88 Y273.175 Z-1.107
N13255 X155.9 Y273.191 Z-1.115
N13260 X155.91 Y273.215 Z-1.123
N13265 X155.906 Y273.24 Z-1.131
N13270 X155.89 Y273.26 Z-1.14
N13275 X155.866 Y273.27 Z-1.148
N13280 X155.841 Y273.266 Z-1.156
N13285 X155.82 Y273.251 Z-1.165
N13290 X155.81 Y273.227 Z-1.173
N13295 X155.814 Y273.202 Z-1.181
N13300 X155.829 Y273.181 Z-1.189
N13305 X155.855 Y273.171 Z-1.198
N13310 X155.882 Y273.176 Z-1.207
N13315 X155.903 Y273.194 Z-1.216
N13320 X155.91 Y273.221 Z-1.225
N13325 X155.902 Y273.248 Z-1.234
N13330 X155.88 Y273.266 Z-1.243
N13335 X155.853 Y273.27 Z-1.252
N13340 X155.827 Y273.258 Z-1.261
N13345 X155.812 Y273.235 Z-1.27
N13350 Y273.207 Z-1.279
N13355 X155.826 Y273.183 Z-1.288
N13360 X155.851 Y273.171 Z-1.297
N13365 X155.879 Y273.174 Z-1.306
N13370 X155.901 Y273.191 Z-1.315
N13375 X155.91 Y273.218 Z-1.324
N13380 X155.904 Y273.245 Z-1.333
N13385 X155.884 Y273.264 Z-1.342
N13390 X155.856 Y273.27 Z-1.351
N13395 X155.83 Y273.261 Z-1.36
N13400 X155.813 Y273.238 Z-1.369
N13405 X155.811 Y273.211 Z-1.378
N13410 X155.824 Y273.186 Z-1.387
N13415 X155.848 Y273.172 Z-1.396
N13420 X155.876 Y273.173 Z-1.405
N13425 X155.899 Y273.189 Z-1.414
N13430 X155.91 Y273.214 Z-1.423
N13435 X155.905 Y273.242 Z-1.432
N13440 X155.887 Y273.263 Z-1.441
N13445 X155.86 Y273.27 Z-1.45
N13450 X155.833 Y273.263 Z-1.459
N13455 X155.815 Y273.242 Z-1.468
N13460 X155.81 Y273.214 Z-1.477
N13465 X155.821 Y273.189 Z-1.486
N13470 X155.844 Y273.173 Z-1.495
N13475 X155.872 Y273.172 Z-1.504
N13480 X155.896 Y273.186 Z-1.513
N13485 X155.909 Y273.211 Z-1.522
N13490 X155.907 Y273.238 Z-1.531
N13495 X155.89 Y273.261 Z-1.54
N13500 X155.864 Y273.27 Z-1.549
N13505 X155.836 Y273.264 Z-1.558
N13510 X155.816 Y273.245 Z-1.567
N13515 X155.81 Y273.218 Z-1.576
N13520 X155.819 Y273.191 Z-1.585
N13525 X155.841 Y273.174 Z-1.594
N13530 X155.869 Y273.171 Z-1.603
N13535 X155.894 Y273.183 Z-1.612
N13540 X155.908 Y273.207 Z-1.621
N13545 Y273.235 Z-1.63
N13550 X155.892 Y273.258 Z-1.639
N13555 X155.867 Y273.27 Z-1.648
N13560 X155.839 Y273.266 Z-1.657
N13565 X155.818 Y273.248 Z-1.666
N13570 X155.81 Y273.221 Z-1.675
N13575 X155.817 Y273.194 Z-1.684
N13580 X155.838 Y273.176 Z-1.693
N13585 X155.865 Y273.171 Z-1.702
N13590 X155.891 Y273.181 Z-1.711
N13595 X155.906 Y273.202 Z-1.719
N13600 X155.909 Y273.227 Z-1.727
N13605 X155.9 Y273.251 Z-1.735
N13610 X155.879 Y273.266 Z-1.744
N13615 X155.854 Y273.27 Z-1.752
N13620 X155.83 Y273.26 Z-1.76
N13625 X155.814 Y273.24 Z-1.769
N13630 X155.81 Y273.215 Z-1.777
N13635 X155.82 Y273.191 Z-1.785
N13640 X155.842 Y273.174 Z-1.794
N13645 X155.87 Y273.171 Z-1.803
N13650 X155.894 Y273.184 Z-1.812
N13655 X155.908 Y273.208 Z-1.821
N13660 X155.907 Y273.236 Z-1.83
N13665 X155.892 Y273.259 Z-1.839
N13670 X155.866 Y273.27 Z-1.848
N13675 X155.839 Y273.266 Z-1.857
N13680 X155.818 Y273.247 Z-1.866
N13685 X155.81 Y273.22 Z-1.875
N13690 X155.818 Y273.194 Z-1.884
N13695 X155.839 Y273.175 Z-1.893
N13700 X155.866 Y273.171 Z-1.902
N13705 X155.892 Y273.182 Z-1.911
N13710 X155.907 Y273.205 Z-1.92
N13715 X155.908 Y273.232 Z-1.929
N13720 X155.894 Y273.257 Z-1.938
N13725 X155.87 Y273.269 Z-1.947
N13730 X155.842 Y273.267 Z-1.956
N13735 X155.82 Y273.25 Z-1.965
N13740 X155.81 Y273.224 Z-1.974
N13745 X155.816 Y273.197 Z-1.983
N13750 X155.835 Y273.177 Z-1.992
N13755 X155.862 Y273.17 Z-2.001
N13760 X155.889 Y273.179 Z-2.01
N13765 X155.906 Y273.201 Z-2.019
N13770 X155.909 Y273.229 Z-2.028
N13775 X155.897 Y273.254 Z-2.037
N13780 X155.873 Y273.269 Z-2.046
N13785 X155.845 Y273.268 Z-2.055
N13790 X155.822 Y273.253 Z-2.064
N13795 X155.81 Y273.227 Z-2.073
N13800 X155.814 Y273.2 Z-2.082
N13805 X155.832 Y273.179 Z-2.091
N13810 X155.859 Y273.17 Z-2.1
N13815 X155.886 Y273.178 Z-2.109
N13820 X155.905 Y273.198 Z-2.118
N13825 X155.91 Y273.225 Z-2.127
N13830 X155.899 Y273.251 Z-2.136
N13835 X155.877 Y273.267 Z-2.145
N13840 X155.849 Y273.269 Z-2.154
N13845 X155.824 Y273.255 Z-2.163
N13850 X155.811 Y273.231 Z-2.172
N13855 X155.813 Y273.203 Z-2.181
N13860 X155.829 Y273.181 Z-2.19
N13865 X155.855 Y273.171 Z-2.199
N13870 X155.883 Y273.176 Z-2.208
N13875 X155.903 Y273.195 Z-2.217
N13880 X155.91 Y273.222 Z-2.225
N13885 X155.901 Y273.248 Z-2.234
N13890 X155.88 Y273.266 Z-2.243
N13895 X155.852 Y273.27 Z-2.252
N13900 X155.827 Y273.258 Z-2.261
N13905 X155.812 Y273.234 Z-2.27
N13910 Y273.207 Z-2.279
N13915 X155.827 Y273.183 Z-2.288
N13920 X155.852 Y273.171 Z-2.297
N13925 X155.88 Y273.174 Z-2.306
N13930 X155.9 Y273.19 Z-2.315
N13935 X155.91 Y273.214 Z-2.323
N13940 X155.906 Y273.239 Z-2.331
N13945 X155.891 Y273.26 Z-2.339
N13950 X155.867 Y273.27 Z-2.348
N13955 X155.841 Y273.267 Z-2.356
N13960 X155.821 Y273.251 Z-2.364
N13965 X155.811 Y273.228 Z-2.373
N13970 X155.813 Y273.202 Z-2.381
N13975 X155.83 Y273.18 Z-2.39
N13980 X155.856 Y273.17 Z-2.399
N13985 X155.883 Y273.176 Z-2.408
N13990 X155.903 Y273.195 Z-2.417
N13995 X155.91 Y273.222 Z-2.426
N14000 X155.901 Y273.248 Z-2.434
N14005 X155.88 Y273.266 Z-2.443
N14010 X155.853 Y273.27 Z-2.452
N14015 X155.827 Y273.258 Z-2.461
N14020 X155.812 Y273.235 Z-2.47
N14025 Y273.207 Z-2.479
N14030 X155.826 Y273.184 Z-2.488
N14035 X155.851 Y273.171 Z-2.497
N14040 X155.878 Y273.174 Z-2.506
N14045 X155.9 Y273.191 Z-2.515
N14050 X155.91 Y273.217 Z-2.524
N14055 X155.904 Y273.244 Z-2.533
N14060 X155.885 Y273.264 Z-2.542
N14065 X155.858 Y273.27 Z-2.551
N14070 X155.832 Y273.262 Z-2.56
N14075 X155.814 Y273.24 Z-2.569
N14080 X155.811 Y273.213 Z-2.577
N14085 X155.822 Y273.188 Z-2.586
N14090 X155.845 Y273.172 Z-2.595
N14095 X155.873 Z-2.604
N14100 X155.895 Y273.185 Z-2.613
N14105 X155.908 Y273.207 Z-2.621
N14110 Y273.233 Z-2.629
N14115 X155.896 Y273.255 Z-2.637
N14120 X155.874 Y273.268 Z-2.646
N14125 X155.848 Y273.269 Z-2.654
N14130 X155.825 Y273.256 Z-2.662
N14135 X155.812 Y273.234 Z-2.67
N14140 X155.811 Y273.209 Z-2.679
N14145 X155.825 Y273.185 Z-2.688
N14150 X155.85 Y273.171 Z-2.697
N14155 X155.877 Y273.173 Z-2.706
N14160 X155.9 Y273.19 Z-2.715
N14165 X155.91 Y273.216 Z-2.724
N14170 X155.904 Y273.243 Z-2.733
N14175 X155.885 Y273.264 Z-2.742
N14180 X155.858 Y273.27 Z-2.751
N14185 X155.832 Y273.261 Z-2.76
N14190 X155.814 Y273.24 Z-2.769
N14195 X155.811 Y273.212 Z-2.778
N14200 X155.823 Y273.187 Z-2.787
N14205 X155.846 Y273.172 Z-2.796
N14210 X155.874 Z-2.805
N14215 X155.898 Y273.187 Z-2.814
N14220 X155.909 Y273.213 Z-2.823
N14225 X155.906 Y273.24 Z-2.832
N14230 X155.888 Y273.262 Z-2.84
N14235 X155.862 Y273.27 Z-2.849
N14240 X155.835 Y273.263 Z-2.858
N14245 X155.815 Y273.243 Z-2.867
N14250 X155.81 Y273.216 Z-2.876
N14255 X155.82 Y273.19 Z-2.885
N14260 X155.843 Y273.173 Z-2.894
N14265 X155.871 Y273.171 Z-2.903
N14270 X155.895 Y273.185 Z-2.912
N14275 X155.909 Y273.209 Z-2.921
N14280 X155.907 Y273.237 Z-2.93
N14285 X155.891 Y273.26 Z-2.939
N14290 X155.865 Y273.27 Z-2.948
N14295 X155.838 Y273.265 Z-2.957
N14300 X155.817 Y273.246 Z-2.966
N14305 X155.81 Y273.219 Z-2.975
N14310 X155.818 Y273.193 Z-2.984
N14315 X155.839 Y273.175 Z-2.993
N14320 X155.867 Y273.171 Z-3.002
N14325 X155.892 Y273.182 Z-3.011
N14330 X155.908 Y273.206 Z-3.02
N14335 Y273.233 Z-3.029
N14340 X155.894 Y273.257 Z-3.038
N14345 X155.869 Y273.27 Z-3.047
N14350 X155.841 Y273.267 Z-3.056
N14355 X155.819 Y273.249 Z-3.065
N14360 X155.81 Y273.223 Z-3.074
N14365 X155.816 Y273.196 Z-3.083
N14370 X155.836 Y273.176 Z-3.092
N14375 X155.864 Y273.17 Z-3.101
N14380 X155.89 Y273.18 Z-3.11
N14385 X155.907 Y273.202 Z-3.119
N14390 X155.909 Y273.23 Z-3.128
N14395 X155.896 Y273.255 Z-3.137
N14400 X155.872 Y273.269 Z-3.146
N14405 X155.844 Y273.268 Z-3.155
N14410 X155.821 Y273.252 Z-3.164
N14415 X155.81 Y273.226 Z-3.173
N14420 X155.815 Y273.199 Z-3.182
N14425 X155.833 Y273.178 Z-3.191
N14430 X155.86 Y273.17 Z-3.2
N14435 G3 Y273.27 J0.05
N14440 Y273.17 J-0.05
N14445 G1 X155.878 Y273.178
N14450 X155.885 Y273.195
N14455 X155.86 Y273.22
N14460 G0 Z2.3
N14465 X135.86
N14470 Z2
N14475 G1 Z0.3 F50
N14480 X135.835 Y273.195
N14485 X135.842 Y273.178
N14490 X135.86 Y273.17
N14495 X135.887 Y273.178 Z0.291 F800
N14500 X135.905 Y273.199 Z0.282
N14505 X135.91 Y273.227 Z0.273
N14510 X135.899 Y273.252 Z0.264
N14515 X135.875 Y273.268 Z0.255
N14520 X135.848 Y273.269 Z0.246
N14525 X135.824 Y273.255 Z0.237
N14530 X135.811 Y273.23 Z0.228
N14535 X135.813 Y273.202 Z0.219
N14540 X135.83 Y273.18 Z0.21
N14545 X135.857 Y273.17 Z0.201
N14550 X135.884 Y273.176 Z0.192
N14555 X135.904 Y273.196 Z0.183
N14560 X135.91 Y273.223 Z0.174
N14565 X135.901 Y273.25 Z0.165
N14570 X135.879 Y273.267 Z0.156
N14575 X135.851 Y273.269 Z0.147
N14580 X135.826 Y273.257 Z0.138
N14585 X135.812 Y273.233 Z0.129
N14590 Y273.205 Z0.12
N14595 X135.828 Y273.182 Z0.111
N14600 X135.853 Y273.171 Z0.102
N14605 X135.881 Y273.175 Z0.093
N14610 X135.902 Y273.193 Z0.084
N14615 X135.91 Y273.22 Z0.075
N14620 X135.902 Y273.247 Z0.066
N14625 X135.882 Y273.265 Z0.057
N14630 X135.854 Y273.27 Z0.048
N14635 X135.828 Y273.259 Z0.039
N14640 X135.813 Y273.236 Z0.03
N14645 X135.811 Y273.208 Z0.021
N14650 X135.825 Y273.184 Z0.012
N14655 X135.85 Y273.171 Z0.003
N14660 X135.878 Y273.174 Z-0.006
N14665 X135.9 Y273.191 Z-0.015
N14670 X135.91 Y273.217 Z-0.024
N14675 X135.904 Y273.244 Z-0.033
N14680 X135.884 Y273.264 Z-0.042
N14685 X135.857 Y273.27 Z-0.051
N14690 X135.831 Y273.261 Z-0.06
N14695 X135.814 Y273.239 Z-0.069
N14700 X135.811 Y273.211 Z-0.078
N14705 X135.823 Y273.186 Z-0.087
N14710 X135.847 Y273.172 Z-0.096
N14715 X135.875 Y273.173 Z-0.105
N14720 X135.898 Y273.188 Z-0.114
N14725 X135.909 Y273.213 Z-0.123
N14730 X135.905 Y273.241 Z-0.132
N14735 X135.887 Y273.262 Z-0.141
N14740 X135.861 Y273.27 Z-0.15
N14745 X135.834 Y273.263 Z-0.159
N14750 X135.815 Y273.242 Z-0.168
N14755 X135.81 Y273.215 Z-0.177
N14760 X135.821 Y273.189 Z-0.186
N14765 X135.844 Y273.173 Z-0.195
N14770 X135.872 Y273.172 Z-0.204
N14775 X135.896 Y273.186 Z-0.213
N14780 X135.909 Y273.21 Z-0.222
N14785 X135.907 Y273.238 Z-0.231
N14790 X135.89 Y273.26 Z-0.24
N14795 X135.864 Y273.27 Z-0.249
N14800 X135.837 Y273.264 Z-0.258
N14805 X135.817 Y273.245 Z-0.267
N14810 X135.81 Y273.218 Z-0.276
N14815 X135.819 Y273.192 Z-0.285
N14820 X135.841 Y273.174 Z-0.294
N14825 X135.869 Y273.171 Z-0.303
N14830 X135.894 Y273.183 Z-0.312
N14835 X135.908 Y273.207 Z-0.321
N14840 Y273.235 Z-0.33
N14845 X135.892 Y273.258 Z-0.339
N14850 X135.867 Y273.27 Z-0.348
N14855 X135.839 Y273.266 Z-0.357
N14860 X135.818 Y273.248 Z-0.366
N14865 X135.81 Y273.221 Z-0.375
N14870 X135.817 Y273.194 Z-0.384
N14875 X135.838 Y273.175 Z-0.393
N14880 X135.865 Y273.171 Z-0.402
N14885 X135.891 Y273.181 Z-0.411
N14890 X135.907 Y273.204 Z-0.42
N14895 X135.909 Y273.232 Z-0.429
N14900 X135.895 Y273.256 Z-0.438
N14905 X135.87 Y273.269 Z-0.447
N14910 X135.843 Y273.267 Z-0.456
N14915 X135.82 Y273.251 Z-0.465
N14920 X135.81 Y273.224 Z-0.474
N14925 X135.816 Y273.197 Z-0.483
N14930 X135.835 Y273.177 Z-0.492
N14935 X135.862 Y273.17 Z-0.501
N14940 X135.888 Y273.179 Z-0.51
N14945 X135.906 Y273.201 Z-0.519
N14950 X135.909 Y273.229 Z-0.528
N14955 X135.897 Y273.254 Z-0.537
N14960 X135.874 Y273.268 Z-0.546
N14965 X135.846 Z-0.555
N14970 X135.822 Y273.253 Z-0.564
N14975 X135.811 Y273.228 Z-0.573
N14980 X135.814 Y273.2 Z-0.582
N14985 X135.832 Y273.179 Z-0.591
N14990 X135.859 Y273.17 Z-0.6
N14995 X135.886 Y273.177 Z-0.609
N15000 X135.905 Y273.198 Z-0.618
N15005 X135.91 Y273.225 Z-0.627
N15010 X135.899 Y273.251 Z-0.636
N15015 X135.877 Y273.267 Z-0.645
N15020 X135.849 Y273.269 Z-0.654
N15025 X135.824 Y273.255 Z-0.663
N15030 X135.811 Y273.231 Z-0.672
N15035 X135.813 Y273.203 Z-0.681
N15040 X135.83 Y273.181 Z-0.69
N15045 X135.855 Y273.171 Z-0.699
N15050 X135.883 Y273.176 Z-0.708
N15055 X135.903 Y273.195 Z-0.717
N15060 X135.91 Y273.222 Z-0.726
N15065 X135.901 Y273.249 Z-0.735
N15070 X135.88 Y273.266 Z-0.744
N15075 X135.852 Y273.27 Z-0.753
N15080 X135.827 Y273.258 Z-0.762
N15085 X135.812 Y273.234 Z-0.771
N15090 Y273.206 Z-0.78
N15095 X135.827 Y273.183 Z-0.789
N15100 X135.852 Y273.171 Z-0.798
N15105 X135.88 Y273.174 Z-0.807
N15110 X135.901 Y273.192 Z-0.816
N15115 X135.91 Y273.219 Z-0.825
N15120 X135.903 Y273.246 Z-0.834
N15125 X135.883 Y273.265 Z-0.843
N15130 X135.855 Y273.27 Z-0.852
N15135 X135.829 Y273.26 Z-0.861
N15140 X135.813 Y273.237 Z-0.869
N15145 X135.811 Y273.209 Z-0.878
N15150 X135.825 Y273.185 Z-0.887
N15155 X135.849 Y273.172 Z-0.896
N15160 X135.877 Y273.173 Z-0.905
N15165 X135.899 Y273.19 Z-0.914
N15170 X135.91 Y273.216 Z-0.923
N15175 X135.905 Y273.243 Z-0.932
N15180 X135.886 Y273.263 Z-0.941
N15185 X135.859 Y273.27 Z-0.95
N15190 X135.832 Y273.262 Z-0.959
N15195 X135.814 Y273.24 Z-0.968
N15200 X135.811 Y273.213 Z-0.977
N15205 X135.822 Y273.187 Z-0.986
N15210 X135.846 Y273.172 Z-0.995
N15215 X135.874 Z-1.004
N15220 X135.897 Y273.187 Z-1.013
N15225 X135.909 Y273.212 Z-1.022
N15230 X135.906 Y273.24 Z-1.031
N15235 X135.888 Y273.262 Z-1.04
N15240 X135.864 Y273.27 Z-1.049
N15245 X135.839 Y273.266 Z-1.057
N15250 X135.819 Y273.249 Z-1.065
N15255 X135.81 Y273.225 Z-1.074
N15260 X135.814 Y273.2 Z-1.082
N15265 X135.831 Y273.18 Z-1.09
N15270 X135.855 Y273.171 Z-1.098
N15275 X135.88 Y273.175 Z-1.107
N15280 X135.9 Y273.191 Z-1.115
N15285 X135.91 Y273.215 Z-1.123
N15290 X135.906 Y273.24 Z-1.131
N15295 X135.89 Y273.26 Z-1.14
N15300 X135.866 Y273.27 Z-1.148
N15305 X135.841 Y273.266 Z-1.156
N15310 X135.82 Y273.251 Z-1.165
N15315 X135.81 Y273.227 Z-1.173
N15320 X135.814 Y273.202 Z-1.181
N15325 X135.829 Y273.181 Z-1.189
N15330 X135.855 Y273.171 Z-1.198
N15335 X135.882 Y273.176 Z-1.207
N15340 X135.903 Y273.194 Z-1.216
N15345 X135.91 Y273.221 Z-1.225
N15350 X135.902 Y273.248 Z-1.234
N15355 X135.88 Y273.266 Z-1.243
N15360 X135.853 Y273.27 Z-1.252
N15365 X135.827 Y273.258 Z-1.261
N15370 X135.812 Y273.235 Z-1.27
N15375 Y273.207 Z-1.279
N15380 X135.826 Y273.183 Z-1.288
N15385 X135.851 Y273.171 Z-1.297
N15390 X135.879 Y273.174 Z-1.306
N15395 X135.901 Y273.191 Z-1.315
N15400 X135.91 Y273.218 Z-1.324
N15405 X135.904 Y273.245 Z-1.333
N15410 X135.884 Y273.264 Z-1.342
N15415 X135.856 Y273.27 Z-1.351
N15420 X135.83 Y273.261 Z-1.36
N15425 X135.813 Y273.238 Z-1.369
N15430 X135.811 Y273.211 Z-1.378
N15435 X135.824 Y273.186 Z-1.387
N15440 X135.848 Y273.172 Z-1.396
N15445 X135.876 Y273.173 Z-1.405
N15450 X135.899 Y273.189 Z-1.414
N15455 X135.91 Y273.214 Z-1.423
N15460 X135.905 Y273.242 Z-1.432
N15465 X135.887 Y273.263 Z-1.441
N15470 X135.86 Y273.27 Z-1.45
N15475 X135.833 Y273.263 Z-1.459
N15480 X135.815 Y273.242 Z-1.468
N15485 X135.81 Y273.214 Z-1.477
N15490 X135.821 Y273.189 Z-1.486
N15495 X135.844 Y273.173 Z-1.495
N15500 X135.872 Y273.172 Z-1.504
N15505 X135.896 Y273.186 Z-1.513
N15510 X135.909 Y273.211 Z-1.522
N15515 X135.907 Y273.238 Z-1.531
N15520 X135.89 Y273.261 Z-1.54
N15525 X135.864 Y273.27 Z-1.549
N15530 X135.836 Y273.264 Z-1.558
N15535 X135.816 Y273.245 Z-1.567
N15540 X135.81 Y273.218 Z-1.576
N15545 X135.819 Y273.191 Z-1.585
N15550 X135.841 Y273.174 Z-1.594
N15555 X135.869 Y273.171 Z-1.603
N15560 X135.894 Y273.183 Z-1.612
N15565 X135.908 Y273.207 Z-1.621
N15570 Y273.235 Z-1.63
N15575 X135.892 Y273.258 Z-1.639
N15580 X135.867 Y273.27 Z-1.648
N15585 X135.839 Y273.266 Z-1.657
N15590 X135.818 Y273.248 Z-1.666
N15595 X135.81 Y273.221 Z-1.675
N15600 X135.817 Y273.194 Z-1.684
N15605 X135.838 Y273.176 Z-1.693
N15610 X135.865 Y273.171 Z-1.702
N15615 X135.891 Y273.181 Z-1.711
N15620 X135.906 Y273.202 Z-1.719
N15625 X135.909 Y273.227 Z-1.727
N15630 X135.9 Y273.251 Z-1.735
N15635 X135.879 Y273.266 Z-1.744
N15640 X135.854 Y273.27 Z-1.752
N15645 X135.83 Y273.26 Z-1.76
N15650 X135.814 Y273.24 Z-1.769
N15655 X135.81 Y273.215 Z-1.777
N15660 X135.82 Y273.191 Z-1.785
N15665 X135.842 Y273.174 Z-1.794
N15670 X135.87 Y273.171 Z-1.803
N15675 X135.894 Y273.184 Z-1.812
N15680 X135.908 Y273.208 Z-1.821
N15685 X135.907 Y273.236 Z-1.83
N15690 X135.892 Y273.259 Z-1.839
N15695 X135.866 Y273.27 Z-1.848
N15700 X135.839 Y273.266 Z-1.857
N15705 X135.818 Y273.247 Z-1.866
N15710 X135.81 Y273.22 Z-1.875
N15715 X135.818 Y273.194 Z-1.884
N15720 X135.839 Y273.175 Z-1.893
N15725 X135.866 Y273.171 Z-1.902
N15730 X135.892 Y273.182 Z-1.911
N15735 X135.907 Y273.205 Z-1.92
N15740 X135.908 Y273.232 Z-1.929
N15745 X135.894 Y273.257 Z-1.938
N15750 X135.87 Y273.269 Z-1.947
N15755 X135.842 Y273.267 Z-1.956
N15760 X135.82 Y273.25 Z-1.965
N15765 X135.81 Y273.224 Z-1.974
N15770 X135.816 Y273.197 Z-1.983
N15775 X135.835 Y273.177 Z-1.992
N15780 X135.862 Y273.17 Z-2.001
N15785 X135.889 Y273.179 Z-2.01
N15790 X135.906 Y273.201 Z-2.019
N15795 X135.909 Y273.229 Z-2.028
N15800 X135.897 Y273.254 Z-2.037
N15805 X135.873 Y273.269 Z-2.046
N15810 X135.845 Y273.268 Z-2.055
N15815 X135.822 Y273.253 Z-2.064
N15820 X135.81 Y273.227 Z-2.073
N15825 X135.814 Y273.2 Z-2.082
N15830 X135.832 Y273.179 Z-2.091
N15835 X135.859 Y273.17 Z-2.1
N15840 X135.886 Y273.178 Z-2.109
N15845 X135.905 Y273.198 Z-2.118
N15850 X135.91 Y273.225 Z-2.127
N15855 X135.899 Y273.251 Z-2.136
N15860 X135.877 Y273.267 Z-2.145
N15865 X135.849 Y273.269 Z-2.154
N15870 X135.824 Y273.255 Z-2.163
N15875 X135.811 Y273.231 Z-2.172
N15880 X135.813 Y273.203 Z-2.181
N15885 X135.829 Y273.181 Z-2.19
N15890 X135.855 Y273.171 Z-2.199
N15895 X135.883 Y273.176 Z-2.208
N15900 X135.903 Y273.195 Z-2.217
N15905 X135.91 Y273.222 Z-2.225
N15910 X135.901 Y273.248 Z-2.234
N15915 X135.88 Y273.266 Z-2.243
N15920 X135.852 Y273.27 Z-2.252
N15925 X135.827 Y273.258 Z-2.261
N15930 X135.812 Y273.234 Z-2.27
N15935 Y273.207 Z-2.279
N15940 X135.827 Y273.183 Z-2.288
N15945 X135.852 Y273.171 Z-2.297
N15950 X135.88 Y273.174 Z-2.306
N15955 X135.9 Y273.19 Z-2.315
N15960 X135.91 Y273.214 Z-2.323
N15965 X135.906 Y273.239 Z-2.331
N15970 X135.891 Y273.26 Z-2.339
N15975 X135.867 Y273.27 Z-2.348
N15980 X135.841 Y273.267 Z-2.356
N15985 X135.821 Y273.251 Z-2.364
N15990 X135.811 Y273.228 Z-2.373
N15995 X135.813 Y273.202 Z-2.381
N16000 X135.83 Y273.18 Z-2.39
N16005 X135.856 Y273.17 Z-2.399
N16010 X135.883 Y273.176 Z-2.408
N16015 X135.903 Y273.195 Z-2.417
N16020 X135.91 Y273.222 Z-2.426
N16025 X135.901 Y273.248 Z-2.434
N16030 X135.88 Y273.266 Z-2.443
N16035 X135.853 Y273.27 Z-2.452
N16040 X135.827 Y273.258 Z-2.461
N16045 X135.812 Y273.235 Z-2.47
N16050 Y273.207 Z-2.479
N16055 X135.826 Y273.184 Z-2.488
N16060 X135.851 Y273.171 Z-2.497
N16065 X135.878 Y273.174 Z-2.506
N16070 X135.9 Y273.191 Z-2.515
N16075 X135.91 Y273.217 Z-2.524
N16080 X135.904 Y273.244 Z-2.533
N16085 X135.885 Y273.264 Z-2.542
N16090 X135.858 Y273.27 Z-2.551
N16095 X135.832 Y273.262 Z-2.56
N16100 X135.814 Y273.24 Z-2.569
N16105 X135.811 Y273.213 Z-2.577
N16110 X135.822 Y273.188 Z-2.586
N16115 X135.845 Y273.172 Z-2.595
N16120 X135.873 Z-2.604
N16125 X135.895 Y273.185 Z-2.613
N16130 X135.908 Y273.207 Z-2.621
N16135 Y273.233 Z-2.629
N16140 X135.896 Y273.255 Z-2.637
N16145 X135.874 Y273.268 Z-2.646
N16150 X135.848 Y273.269 Z-2.654
N16155 X135.825 Y273.256 Z-2.662
N16160 X135.812 Y273.234 Z-2.67
N16165 X135.811 Y273.209 Z-2.679
N16170 X135.825 Y273.185 Z-2.688
N16175 X135.85 Y273.171 Z-2.697
N16180 X135.877 Y273.173 Z-2.706
N16185 X135.9 Y273.19 Z-2.715
N16190 X135.91 Y273.216 Z-2.724
N16195 X135.904 Y273.243 Z-2.733
N16200 X135.885 Y273.264 Z-2.742
N16205 X135.858 Y273.27 Z-2.751
N16210 X135.832 Y273.261 Z-2.76
N16215 X135.814 Y273.24 Z-2.769
N16220 X135.811 Y273.212 Z-2.778
N16225 X135.823 Y273.187 Z-2.787
N16230 X135.846 Y273.172 Z-2.796
N16235 X135.874 Z-2.805
N16240 X135.898 Y273.187 Z-2.814
N16245 X135.909 Y273.213 Z-2.823
N16250 X135.906 Y273.24 Z-2.832
N16255 X135.888 Y273.262 Z-2.84
N16260 X135.862 Y273.27 Z-2.849
N16265 X135.835 Y273.263 Z-2.858
N16270 X135.815 Y273.243 Z-2.867
N16275 X135.81 Y273.216 Z-2.876
N16280 X135.82 Y273.19 Z-2.885
N16285 X135.843 Y273.173 Z-2.894
N16290 X135.871 Y273.171 Z-2.903
N16295 X135.895 Y273.185 Z-2.912
N16300 X135.909 Y273.209 Z-2.921
N16305 X135.907 Y273.237 Z-2.93
N16310 X135.891 Y273.26 Z-2.939
N16315 X135.865 Y273.27 Z-2.948
N16320 X135.838 Y273.265 Z-2.957
N16325 X135.817 Y273.246 Z-2.966
N16330 X135.81 Y273.219 Z-2.975
N16335 X135.818 Y273.193 Z-2.984
N16340 X135.839 Y273.175 Z-2.993
N16345 X135.867 Y273.171 Z-3.002
N16350 X135.892 Y273.182 Z-3.011
N16355 X135.908 Y273.206 Z-3.02
N16360 Y273.233 Z-3.029
N16365 X135.894 Y273.257 Z-3.038
N16370 X135.869 Y273.27 Z-3.047
N16375 X135.841 Y273.267 Z-3.056
N16380 X135.819 Y273.249 Z-3.065
N16385 X135.81 Y273.223 Z-3.074
N16390 X135.816 Y273.196 Z-3.083
N16395 X135.836 Y273.176 Z-3.092
N16400 X135.864 Y273.17 Z-3.101
N16405 X135.89 Y273.18 Z-3.11
N16410 X135.907 Y273.202 Z-3.119
N16415 X135.909 Y273.23 Z-3.128
N16420 X135.896 Y273.255 Z-3.137
N16425 X135.872 Y273.269 Z-3.146
N16430 X135.844 Y273.268 Z-3.155
N16435 X135.821 Y273.252 Z-3.164
N16440 X135.81 Y273.226 Z-3.173
N16445 X135.815 Y273.199 Z-3.182
N16450 X135.833 Y273.178 Z-3.191
N16455 X135.86 Y273.17 Z-3.2
N16460 G3 Y273.27 J0.05
N16465 Y273.17 J-0.05
N16470 G1 X135.878 Y273.178
N16475 X135.885 Y273.195
N16480 X135.86 Y273.22
N16485 G0 Z2.3
N16490 X192.367 Y296.448
N16495 G1 Z0.6 F50
N16500 G19 G2 Y296.148 Z0.3 J-0.3
N16505 G1 Y295.999
N16510 G17 G3 X192.667 Y295.698 I0.3
N16515 Y296.898 Z0.25 J0.6 F800
N16520 Y295.698 Z0.2 J-0.6
N16525 Y296.898 Z0.15 J0.6
N16530 Y295.698 Z0.1 J-0.6
N16535 Y296.898 Z0.05 J0.6
N16540 Y295.698 Z0 J-0.6
N16545 Y296.898 Z-0.05 J0.6
N16550 Y295.698 Z-0.1 J-0.6
N16555 Y296.898 Z-0.15 J0.6
N16560 Y295.698 Z-0.2 J-0.6
N16565 Y296.898 Z-0.25 J0.6
N16570 Y295.698 Z-0.3 J-0.6
N16575 Y296.898 Z-0.35 J0.6
N16580 Y295.698 Z-0.4 J-0.6
N16585 Y296.898 Z-0.45 J0.6
N16590 Y295.698 Z-0.5 J-0.6
N16595 Y296.898 Z-0.55 J0.6
N16600 Y295.698 Z-0.6 J-0.6
N16605 Y296.898 Z-0.65 J0.6
N16610 Y295.698 Z-0.7 J-0.6
N16615 Y296.898 Z-0.75 J0.6
N16620 Y295.698 Z-0.8 J-0.6
N16625 Y296.898 Z-0.85 J0.6
N16630 Y295.698 Z-0.9 J-0.6
N16635 Y296.898 Z-0.95 J0.6
N16640 Y295.698 Z-1 J-0.6
N16645 Y296.898 Z-1.05 J0.6
N16650 Y295.698 Z-1.1 J-0.6
N16655 Y296.898 Z-1.15 J0.6
N16660 Y295.698 Z-1.2 J-0.6
N16665 Y296.898 Z-1.25 J0.6
N16670 Y295.698 Z-1.3 J-0.6
N16675 Y296.898 Z-1.35 J0.6
N16680 Y295.698 Z-1.4 J-0.6
N16685 Y296.898 Z-1.45 J0.6
N16690 Y295.698 Z-1.5 J-0.6
N16695 Y296.898 Z-1.55 J0.6
N16700 Y295.698 Z-1.6 J-0.6
N16705 Y296.898 Z-1.65 J0.6
N16710 Y295.698 Z-1.7 J-0.6
N16715 Y296.898 Z-1.75 J0.6
N16720 Y295.698 Z-1.8 J-0.6
N16725 Y296.898 Z-1.85 J0.6
N16730 Y295.698 Z-1.9 J-0.6
N16735 Y296.898 Z-1.95 J0.6
N16740 Y295.698 Z-2 J-0.6
N16745 Y296.898 Z-2.05 J0.6
N16750 Y295.698 Z-2.1 J-0.6
N16755 Y296.898 Z-2.15 J0.6
N16760 Y295.698 Z-2.2 J-0.6
N16765 Y296.898 Z-2.25 J0.6
N16770 Y295.698 Z-2.3 J-0.6
N16775 Y296.898 Z-2.35 J0.6
N16780 Y295.698 Z-2.4 J-0.6
N16785 Y296.898 Z-2.45 J0.6
N16790 Y295.698 Z-2.5 J-0.6
N16795 Y296.898 Z-2.55 J0.6
N16800 Y295.698 Z-2.6 J-0.6
N16805 Y296.898 Z-2.65 J0.6
N16810 Y295.698 Z-2.7 J-0.6
N16815 Y296.898 Z-2.75 J0.6
N16820 Y295.698 Z-2.8 J-0.6
N16825 Y296.898 Z-2.85 J0.6
N16830 Y295.698 Z-2.9 J-0.6
N16835 Y296.898 Z-2.95 J0.6
N16840 Y295.698 Z-3 J-0.6
N16845 Y296.898 Z-3.05 J0.6
N16850 Y295.698 Z-3.1 J-0.6
N16855 Y296.898 Z-3.15 J0.6
N16860 Y295.698 Z-3.2 J-0.6
N16865 Y296.898 J0.6
N16870 Y295.698 J-0.6
N16875 X192.967 Y295.999 J0.3
N16880 G1 Y296.148
N16885 G19 G3 Y296.448 Z-2.9 K0.3
N16890 G0 Z2.3
N16895 X190.133 Y253.292
N16900 Z0
N16905 G1 Z-1.7 F50
N16910 X190.108 Y253.267
N16915 X190.115 Y253.249
N16920 X190.133 Y253.242
N16925 X190.16 Y253.249 Z-1.709 F800
N16930 X190.178 Y253.27 Z-1.718
N16935 X190.182 Y253.298 Z-1.727
N16940 X190.171 Y253.323 Z-1.736
N16945 X190.149 Y253.339 Z-1.745
N16950 X190.121 Y253.34 Z-1.754
N16955 X190.097 Y253.326 Z-1.763
N16960 X190.084 Y253.302 Z-1.772
N16965 X190.086 Y253.274 Z-1.781
N16970 X190.103 Y253.252 Z-1.79
N16975 X190.129 Y253.242 Z-1.799
N16980 X190.156 Y253.248 Z-1.808
N16985 X190.176 Y253.267 Z-1.817
N16990 X190.183 Y253.294 Z-1.826
N16995 X190.174 Y253.32 Z-1.835
N17000 X190.152 Y253.338 Z-1.844
N17005 X190.124 Y253.341 Z-1.853
N17010 X190.099 Y253.329 Z-1.862
N17015 X190.085 Y253.305 Z-1.871
N17020 Y253.277 Z-1.88
N17025 X190.1 Y253.254 Z-1.889
N17030 X190.125 Y253.242 Z-1.898
N17035 X190.153 Y253.246 Z-1.907
N17040 X190.174 Y253.264 Z-1.916
N17045 X190.183 Y253.29 Z-1.925
N17050 X190.176 Y253.317 Z-1.934
N17055 X190.155 Y253.336 Z-1.943
N17060 X190.128 Y253.341 Z-1.951
N17065 X190.102 Y253.331 Z-1.96
N17070 X190.086 Y253.309 Z-1.969
N17075 X190.084 Y253.281 Z-1.978
N17080 X190.097 Y253.257 Z-1.987
N17085 X190.122 Y253.243 Z-1.996
N17090 X190.149 Y253.245 Z-2.005
N17095 X190.172 Y253.261 Z-2.014
N17100 X190.183 Y253.287 Z-2.023
N17105 X190.178 Y253.314 Z-2.032
N17110 X190.159 Y253.334 Z-2.041
N17115 X190.132 Y253.342 Z-2.05
N17120 X190.105 Y253.333 Z-2.059
N17125 X190.087 Y253.312 Z-2.068
N17130 X190.083 Y253.285 Z-2.077
N17135 X190.095 Y253.259 Z-2.086
